Lutty/Resources/BundledLUTs/Golden-Hour.cube
# Generated by Scripts/generate_bundled_luts.swift
TITLE "Golden Hour"
LUT_3D_SIZE 9
DOMAIN_MIN 0.0 0.0 0.0
DOMAIN_MAX 1.0 1.0 1.0
0.001030 0.006000 0.012960
0.139042 0.006425 0.011950
0.271430 0.006850 0.010940
0.401776 0.007276 0.009930
0.530814 0.007701 0.008921
0.658888 0.008126 0.007911
0.786199 0.008551 0.006901
0.912879 0.008976 0.005891
1.000000 0.009402 0.004881
0.005679 0.135364 0.009563
0.140912 0.134988 0.008553
0.273358 0.134613 0.007543
0.403737 0.134237 0.006533
0.532798 0.133861 0.005523
0.660890 0.133485 0.004514
0.788215 0.133109 0.003504
0.914907 0.132733 0.002494
1.000000 0.132356 0.001484
0.010328 0.262961 0.006166
0.142780 0.262591 0.005156
0.275284 0.262220 0.004146
0.405697 0.261850 0.003136
0.534782 0.261480 0.002126
0.662891 0.261109 0.001116
0.790231 0.260739 0.000107
0.916935 0.260369 0.000000
1.000000 0.259998 0.000000
0.014976 0.389899 0.002768
0.144646 0.389532 0.001759
0.277210 0.389165 0.000749
0.407657 0.388798 0.000000
0.536765 0.388431 0.000000
0.664892 0.388064 0.000000
0.792246 0.387697 0.000000
0.918963 0.387330 0.000000
1.000000 0.386963 0.000000
0.019625 0.516411 0.000000
0.146511 0.516047 0.000000
0.279135 0.515682 0.000000
0.409615 0.515317 0.000000
0.538747 0.514952 0.000000
0.666893 0.514588 0.000000
0.794262 0.514223 0.000000
0.920990 0.513858 0.000000
1.000000 0.513493 0.000000
0.024274 0.642608 0.000000
0.148373 0.642245 0.000000
0.281059 0.641882 0.000000
0.411574 0.641519 0.000000
0.540729 0.641156 0.000000
0.668893 0.640793 0.000000
0.796277 0.640430 0.000000
0.923018 0.640067 0.000000
1.000000 0.639704 0.000000
0.028923 0.768554 0.000000
0.150234 0.768192 0.000000
0.282982 0.767831 0.000000
0.413532 0.767469 0.000000
0.542711 0.767108 0.000000
0.670893 0.766746 0.000000
0.798291 0.766385 0.000000
0.925045 0.766023 0.000000
1.000000 0.765661 0.000000
0.033572 0.894291 0.000000
0.152093 0.893931 0.000000
0.284905 0.893571 0.000000
0.415489 0.893210 0.000000
0.544692 0.892850 0.000000
0.672892 0.892490 0.000000
0.800306 0.892129 0.000000
0.927071 0.891769 0.000000
1.000000 0.891408 0.000000
0.038220 1.000000 0.000000
0.153949 1.000000 0.000000
0.286826 1.000000 0.000000
0.417445 1.000000 0.000000
0.546673 1.000000 0.000000
0.674892 1.000000 0.000000
0.802320 1.000000 0.000000
0.929098 1.000000 0.000000
1.000000 1.000000 0.000000
0.001499 0.006144 0.131261
0.139231 0.006570 0.129493
0.271625 0.006995 0.127725
0.401974 0.007420 0.125957
0.531015 0.007845 0.124189
0.659090 0.008270 0.122422
0.786403 0.008696 0.120654
0.913083 0.009121 0.118887
1.000000 0.009546 0.117120
0.006148 0.135237 0.125313
0.141100 0.134861 0.123546
0.273552 0.134485 0.121778
0.403935 0.134109 0.120011
0.532998 0.133733 0.118244
0.661092 0.133357 0.116477
0.788419 0.132981 0.114710
0.915112 0.132605 0.112943
1.000000 0.132229 0.111177
0.010797 0.262835 0.119368
0.142968 0.262465 0.117601
0.275479 0.262095 0.115834
0.405895 0.261724 0.114067
0.534982 0.261354 0.112300
0.663093 0.260984 0.110534
0.790434 0.260613 0.108767
0.917140 0.260243 0.107001
1.000000 0.259873 0.105235
0.015446 0.389774 0.113424
0.144835 0.389407 0.111657
0.277405 0.389040 0.109891
0.407854 0.388673 0.108124
0.536965 0.388306 0.106358
0.665094 0.387939 0.104592
0.792450 0.387572 0.102826
0.919167 0.387205 0.101061
1.000000 0.386838 0.099295
0.020094 0.516288 0.107481
0.146699 0.515923 0.105715
0.279329 0.515558 0.103949
0.409813 0.515193 0.102183
0.538947 0.514829 0.100418
0.667095 0.514464 0.098652
0.794465 0.514099 0.096887
0.921195 0.513734 0.095122
1.000000 0.513369 0.093357
0.024743 0.642485 0.101541
0.148561 0.642122 0.099775
0.281253 0.641759 0.098010
0.411771 0.641396 0.096244
0.540929 0.641033 0.094479
0.669095 0.640670 0.092714
0.796480 0.640307 0.090950
0.923222 0.639944 0.089185
1.000000 0.639581 0.087420
0.029392 0.768431 0.095602
0.150422 0.768070 0.093837
0.283176 0.767708 0.092072
0.413729 0.767346 0.090307
0.542911 0.766985 0.088543
0.671095 0.766623 0.086778
0.798495 0.766262 0.085014
0.925249 0.765900 0.083250
1.000000 0.765539 0.081486
0.034041 0.894169 0.089665
0.152280 0.893809 0.087900
0.285099 0.893448 0.086136
0.415686 0.893088 0.084372
0.544892 0.892728 0.082608
0.673094 0.892367 0.080844
0.800509 0.892007 0.079080
0.927276 0.891646 0.077317
1.000000 0.891286 0.075553
0.038690 1.000000 0.083729
0.154136 1.000000 0.081966
0.287020 1.000000 0.080202
0.417643 1.000000 0.078438
0.546873 1.000000 0.076675
0.675093 1.000000 0.074912
0.802523 1.000000 0.073148
0.929303 1.000000 0.071386
1.000000 1.000000 0.069623
0.001969 0.006289 0.254548
0.139420 0.006714 0.252763
0.271819 0.007139 0.250979
0.402172 0.007564 0.249196
0.531215 0.007990 0.247412
0.659292 0.008415 0.245628
0.786606 0.008840 0.243844
0.913288 0.009265 0.242061
1.000000 0.009690 0.240277
0.006617 0.135109 0.248546
0.141289 0.134733 0.246762
0.273747 0.134357 0.244979
0.404133 0.133981 0.243195
0.533199 0.133605 0.241411
0.661294 0.133229 0.239628
0.788622 0.132853 0.237844
0.915316 0.132477 0.236061
1.000000 0.132101 0.234278
0.011266 0.262709 0.242546
0.143157 0.262339 0.240762
0.275673 0.261969 0.238979
0.406093 0.261599 0.237195
0.535182 0.261228 0.235412
0.663295 0.260858 0.233629
0.790638 0.260488 0.231845
0.917344 0.260117 0.230062
1.000000 0.259747 0.228279
0.015915 0.389650 0.236546
0.145023 0.389283 0.234763
0.277599 0.388916 0.232979
0.408052 0.388549 0.231196
0.537165 0.388182 0.229413
0.665296 0.387815 0.227630
0.792653 0.387447 0.225847
0.919372 0.387080 0.224064
1.000000 0.386713 0.222281
0.020564 0.516164 0.230547
0.146887 0.515799 0.228764
0.279524 0.515434 0.226981
0.410011 0.515069 0.225198
0.539147 0.514705 0.223415
0.667297 0.514340 0.221632
0.794669 0.513975 0.219850
0.921400 0.513610 0.218067
1.000000 0.513245 0.216285
0.025213 0.642362 0.224549
0.148749 0.641999 0.222766
0.281448 0.641636 0.220983
0.411969 0.641273 0.219201
0.541129 0.640910 0.217418
0.669297 0.640547 0.215636
0.796683 0.640184 0.213853
0.923427 0.639821 0.212071
1.000000 0.639458 0.210289
0.029861 0.768308 0.218552
0.150609 0.767947 0.216769
0.283371 0.767585 0.214987
0.413927 0.767224 0.213204
0.543111 0.766862 0.211422
0.671297 0.766501 0.209640
0.798698 0.766139 0.207858
0.925454 0.765777 0.206076
1.000000 0.765416 0.204294
0.034510 0.894047 0.212555
0.152468 0.893686 0.210773
0.285293 0.893326 0.208991
0.415884 0.892966 0.207209
0.545092 0.892605 0.205427
0.673296 0.892245 0.203645
0.800712 0.891884 0.201863
0.927481 0.891524 0.200081
1.000000 0.891164 0.198299
0.039159 1.000000 0.206560
0.154324 1.000000 0.204778
0.287214 1.000000 0.202996
0.417840 1.000000 0.201214
0.547073 1.000000 0.199432
0.675295 1.000000 0.197651
0.802726 1.000000 0.195869
0.929507 1.000000 0.194088
1.000000 1.000000 0.192306
0.002438 0.006433 0.379789
0.139608 0.006858 0.377995
0.272014 0.007284 0.376202
0.402370 0.007709 0.374408
0.531415 0.008134 0.372615
0.659494 0.008559 0.370822
0.786810 0.008984 0.369028
0.913493 0.009410 0.367235
1.000000 0.009835 0.365442
0.007087 0.134981 0.373755
0.141478 0.134605 0.371962
0.273941 0.134230 0.370169
0.404331 0.133854 0.368375
0.533399 0.133478 0.366582
0.661496 0.133102 0.364789
0.788826 0.132726 0.362996
0.915521 0.132349 0.361203
1.000000 0.131973 0.359410
0.011735 0.262584 0.367723
0.143345 0.262213 0.365929
0.275868 0.261843 0.364136
0.406291 0.261473 0.362343
0.535382 0.261103 0.360550
0.663497 0.260732 0.358757
0.790841 0.260362 0.356964
0.917549 0.259991 0.355171
1.000000 0.259621 0.353378
0.016384 0.389525 0.361690
0.145211 0.389158 0.359897
0.277793 0.388791 0.358104
0.408250 0.388424 0.356311
0.537365 0.388057 0.354518
0.665498 0.387690 0.352726
0.792857 0.387323 0.350933
0.919577 0.386956 0.349140
1.000000 0.386588 0.347347
0.021033 0.516040 0.355659
0.147075 0.515675 0.353866
0.279718 0.515310 0.352073
0.410209 0.514946 0.350280
0.539347 0.514581 0.348487
0.667499 0.514216 0.346695
0.794872 0.513851 0.344902
0.921604 0.513486 0.343109
1.000000 0.513122 0.341317
0.025682 0.642238 0.349627
0.148937 0.641875 0.347835
0.281642 0.641512 0.346042
0.412167 0.641149 0.344249
0.541329 0.640786 0.342457
0.669499 0.640423 0.340664
0.796887 0.640060 0.338872
0.923632 0.639697 0.337080
1.000000 0.639334 0.335287
0.030331 0.768186 0.343597
0.150797 0.767824 0.341804
0.283565 0.767462 0.340012
0.414124 0.767101 0.338219
0.543311 0.766739 0.336427
0.671498 0.766378 0.334635
0.798901 0.766016 0.332842
0.925658 0.765655 0.331050
1.000000 0.765293 0.329258
0.034980 0.893924 0.337567
0.152655 0.893564 0.335774
0.285487 0.893204 0.333982
0.416081 0.892843 0.332190
0.545292 0.892483 0.330398
0.673498 0.892122 0.328606
0.800916 0.891762 0.326813
0.927685 0.891402 0.325021
1.000000 0.891041 0.323229
0.039628 1.000000 0.331537
0.154511 1.000000 0.329745
0.287408 1.000000 0.327953
0.418038 1.000000 0.326161
0.547273 1.000000 0.324369
0.675497 1.000000 0.322577
0.802930 1.000000 0.320785
0.929712 1.000000 0.318993
1.000000 1.000000 0.317201
0.002907 0.006578 0.506316
0.139797 0.007003 0.504516
0.272209 0.007428 0.502716
0.402568 0.007853 0.500915
0.531616 0.008278 0.499115
0.659697 0.008704 0.497315
0.787013 0.009129 0.495515
0.913698 0.009554 0.493715
1.000000 0.009979 0.491915
0.007556 0.134854 0.500260
0.141666 0.134478 0.498460
0.274136 0.134102 0.496660
0.404529 0.133726 0.494860
0.533599 0.133350 0.493059
0.661698 0.132974 0.491259
0.789029 0.132598 0.489459
0.915726 0.132222 0.487659
1.000000 0.131845 0.485859
0.012205 0.262458 0.494204
0.143534 0.262088 0.492404
0.276062 0.261717 0.490604
0.406488 0.261347 0.488804
0.535582 0.260977 0.487004
0.663699 0.260606 0.485204
0.791045 0.260236 0.483404
0.917754 0.259866 0.481604
1.000000 0.259495 0.479805
0.016854 0.389401 0.488149
0.145399 0.389033 0.486349
0.277988 0.388666 0.484549
0.408448 0.388299 0.482749
0.537565 0.387932 0.480949
0.665700 0.387565 0.479149
0.793060 0.387198 0.477349
0.919782 0.386831 0.475550
1.000000 0.386464 0.473750
0.021502 0.515916 0.482094
0.147263 0.515551 0.480294
0.279912 0.515186 0.478494
0.410406 0.514822 0.476694
0.539547 0.514457 0.474895
0.667700 0.514092 0.473095
0.795075 0.513727 0.471295
0.921809 0.513362 0.469496
1.000000 0.512998 0.467696
0.026151 0.642115 0.476039
0.149125 0.641752 0.474239
0.281836 0.641389 0.472440
0.412364 0.641026 0.470640
0.541529 0.640663 0.468840
0.669701 0.640300 0.467041
0.797090 0.639937 0.465241
0.923836 0.639574 0.463442
1.000000 0.639211 0.461642
0.030800 0.768063 0.469985
0.150985 0.767701 0.468185
0.283759 0.767340 0.466386
0.414322 0.766978 0.464586
0.543511 0.766617 0.462787
0.671700 0.766255 0.460987
0.799105 0.765893 0.459188
0.925863 0.765532 0.457389
1.000000 0.765170 0.455589
0.035449 0.893802 0.463931
0.152842 0.893442 0.462132
0.285681 0.893081 0.460332
0.416279 0.892721 0.458533
0.545492 0.892360 0.456734
0.673700 0.892000 0.454934
0.801119 0.891640 0.453135
0.927890 0.891279 0.451336
1.000000 0.890919 0.449537
0.040098 1.000000 0.457878
0.154698 1.000000 0.456078
0.287601 1.000000 0.454279
0.418235 1.000000 0.452480
0.547473 1.000000 0.450681
0.675699 1.000000 0.448882
0.803133 1.000000 0.447082
0.929916 1.000000 0.445283
1.000000 1.000000 0.443484
0.003376 0.006722 0.633809
0.139986 0.007147 0.632004
0.272403 0.007572 0.630198
0.402766 0.007998 0.628392
0.531816 0.008423 0.626587
0.659899 0.008848 0.624781
0.787217 0.009273 0.622976
0.913903 0.009698 0.621170
1.000000 0.010124 0.619365
0.008025 0.134726 0.627735
0.141855 0.134350 0.625929
0.274330 0.133974 0.624124
0.404726 0.133598 0.622318
0.533799 0.133222 0.620513
0.661900 0.132846 0.618708
0.789233 0.132470 0.616902
0.915931 0.132094 0.615097
1.000000 0.131718 0.613291
0.012674 0.262332 0.621661
0.143722 0.261962 0.619856
0.276257 0.261592 0.618050
0.406686 0.261221 0.616245
0.535783 0.260851 0.614439
0.663901 0.260481 0.612634
0.791248 0.260110 0.610829
0.917959 0.259740 0.609024
1.000000 0.259369 0.607218
0.017323 0.389276 0.615588
0.145588 0.388909 0.613782
0.278182 0.388542 0.611977
0.408645 0.388175 0.610172
0.537765 0.387808 0.608366
0.665902 0.387440 0.606561
0.793264 0.387073 0.604756
0.919986 0.386706 0.602951
1.000000 0.386339 0.601146
0.021972 0.515792 0.609514
0.147451 0.515427 0.607709
0.280106 0.515063 0.605904
0.410604 0.514698 0.604099
0.539748 0.514333 0.602294
0.667902 0.513968 0.600488
0.795279 0.513603 0.598683
0.922014 0.513239 0.596878
1.000000 0.512874 0.595073
0.026620 0.641992 0.603442
0.149313 0.641629 0.601636
0.282030 0.641266 0.599831
0.412562 0.640903 0.598026
0.541729 0.640540 0.596221
0.669902 0.640177 0.594416
0.797294 0.639814 0.592611
0.924041 0.639451 0.590806
1.000000 0.639088 0.589001
0.031269 0.767940 0.597369
0.151172 0.767578 0.595564
0.283953 0.767217 0.593759
0.414519 0.766855 0.591954
0.543711 0.766494 0.590149
0.671902 0.766132 0.588344
0.799308 0.765771 0.586539
0.926068 0.765409 0.584734
1.000000 0.765047 0.582929
0.035918 0.893679 0.591297
0.153030 0.893319 0.589492
0.285875 0.892959 0.587687
0.416476 0.892598 0.585882
0.545692 0.892238 0.584077
0.673902 0.891878 0.582272
0.801322 0.891517 0.580468
0.928094 0.891157 0.578663
1.000000 0.890797 0.576858
0.040567 1.000000 0.585225
0.154885 1.000000 0.583420
0.287795 1.000000 0.581615
0.418433 1.000000 0.579811
0.547672 1.000000 0.578006
0.675901 1.000000 0.576201
0.803336 1.000000 0.574396
0.930121 1.000000 0.572592
1.000000 1.000000 0.570787
0.003846 0.006866 0.762076
0.140175 0.007292 0.760266
0.272598 0.007717 0.758456
0.402964 0.008142 0.756646
0.532016 0.008567 0.754837
0.660101 0.008992 0.753027
0.787420 0.009418 0.751217
0.914107 0.009843 0.749407
1.000000 0.010268 0.747597
0.008495 0.134598 0.755988
0.142044 0.134223 0.754178
0.274525 0.133847 0.752368
0.404924 0.133471 0.750558
0.534000 0.133095 0.748748
0.662102 0.132718 0.746938
0.789436 0.132342 0.745128
0.916135 0.131966 0.743319
1.000000 0.131590 0.741509
0.013143 0.262206 0.749899
0.143911 0.261836 0.748089
0.276451 0.261466 0.746279
0.406884 0.261096 0.744469
0.535983 0.260725 0.742660
0.664103 0.260355 0.740850
0.791452 0.259984 0.739040
0.918163 0.259614 0.737230
1.000000 0.259243 0.735421
0.017792 0.389151 0.743811
0.145776 0.388784 0.742001
0.278376 0.388417 0.740191
0.408843 0.388050 0.738381
0.537965 0.387683 0.736572
0.666104 0.387316 0.734762
0.793467 0.386949 0.732952
0.920191 0.386582 0.731143
1.000000 0.386214 0.729333
0.022441 0.515668 0.737722
0.147639 0.515303 0.735913
0.280301 0.514939 0.734103
0.410802 0.514574 0.732294
0.539948 0.514209 0.730484
0.668104 0.513844 0.728674
0.795482 0.513479 0.726865
0.922218 0.513115 0.725055
1.000000 0.512750 0.723246
0.027090 0.641869 0.731635
0.149501 0.641506 0.729825
0.282224 0.641143 0.728016
0.412760 0.640780 0.726206
0.541929 0.640417 0.724396
0.670104 0.640053 0.722587
0.797497 0.639690 0.720777
0.924245 0.639327 0.718968
1.000000 0.638964 0.717159
0.031739 0.767817 0.725547
0.151360 0.767456 0.723738
0.284147 0.767094 0.721928
0.414717 0.766733 0.720119
0.543911 0.766371 0.718309
0.672104 0.766009 0.716500
0.799511 0.765648 0.714690
0.926272 0.765286 0.712881
1.000000 0.764925 0.711072
0.036387 0.893557 0.719460
0.153217 0.893197 0.717651
0.286068 0.892836 0.715841
0.416674 0.892476 0.714032
0.545892 0.892116 0.712222
0.674103 0.891755 0.710413
0.801526 0.891395 0.708604
0.928299 0.891035 0.706795
1.000000 0.890674 0.704985
0.041036 1.000000 0.713373
0.155073 1.000000 0.711564
0.287989 1.000000 0.709754
0.418630 1.000000 0.707945
0.547872 1.000000 0.706136
0.676102 1.000000 0.704327
0.803540 1.000000 0.702517
0.930325 1.000000 0.700708
1.000000 1.000000 0.698899
0.004315 0.007011 0.890991
0.140363 0.007436 0.889178
0.272792 0.007861 0.887364
0.403162 0.008286 0.885550
0.532216 0.008712 0.883737
0.660303 0.009137 0.881923
0.787624 0.009562 0.880109
0.914312 0.009987 0.878296
1.000000 0.010412 0.876482
0.008964 0.134471 0.884890
0.142232 0.134095 0.883076
0.274719 0.133719 0.881263
0.405122 0.133343 0.879449
0.534200 0.132967 0.877635
0.662304 0.132591 0.875822
0.789640 0.132215 0.874008
0.916340 0.131838 0.872195
1.000000 0.131462 0.870381
0.013613 0.262081 0.878789
0.144099 0.261710 0.876975
0.276645 0.261340 0.875162
0.407082 0.260970 0.873348
0.536183 0.260599 0.871535
0.664305 0.260229 0.869721
0.791655 0.259859 0.867908
0.918368 0.259488 0.866094
1.000000 0.259118 0.864281
0.018261 0.389027 0.872688
0.145964 0.388660 0.870874
0.278571 0.388292 0.869061
0.409041 0.387925 0.867247
0.538166 0.387558 0.865434
0.666306 0.387191 0.863621
0.793671 0.386824 0.861807
0.920396 0.386457 0.859994
1.000000 0.386090 0.858180
0.022910 0.515544 0.866587
0.147827 0.515180 0.864774
0.280495 0.514815 0.862960
0.410999 0.514450 0.861147
0.540148 0.514085 0.859334
0.668306 0.513720 0.857520
0.795686 0.513356 0.855707
0.922423 0.512991 0.853894
1.000000 0.512626 0.852080
0.027559 0.641745 0.860487
0.149688 0.641382 0.858673
0.282418 0.641019 0.856860
0.412957 0.640656 0.855047
0.542130 0.640293 0.853233
0.670306 0.639930 0.851420
0.797700 0.639567 0.849607
0.924450 0.639204 0.847794
1.000000 0.638841 0.845980
0.032208 0.767694 0.854387
0.151548 0.767333 0.852573
0.284341 0.766971 0.850760
0.414915 0.766610 0.848947
0.544111 0.766248 0.847133
0.672306 0.765887 0.845320
0.799715 0.765525 0.843507
0.926477 0.765163 0.841694
1.000000 0.764802 0.839881
0.036857 0.893435 0.848287
0.153405 0.893074 0.846473
0.286262 0.892714 0.844660
0.416871 0.892354 0.842847
0.546092 0.891993 0.841034
0.674305 0.891633 0.839221
0.801729 0.891273 0.837408
0.928504 0.890912 0.835594
1.000000 0.890552 0.833781
0.041505 1.000000 0.842187
0.155260 1.000000 0.840374
0.288183 1.000000 0.838561
0.418827 1.000000 0.836748
0.548072 1.000000 0.834934
0.676304 1.000000 0.833121
0.803743 1.000000 0.831308
0.930530 1.000000 0.829495
1.000000 1.000000 0.827682
0.004784 0.007155 0.992296
0.140552 0.007580 0.991287
0.272987 0.008006 0.990277
0.403360 0.008431 0.989267
0.532417 0.008856 0.988257
0.660505 0.009281 0.987247
0.787827 0.009706 0.986237
0.914517 0.010132 0.985227
1.000000 0.010557 0.984218
0.009433 0.134343 0.988899
0.142421 0.133967 0.987889
0.274914 0.133591 0.986880
0.405320 0.133215 0.985870
0.534400 0.132839 0.984860
0.662506 0.132463 0.983850
0.789843 0.132087 0.982840
0.916545 0.131711 0.981830
1.000000 0.131334 0.980820
0.014082 0.261955 0.985502
0.144287 0.261585 0.984492
0.276840 0.261214 0.983482
0.407280 0.260844 0.982472
0.536383 0.260474 0.981463
0.664507 0.260103 0.980453
0.791859 0.259733 0.979443
0.918573 0.259362 0.978433
1.000000 0.258992 0.977423
0.018731 0.388902 0.982105
0.146152 0.388535 0.981095
0.278765 0.388168 0.980085
0.409239 0.387801 0.979075
0.538366 0.387434 0.978065
0.666508 0.387066 0.977056
0.793874 0.386699 0.976046
0.920600 0.386332 0.975036
1.000000 0.385965 0.974026
0.023380 0.515421 0.978708
0.148015 0.515056 0.977698
0.280689 0.514691 0.976688
0.411197 0.514326 0.975678
0.540348 0.513961 0.974668
0.668508 0.513597 0.973658
0.795889 0.513232 0.972648
0.922628 0.512867 0.971639
1.000000 0.512502 0.970629
0.028028 0.641622 0.975310
0.149876 0.641259 0.974301
0.282612 0.640896 0.973291
0.413155 0.640533 0.972281
0.542330 0.640170 0.971271
0.670508 0.639807 0.970261
0.797904 0.639444 0.969251
0.924655 0.639081 0.968241
1.000000 0.638718 0.967232
0.032677 0.767572 0.971913
0.151735 0.767210 0.970903
0.284535 0.766849 0.969894
0.415112 0.766487 0.968884
0.544311 0.766125 0.967874
0.672508 0.765764 0.966864
0.799918 0.765402 0.965854
0.926682 0.765041 0.964844
1.000000 0.764679 0.963834
0.037326 0.893312 0.968516
0.153592 0.892952 0.967506
0.286456 0.892592 0.966496
0.417069 0.892231 0.965486
0.546292 0.891871 0.964477
0.674507 0.891511 0.963467
0.801932 0.891150 0.962457
0.928708 0.890790 0.961447
1.000000 0.890429 0.960437
0.041975 1.000000 0.965119
0.155447 1.000000 0.964109
0.288377 1.000000 0.963099
0.419025 1.000000 0.962089
0.548272 1.000000 0.961079
0.676506 1.000000 0.960070
0.803946 1.000000 0.959060
0.930735 1.000000 0.958050
1.000000 1.000000 0.957040
