Lutty/Resources/BundledLUTs/Golden-Hour.cube
# Generated by Scripts/generate_bundled_luts.swift
TITLE "Golden Hour"
LUT_3D_SIZE 5
DOMAIN_MIN 0.0 0.0 0.0
DOMAIN_MAX 1.0 1.0 1.0
0.001030 0.006000 0.012960
0.271430 0.006850 0.010940
0.530814 0.007701 0.008921
0.786199 0.008551 0.006901
1.000000 0.009402 0.004881
0.010328 0.262961 0.006166
0.275284 0.262220 0.004146
0.534782 0.261480 0.002126
0.790231 0.260739 0.000107
1.000000 0.259998 0.000000
0.019625 0.516411 0.000000
0.279135 0.515682 0.000000
0.538747 0.514952 0.000000
0.794262 0.514223 0.000000
1.000000 0.513493 0.000000
0.028923 0.768554 0.000000
0.282982 0.767831 0.000000
0.542711 0.767108 0.000000
0.798291 0.766385 0.000000
1.000000 0.765661 0.000000
0.038220 1.000000 0.000000
0.286826 1.000000 0.000000
0.546673 1.000000 0.000000
0.802320 1.000000 0.000000
1.000000 1.000000 0.000000
0.001969 0.006289 0.254548
0.271819 0.007139 0.250979
0.531215 0.007990 0.247412
0.786606 0.008840 0.243844
1.000000 0.009690 0.240277
0.011266 0.262709 0.242546
0.275673 0.261969 0.238979
0.535182 0.261228 0.235412
0.790638 0.260488 0.231845
1.000000 0.259747 0.228279
0.020564 0.516164 0.230547
0.279524 0.515434 0.226981
0.539147 0.514705 0.223415
0.794669 0.513975 0.219850
1.000000 0.513245 0.216285
0.029861 0.768308 0.218552
0.283371 0.767585 0.214987
0.543111 0.766862 0.211422
0.798698 0.766139 0.207858
1.000000 0.765416 0.204294
0.039159 1.000000 0.206560
0.287214 1.000000 0.202996
0.547073 1.000000 0.199432
0.802726 1.000000 0.195869
1.000000 1.000000 0.192306
0.002907 0.006578 0.506316
0.272209 0.007428 0.502716
0.531616 0.008278 0.499115
0.787013 0.009129 0.495515
1.000000 0.009979 0.491915
0.012205 0.262458 0.494204
0.276062 0.261717 0.490604
0.535582 0.260977 0.487004
0.791045 0.260236 0.483404
1.000000 0.259495 0.479805
0.021502 0.515916 0.482094
0.279912 0.515186 0.478494
0.539547 0.514457 0.474895
0.795075 0.513727 0.471295
1.000000 0.512998 0.467696
0.030800 0.768063 0.469985
0.283759 0.767340 0.466386
0.543511 0.766617 0.462787
0.799105 0.765893 0.459188
1.000000 0.765170 0.455589
0.040098 1.000000 0.457878
0.287601 1.000000 0.454279
0.547473 1.000000 0.450681
0.803133 1.000000 0.447082
1.000000 1.000000 0.443484
0.003846 0.006866 0.762076
0.272598 0.007717 0.758456
0.532016 0.008567 0.754837
0.787420 0.009418 0.751217
1.000000 0.010268 0.747597
0.013143 0.262206 0.749899
0.276451 0.261466 0.746279
0.535983 0.260725 0.742660
0.791452 0.259984 0.739040
1.000000 0.259243 0.735421
0.022441 0.515668 0.737722
0.280301 0.514939 0.734103
0.539948 0.514209 0.730484
0.795482 0.513479 0.726865
1.000000 0.512750 0.723246
0.031739 0.767817 0.725547
0.284147 0.767094 0.721928
0.543911 0.766371 0.718309
0.799511 0.765648 0.714690
1.000000 0.764925 0.711072
0.041036 1.000000 0.713373
0.287989 1.000000 0.709754
0.547872 1.000000 0.706136
0.803540 1.000000 0.702517
1.000000 1.000000 0.698899
0.004784 0.007155 0.992296
0.272987 0.008006 0.990277
0.532417 0.008856 0.988257
0.787827 0.009706 0.986237
1.000000 0.010557 0.984218
0.014082 0.261955 0.985502
0.276840 0.261214 0.983482
0.536383 0.260474 0.981463
0.791859 0.259733 0.979443
1.000000 0.258992 0.977423
0.023380 0.515421 0.978708
0.280689 0.514691 0.976688
0.540348 0.513961 0.974668
0.795889 0.513232 0.972648
1.000000 0.512502 0.970629
0.032677 0.767572 0.971913
0.284535 0.766849 0.969894
0.544311 0.766125 0.967874
0.799918 0.765402 0.965854
1.000000 0.764679 0.963834
0.041975 1.000000 0.965119
0.288377 1.000000 0.963099
0.548272 1.000000 0.961079
0.803946 1.000000 0.959060
1.000000 1.000000 0.957040
