Lutty/Resources/BundledLUTs/Golden-Hour.cube
# Generated by Scripts/generate_bundled_luts.swift
TITLE "Golden Hour"
LUT_3D_SIZE 17
DOMAIN_MIN 0.0 0.0 0.0
DOMAIN_MAX 1.0 1.0 1.0
0.001030 0.006000 0.012960
0.071471 0.006213 0.012455
0.139042 0.006425 0.011950
0.205570 0.006638 0.011445
0.271430 0.006850 0.010940
0.336798 0.007063 0.010435
0.401776 0.007276 0.009930
0.466433 0.007488 0.009426
0.530814 0.007701 0.008921
0.594957 0.007913 0.008416
0.658888 0.008126 0.007911
0.722630 0.008339 0.007406
0.786199 0.008551 0.006901
0.849611 0.008764 0.006396
0.912879 0.008976 0.005891
0.976012 0.009189 0.005386
1.000000 0.009402 0.004881
0.003354 0.071127 0.011261
0.072377 0.070936 0.010756
0.139977 0.070746 0.010252
0.206522 0.070555 0.009747
0.272394 0.070364 0.009242
0.337771 0.070173 0.008737
0.402757 0.069983 0.008232
0.467419 0.069792 0.007727
0.531806 0.069601 0.007222
0.595954 0.069410 0.006717
0.659889 0.069219 0.006212
0.723634 0.069028 0.005707
0.787207 0.068837 0.005202
0.850622 0.068646 0.004697
0.913893 0.068455 0.004192
0.977029 0.068264 0.003688
1.000000 0.068073 0.003183
0.005679 0.135364 0.009563
0.073282 0.135176 0.009058
0.140912 0.134988 0.008553
0.207474 0.134800 0.008048
0.273358 0.134613 0.007543
0.338744 0.134425 0.007038
0.403737 0.134237 0.006533
0.468406 0.134049 0.006028
0.532798 0.133861 0.005523
0.596950 0.133673 0.005018
0.660890 0.133485 0.004514
0.724639 0.133297 0.004009
0.788215 0.133109 0.003504
0.851634 0.132921 0.002999
0.914907 0.132733 0.002494
0.978046 0.132545 0.001989
1.000000 0.132356 0.001484
0.008003 0.199270 0.007864
0.074186 0.199083 0.007359
0.141846 0.198897 0.006854
0.208425 0.198711 0.006349
0.274321 0.198525 0.005845
0.339717 0.198338 0.005340
0.404717 0.198152 0.004835
0.469392 0.197966 0.004330
0.533790 0.197779 0.003825
0.597947 0.197593 0.003320
0.661891 0.197407 0.002815
0.725643 0.197220 0.002310
0.789223 0.197034 0.001805
0.852645 0.196848 0.001300
0.915921 0.196661 0.000795
0.979063 0.196475 0.000290
1.000000 0.196289 0.000000
0.010328 0.262961 0.006166
0.075089 0.262776 0.005661
0.142780 0.262591 0.005156
0.209376 0.262406 0.004651
0.275284 0.262220 0.004146
0.340689 0.262035 0.003641
0.405697 0.261850 0.003136
0.470378 0.261665 0.002631
0.534782 0.261480 0.002126
0.598943 0.261295 0.001621
0.662891 0.261109 0.001116
0.726648 0.260924 0.000611
0.790231 0.260739 0.000107
0.853656 0.260554 0.000000
0.916935 0.260369 0.000000
0.980079 0.260184 0.000000
1.000000 0.259998 0.000000
0.012652 0.326493 0.004467
0.075991 0.326309 0.003962
0.143713 0.326125 0.003457
0.210327 0.325940 0.002952
0.276247 0.325756 0.002447
0.341661 0.325572 0.001942
0.406677 0.325388 0.001437
0.471364 0.325203 0.000933
0.535773 0.325019 0.000428
0.599939 0.324835 0.000000
0.663892 0.324651 0.000000
0.727652 0.324466 0.000000
0.791239 0.324282 0.000000
0.854667 0.324098 0.000000
0.917949 0.323914 0.000000
0.981096 0.323729 0.000000
1.000000 0.323545 0.000000
0.014976 0.389899 0.002768
0.076892 0.389716 0.002263
0.144646 0.389532 0.001759
0.211278 0.389349 0.001254
0.277210 0.389165 0.000749
0.342633 0.388982 0.000244
0.407657 0.388798 0.000000
0.472350 0.388614 0.000000
0.536765 0.388431 0.000000
0.600936 0.388247 0.000000
0.664892 0.388064 0.000000
0.728656 0.387880 0.000000
0.792246 0.387697 0.000000
0.855678 0.387513 0.000000
0.918963 0.387330 0.000000
0.982113 0.387146 0.000000
1.000000 0.386963 0.000000
0.017301 0.453200 0.001070
0.077792 0.453017 0.000565
0.145579 0.452834 0.000060
0.212228 0.452651 0.000000
0.278173 0.452469 0.000000
0.343605 0.452286 0.000000
0.408636 0.452103 0.000000
0.473336 0.451920 0.000000
0.537756 0.451737 0.000000
0.601932 0.451554 0.000000
0.665892 0.451371 0.000000
0.729660 0.451188 0.000000
0.793254 0.451005 0.000000
0.856689 0.450822 0.000000
0.919977 0.450639 0.000000
0.983129 0.450456 0.000000
1.000000 0.450273 0.000000
0.019625 0.516411 0.000000
0.078691 0.516229 0.000000
0.146511 0.516047 0.000000
0.213178 0.515864 0.000000
0.279135 0.515682 0.000000
0.344577 0.515500 0.000000
0.409615 0.515317 0.000000
0.474322 0.515135 0.000000
0.538747 0.514952 0.000000
0.602928 0.514770 0.000000
0.666893 0.514588 0.000000
0.730665 0.514405 0.000000
0.794262 0.514223 0.000000
0.857699 0.514040 0.000000
0.920990 0.513858 0.000000
0.984146 0.513676 0.000000
1.000000 0.513493 0.000000
0.021950 0.579545 0.000000
0.079589 0.579363 0.000000
0.147442 0.579181 0.000000
0.214128 0.578999 0.000000
0.280097 0.578817 0.000000
0.345549 0.578635 0.000000
0.410595 0.578453 0.000000
0.475308 0.578271 0.000000
0.539738 0.578089 0.000000
0.603924 0.577907 0.000000
0.667893 0.577725 0.000000
0.731669 0.577543 0.000000
0.795269 0.577362 0.000000
0.858710 0.577180 0.000000
0.922004 0.576998 0.000000
0.985162 0.576816 0.000000
1.000000 0.576634 0.000000
0.024274 0.642608 0.000000
0.080485 0.642427 0.000000
0.148373 0.642245 0.000000
0.215077 0.642064 0.000000
0.281059 0.641882 0.000000
0.346520 0.641701 0.000000
0.411574 0.641519 0.000000
0.476293 0.641338 0.000000
0.540729 0.641156 0.000000
0.604919 0.640975 0.000000
0.668893 0.640793 0.000000
0.732672 0.640612 0.000000
0.796277 0.640430 0.000000
0.859721 0.640249 0.000000
0.923018 0.640067 0.000000
0.986178 0.639886 0.000000
1.000000 0.639704 0.000000
0.026598 0.705609 0.000000
0.081381 0.705428 0.000000
0.149304 0.705247 0.000000
0.216026 0.705066 0.000000
0.282021 0.704885 0.000000
0.347491 0.704704 0.000000
0.412553 0.704523 0.000000
0.477278 0.704342 0.000000
0.541720 0.704160 0.000000
0.605915 0.703979 0.000000
0.669893 0.703798 0.000000
0.733676 0.703617 0.000000
0.797284 0.703436 0.000000
0.860731 0.703255 0.000000
0.924031 0.703074 0.000000
0.987195 0.702892 0.000000
1.000000 0.702711 0.000000
0.028923 0.768554 0.000000
0.082276 0.768373 0.000000
0.150234 0.768192 0.000000
0.216975 0.768012 0.000000
0.282982 0.767831 0.000000
0.348463 0.767650 0.000000
0.413532 0.767469 0.000000
0.478264 0.767288 0.000000
0.542711 0.767108 0.000000
0.606911 0.766927 0.000000
0.670893 0.766746 0.000000
0.734680 0.766565 0.000000
0.798291 0.766385 0.000000
0.861742 0.766204 0.000000
0.925045 0.766023 0.000000
0.988211 0.765842 0.000000
1.000000 0.765661 0.000000
0.031247 0.831447 0.000000
0.083169 0.831266 0.000000
0.151164 0.831086 0.000000
0.217924 0.830905 0.000000
0.283944 0.830725 0.000000
0.349433 0.830544 0.000000
0.414510 0.830364 0.000000
0.479249 0.830183 0.000000
0.543701 0.830003 0.000000
0.607906 0.829822 0.000000
0.671893 0.829642 0.000000
0.735684 0.829461 0.000000
0.799299 0.829281 0.000000
0.862752 0.829100 0.000000
0.926058 0.828920 0.000000
0.989227 0.828740 0.000000
1.000000 0.828559 0.000000
0.033572 0.894291 0.000000
0.084061 0.894111 0.000000
0.152093 0.893931 0.000000
0.218872 0.893751 0.000000
0.284905 0.893571 0.000000
0.350404 0.893390 0.000000
0.415489 0.893210 0.000000
0.480234 0.893030 0.000000
0.544692 0.892850 0.000000
0.608902 0.892670 0.000000
0.672892 0.892490 0.000000
0.736687 0.892309 0.000000
0.800306 0.892129 0.000000
0.863763 0.891949 0.000000
0.927071 0.891769 0.000000
0.990243 0.891589 0.000000
1.000000 0.891408 0.000000
0.035896 0.957092 0.000000
0.084952 0.956912 0.000000
0.153021 0.956732 0.000000
0.219819 0.956552 0.000000
0.285865 0.956372 0.000000
0.351375 0.956192 0.000000
0.416467 0.956012 0.000000
0.481219 0.955832 0.000000
0.545682 0.955653 0.000000
0.609897 0.955473 0.000000
0.673892 0.955293 0.000000
0.737691 0.955113 0.000000
0.801313 0.954933 0.000000
0.864773 0.954753 0.000000
0.928085 0.954573 0.000000
0.991259 0.954393 0.000000
1.000000 0.954213 0.000000
0.038220 1.000000 0.000000
0.085841 1.000000 0.000000
0.153949 1.000000 0.000000
0.220767 1.000000 0.000000
0.286826 1.000000 0.000000
0.352345 1.000000 0.000000
0.417445 1.000000 0.000000
0.482203 1.000000 0.000000
0.546673 1.000000 0.000000
0.610892 1.000000 0.000000
0.674892 1.000000 0.000000
0.738695 1.000000 0.000000
0.802320 1.000000 0.000000
0.865783 1.000000 0.000000
0.929098 1.000000 0.000000
0.992275 1.000000 0.000000
1.000000 1.000000 0.000000
0.001265 0.006072 0.070890
0.071563 0.006285 0.070013
0.139136 0.006497 0.069137
0.205666 0.006710 0.068261
0.271527 0.006923 0.067385
0.336896 0.007135 0.066509
0.401875 0.007348 0.065633
0.466532 0.007560 0.064757
0.530915 0.007773 0.063882
0.595058 0.007986 0.063006
0.658989 0.008198 0.062130
0.722731 0.008411 0.061255
0.786301 0.008623 0.060379
0.849713 0.008836 0.059504
0.912981 0.009049 0.058629
0.976115 0.009261 0.057753
1.000000 0.009474 0.056878
0.003589 0.071062 0.067942
0.072469 0.070872 0.067066
0.140071 0.070681 0.066190
0.206618 0.070490 0.065314
0.272491 0.070299 0.064439
0.337869 0.070109 0.063563
0.402856 0.069918 0.062687
0.467519 0.069727 0.061812
0.531906 0.069536 0.060936
0.596054 0.069345 0.060061
0.659990 0.069154 0.059185
0.723736 0.068963 0.058310
0.787309 0.068772 0.057435
0.850725 0.068581 0.056560
0.913995 0.068390 0.055685
0.977132 0.068199 0.054810
1.000000 0.068008 0.053935
0.005913 0.135300 0.064995
0.073373 0.135112 0.064120
0.141006 0.134925 0.063244
0.207570 0.134737 0.062368
0.273455 0.134549 0.061493
0.338842 0.134361 0.060617
0.403836 0.134173 0.059742
0.468505 0.133985 0.058867
0.532898 0.133797 0.057991
0.597051 0.133609 0.057116
0.660991 0.133421 0.056241
0.724740 0.133233 0.055366
0.788317 0.133045 0.054491
0.851736 0.132857 0.053616
0.915009 0.132669 0.052742
0.978148 0.132481 0.051867
1.000000 0.132293 0.050992
0.008238 0.199206 0.062050
0.074277 0.199020 0.061174
0.141940 0.198834 0.060299
0.208521 0.198648 0.059423
0.274418 0.198461 0.058548
0.339815 0.198275 0.057673
0.404816 0.198089 0.056798
0.469492 0.197902 0.055923
0.533890 0.197716 0.055048
0.598047 0.197530 0.054173
0.661992 0.197343 0.053298
0.725745 0.197157 0.052423
0.789325 0.196971 0.051548
0.852747 0.196784 0.050674
0.916023 0.196598 0.049799
0.979165 0.196412 0.048925
1.000000 0.196225 0.048051
0.010562 0.262898 0.059105
0.075180 0.262713 0.058229
0.142874 0.262528 0.057354
0.209472 0.262343 0.056479
0.275382 0.262158 0.055604
0.340787 0.261972 0.054729
0.405796 0.261787 0.053854
0.470478 0.261602 0.052979
0.534882 0.261417 0.052105
0.599044 0.261232 0.051230
0.662992 0.261047 0.050355
0.726749 0.260861 0.049481
0.790333 0.260676 0.048607
0.853758 0.260491 0.047732
0.917037 0.260306 0.046858
0.980182 0.260121 0.045984
1.000000 0.259935 0.045110
0.012887 0.326431 0.056160
0.076082 0.326246 0.055285
0.143808 0.326062 0.054411
0.210423 0.325878 0.053536
0.276345 0.325694 0.052661
0.341759 0.325509 0.051786
0.406776 0.325325 0.050912
0.471464 0.325141 0.050037
0.535873 0.324957 0.049163
0.600040 0.324772 0.048288
0.663993 0.324588 0.047414
0.727753 0.324404 0.046540
0.791340 0.324220 0.045666
0.854769 0.324035 0.044792
0.918051 0.323851 0.043918
0.981199 0.323667 0.043044
1.000000 0.323482 0.042170
0.015211 0.389837 0.053217
0.076983 0.389653 0.052342
0.144740 0.389470 0.051468
0.211374 0.389286 0.050593
0.277307 0.389103 0.049719
0.342732 0.388919 0.048844
0.407755 0.388736 0.047970
0.472450 0.388552 0.047096
0.536865 0.388369 0.046221
0.601036 0.388185 0.045347
0.664993 0.388002 0.044473
0.728758 0.387818 0.043599
0.792348 0.387634 0.042726
0.855780 0.387451 0.041852
0.919065 0.387267 0.040978
0.982215 0.387084 0.040105
1.000000 0.386900 0.039231
0.017535 0.453138 0.050275
0.077883 0.452955 0.049400
0.145673 0.452772 0.048526
0.212324 0.452589 0.047652
0.278270 0.452406 0.046777
0.343703 0.452223 0.045903
0.408735 0.452041 0.045029
0.473436 0.451858 0.044155
0.537856 0.451675 0.043281
0.602032 0.451492 0.042407
0.665993 0.451309 0.041534
0.729762 0.451126 0.040660
0.793356 0.450943 0.039787
0.856791 0.450760 0.038913
0.920079 0.450577 0.038040
0.983232 0.450394 0.037166
1.000000 0.450211 0.036293
0.019860 0.516350 0.047333
0.078782 0.516167 0.046459
0.146605 0.515985 0.045585
0.213274 0.515802 0.044711
0.279232 0.515620 0.043837
0.344675 0.515438 0.042963
0.409714 0.515255 0.042089
0.474422 0.515073 0.041216
0.538847 0.514891 0.040342
0.603028 0.514708 0.039469
0.666994 0.514526 0.038595
0.730766 0.514343 0.037722
0.794363 0.514161 0.036849
0.857801 0.513979 0.035975
0.921093 0.513796 0.035102
0.984248 0.513614 0.034229
1.000000 0.513431 0.033356
0.022184 0.579483 0.044393
0.079679 0.579301 0.043519
0.147536 0.579119 0.042645
0.214224 0.578937 0.041771
0.280194 0.578755 0.040898
0.345647 0.578573 0.040024
0.410694 0.578391 0.039151
0.475407 0.578209 0.038277
0.539838 0.578027 0.037404
0.604024 0.577846 0.036531
0.667994 0.577664 0.035657
0.731770 0.577482 0.034784
0.795371 0.577300 0.033912
0.858812 0.577118 0.033039
0.922106 0.576936 0.032166
0.985265 0.576754 0.031293
1.000000 0.576572 0.030421
0.024509 0.642547 0.041453
0.080576 0.642365 0.040580
0.148467 0.642184 0.039706
0.215173 0.642002 0.038833
0.281156 0.641821 0.037959
0.346618 0.641639 0.037086
0.411673 0.641458 0.036213
0.476393 0.641276 0.035340
0.540829 0.641095 0.034467
0.605020 0.640913 0.033594
0.668994 0.640732 0.032721
0.732774 0.640550 0.031848
0.796378 0.640369 0.030976
0.859823 0.640187 0.030103
0.923120 0.640005 0.029231
0.986281 0.639824 0.028358
1.000000 0.639642 0.027486
0.026833 0.705548 0.038515
0.081471 0.705367 0.037641
0.149398 0.705186 0.036768
0.216122 0.705005 0.035895
0.282118 0.704823 0.035022
0.347589 0.704642 0.034149
0.412652 0.704461 0.033276
0.477378 0.704280 0.032403
0.541820 0.704099 0.031530
0.606016 0.703918 0.030658
0.669994 0.703737 0.029785
0.733778 0.703556 0.028913
0.797386 0.703374 0.028041
0.860833 0.703193 0.027168
0.924133 0.703012 0.026296
0.987297 0.702831 0.025424
1.000000 0.702650 0.024552
0.029157 0.768493 0.035577
0.082366 0.768312 0.034704
0.150328 0.768131 0.033831
0.217071 0.767950 0.032958
0.283079 0.767769 0.032085
0.348561 0.767589 0.031213
0.413630 0.767408 0.030340
0.478363 0.767227 0.029468
0.542811 0.767046 0.028595
0.607011 0.766866 0.027723
0.670994 0.766685 0.026851
0.734781 0.766504 0.025979
0.798393 0.766323 0.025107
0.861844 0.766142 0.024235
0.925147 0.765962 0.023363
0.988313 0.765781 0.022492
1.000000 0.765600 0.021620
0.031482 0.831385 0.032640
0.083259 0.831205 0.031768
0.151257 0.831024 0.030895
0.218019 0.830844 0.030023
0.284041 0.830663 0.029150
0.349531 0.830483 0.028278
0.414609 0.830303 0.027406
0.479348 0.830122 0.026533
0.543801 0.829942 0.025661
0.608007 0.829761 0.024789
0.671994 0.829581 0.023918
0.735785 0.829400 0.023046
0.799400 0.829220 0.022174
0.862854 0.829039 0.021303
0.926160 0.828859 0.020431
0.989330 0.828678 0.019560
1.000000 0.828498 0.018689
0.033806 0.894230 0.029705
0.084151 0.894050 0.028833
0.152186 0.893870 0.027960
0.218967 0.893690 0.027088
0.285002 0.893509 0.026216
0.350502 0.893329 0.025344
0.415587 0.893149 0.024472
0.480333 0.892969 0.023600
0.544792 0.892789 0.022729
0.609002 0.892609 0.021857
0.672993 0.892428 0.020985
0.736789 0.892248 0.020114
0.800407 0.892068 0.019243
0.863865 0.891888 0.018372
0.927174 0.891708 0.017501
0.990346 0.891527 0.016630
1.000000 0.891347 0.015759
0.036131 0.957031 0.026771
0.085041 0.956851 0.025898
0.153115 0.956671 0.025027
0.219915 0.956491 0.024155
0.285962 0.956311 0.023283
0.351473 0.956131 0.022411
0.416566 0.955951 0.021540
0.481318 0.955771 0.020668
0.545782 0.955591 0.019797
0.609998 0.955412 0.018926
0.673993 0.955232 0.018055
0.737792 0.955052 0.017184
0.801414 0.954872 0.016313
0.864875 0.954692 0.015442
0.928187 0.954512 0.014571
0.991362 0.954332 0.013701
1.000000 0.954152 0.012830
0.038455 1.000000 0.023837
0.085931 1.000000 0.022966
0.154043 1.000000 0.022094
0.220863 1.000000 0.021222
0.286923 1.000000 0.020351
0.352443 1.000000 0.019480
0.417544 1.000000 0.018609
0.482303 1.000000 0.017737
0.546773 1.000000 0.016866
0.610993 1.000000 0.015996
0.674993 1.000000 0.015125
0.738796 1.000000 0.014254
0.802421 1.000000 0.013384
0.865885 1.000000 0.012513
0.929200 1.000000 0.011643
0.992378 1.000000 0.010773
1.000000 1.000000 0.009903
0.001499 0.006144 0.131261
0.071654 0.006357 0.130377
0.139231 0.006570 0.129493
0.205762 0.006782 0.128609
0.271625 0.006995 0.127725
0.336994 0.007207 0.126841
0.401974 0.007420 0.125957
0.466632 0.007633 0.125073
0.531015 0.007845 0.124189
0.595158 0.008058 0.123306
0.659090 0.008270 0.122422
0.722832 0.008483 0.121538
0.786403 0.008696 0.120654
0.849815 0.008908 0.119771
0.913083 0.009121 0.118887
0.976217 0.009333 0.118004
1.000000 0.009546 0.117120
0.003824 0.070998 0.128287
0.072560 0.070807 0.127403
0.140166 0.070616 0.126519
0.206714 0.070425 0.125635
0.272589 0.070235 0.124751
0.337967 0.070044 0.123868
0.402955 0.069853 0.122984
0.467618 0.069662 0.122100
0.532007 0.069471 0.121216
0.596155 0.069280 0.120333
0.660091 0.069089 0.119449
0.723837 0.068898 0.118566
0.787411 0.068707 0.117682
0.850827 0.068516 0.116799
0.914098 0.068325 0.115915
0.977234 0.068134 0.115032
1.000000 0.067943 0.114148
0.006148 0.135237 0.125313
0.073465 0.135049 0.124430
0.141100 0.134861 0.123546
0.207666 0.134673 0.122662
0.273552 0.134485 0.121778
0.338940 0.134297 0.120895
0.403935 0.134109 0.120011
0.468605 0.133921 0.119127
0.532998 0.133733 0.118244
0.597152 0.133545 0.117360
0.661092 0.133357 0.116477
0.724842 0.133169 0.115593
0.788419 0.132981 0.114710
0.851838 0.132793 0.113827
0.915112 0.132605 0.112943
0.978251 0.132417 0.112060
1.000000 0.132229 0.111177
0.008472 0.199143 0.122340
0.074368 0.198957 0.121457
0.142035 0.198771 0.120573
0.208617 0.198584 0.119689
0.274516 0.198398 0.118806
0.339913 0.198212 0.117922
0.404915 0.198025 0.117039
0.469591 0.197839 0.116155
0.533990 0.197653 0.115272
0.598148 0.197467 0.114388
0.662093 0.197280 0.113505
0.725846 0.197094 0.112622
0.789427 0.196907 0.111738
0.852849 0.196721 0.110855
0.916126 0.196535 0.109972
0.979268 0.196348 0.109089
1.000000 0.196162 0.108206
0.010797 0.262835 0.119368
0.075271 0.262650 0.118484
0.142968 0.262465 0.117601
0.209568 0.262280 0.116717
0.275479 0.262095 0.115834
0.340885 0.261910 0.114950
0.405895 0.261724 0.114067
0.470577 0.261539 0.113183
0.534982 0.261354 0.112300
0.599144 0.261169 0.111417
0.663093 0.260984 0.110534
0.726850 0.260799 0.109650
0.790434 0.260613 0.108767
0.853860 0.260428 0.107884
0.917140 0.260243 0.107001
0.980285 0.260058 0.106118
1.000000 0.259873 0.105235
0.013121 0.326368 0.116395
0.076173 0.326184 0.115512
0.143902 0.326000 0.114629
0.210519 0.325815 0.113745
0.276442 0.325631 0.112862
0.341858 0.325447 0.111979
0.406875 0.325263 0.111095
0.471563 0.325078 0.110212
0.535973 0.324894 0.109329
0.600141 0.324710 0.108446
0.664094 0.324526 0.107563
0.727855 0.324341 0.106680
0.791442 0.324157 0.105797
0.854871 0.323973 0.104914
0.918154 0.323788 0.104031
0.981301 0.323604 0.103148
1.000000 0.323420 0.102265
0.015446 0.389774 0.113424
0.077074 0.389591 0.112540
0.144835 0.389407 0.111657
0.211470 0.389224 0.110774
0.277405 0.389040 0.109891
0.342830 0.388857 0.109007
0.407854 0.388673 0.108124
0.472549 0.388490 0.107241
0.536965 0.388306 0.106358
0.601137 0.388123 0.105475
0.665094 0.387939 0.104592
0.728859 0.387756 0.103709
0.792450 0.387572 0.102826
0.855882 0.387389 0.101943
0.919167 0.387205 0.101061
0.982318 0.387021 0.100178
1.000000 0.386838 0.099295
0.017770 0.453076 0.110452
0.077974 0.452893 0.109569
0.145767 0.452710 0.108686
0.212420 0.452527 0.107803
0.278367 0.452344 0.106920
0.343802 0.452161 0.106037
0.408834 0.451978 0.105154
0.473535 0.451796 0.104271
0.537956 0.451613 0.103388
0.602133 0.451430 0.102505
0.666094 0.451247 0.101622
0.729863 0.451064 0.100739
0.793458 0.450881 0.099856
0.856893 0.450698 0.098974
0.920181 0.450515 0.098091
0.983334 0.450332 0.097208
1.000000 0.450149 0.096326
0.020094 0.516288 0.107481
0.078872 0.516105 0.106598
0.146699 0.515923 0.105715
0.213370 0.515740 0.104832
0.279329 0.515558 0.103949
0.344773 0.515376 0.103066
0.409813 0.515193 0.102183
0.474521 0.515011 0.101301
0.538947 0.514829 0.100418
0.603129 0.514646 0.099535
0.667095 0.514464 0.098652
0.730867 0.514281 0.097770
0.794465 0.514099 0.096887
0.857903 0.513917 0.096004
0.921195 0.513734 0.095122
0.984351 0.513552 0.094239
1.000000 0.513369 0.093357
0.022419 0.579421 0.104511
0.079770 0.579239 0.103628
0.147630 0.579057 0.102745
0.214320 0.578875 0.101862
0.280292 0.578693 0.100979
0.345745 0.578511 0.100096
0.410792 0.578330 0.099214
0.475507 0.578148 0.098331
0.539938 0.577966 0.097448
0.604125 0.577784 0.096566
0.668095 0.577602 0.095683
0.731871 0.577420 0.094801
0.795473 0.577238 0.093918
0.858914 0.577056 0.093036
0.922209 0.576874 0.092153
0.985367 0.576692 0.091271
1.000000 0.576510 0.090388
0.024743 0.642485 0.101541
0.080666 0.642303 0.100658
0.148561 0.642122 0.099775
0.215269 0.641940 0.098892
0.281253 0.641759 0.098010
0.346716 0.641577 0.097127
0.411771 0.641396 0.096244
0.476492 0.641214 0.095362
0.540929 0.641033 0.094479
0.605120 0.640851 0.093597
0.669095 0.640670 0.092714
0.732875 0.640488 0.091832
0.796480 0.640307 0.090950
0.859925 0.640125 0.090067
0.923222 0.639944 0.089185
0.986384 0.639762 0.088303
1.000000 0.639581 0.087420
0.027068 0.705486 0.098571
0.081562 0.705305 0.097688
0.149492 0.705124 0.096806
0.216218 0.704943 0.095923
0.282215 0.704762 0.095040
0.347688 0.704581 0.094158
0.412750 0.704400 0.093275
0.477477 0.704219 0.092393
0.541920 0.704037 0.091511
0.606116 0.703856 0.090628
0.670095 0.703675 0.089746
0.733879 0.703494 0.088864
0.797487 0.703313 0.087981
0.860935 0.703132 0.087099
0.924236 0.702951 0.086217
0.987400 0.702769 0.085335
1.000000 0.702588 0.084453
0.029392 0.768431 0.095602
0.082456 0.768250 0.094719
0.150422 0.768070 0.093837
0.217167 0.767889 0.092954
0.283176 0.767708 0.092072
0.348659 0.767527 0.091189
0.413729 0.767346 0.090307
0.478463 0.767166 0.089425
0.542911 0.766985 0.088543
0.607112 0.766804 0.087660
0.671095 0.766623 0.086778
0.734883 0.766443 0.085896
0.798495 0.766262 0.085014
0.861946 0.766081 0.084132
0.925249 0.765900 0.083250
0.988416 0.765719 0.082368
1.000000 0.765539 0.081486
0.031716 0.831324 0.092633
0.083349 0.831144 0.091751
0.151351 0.830963 0.090868
0.218115 0.830783 0.089986
0.284138 0.830602 0.089104
0.349629 0.830422 0.088221
0.414708 0.830241 0.087339
0.479448 0.830061 0.086457
0.543901 0.829880 0.085575
0.608107 0.829700 0.084693
0.672095 0.829519 0.083811
0.735887 0.829339 0.082929
0.799502 0.829158 0.082047
0.862956 0.828978 0.081165
0.926263 0.828797 0.080283
0.989432 0.828617 0.079401
1.000000 0.828436 0.078519
0.034041 0.894169 0.089665
0.084241 0.893989 0.088782
0.152280 0.893809 0.087900
0.219063 0.893628 0.087018
0.285099 0.893448 0.086136
0.350600 0.893268 0.085254
0.415686 0.893088 0.084372
0.480433 0.892908 0.083490
0.544892 0.892728 0.082608
0.609103 0.892547 0.081726
0.673094 0.892367 0.080844
0.736890 0.892187 0.079962
0.800509 0.892007 0.079080
0.863967 0.891827 0.078198
0.927276 0.891646 0.077317
0.990448 0.891466 0.076435
1.000000 0.891286 0.075553
0.036365 0.956970 0.086697
0.085131 0.956790 0.085815
0.153208 0.956610 0.084933
0.220011 0.956430 0.084051
0.286059 0.956250 0.083169
0.351571 0.956070 0.082287
0.416665 0.955890 0.081405
0.481418 0.955710 0.080523
0.545882 0.955530 0.079641
0.610098 0.955350 0.078759
0.674094 0.955171 0.077877
0.737894 0.954991 0.076996
0.801516 0.954811 0.076114
0.864977 0.954631 0.075232
0.928289 0.954451 0.074351
0.991464 0.954271 0.073469
1.000000 0.954091 0.072588
0.038690 1.000000 0.083729
0.086020 1.000000 0.082847
0.154136 1.000000 0.081966
0.220958 1.000000 0.081084
0.287020 1.000000 0.080202
0.352541 1.000000 0.079320
0.417643 1.000000 0.078438
0.482402 1.000000 0.077556
0.546873 1.000000 0.076675
0.611093 1.000000 0.075793
0.675093 1.000000 0.074912
0.738897 1.000000 0.074030
0.802523 1.000000 0.073148
0.865987 1.000000 0.072267
0.929303 1.000000 0.071386
0.992480 1.000000 0.070504
1.000000 1.000000 0.069623
0.001734 0.006217 0.192589
0.071746 0.006429 0.191700
0.139325 0.006642 0.190812
0.205858 0.006854 0.189923
0.271722 0.007067 0.189035
0.337093 0.007280 0.188146
0.402073 0.007492 0.187257
0.466731 0.007705 0.186369
0.531115 0.007917 0.185480
0.595259 0.008130 0.184592
0.659191 0.008343 0.183703
0.722934 0.008555 0.182815
0.786504 0.008768 0.181926
0.849917 0.008980 0.181038
0.913186 0.009193 0.180149
0.976320 0.009406 0.179261
1.000000 0.009618 0.178373
