Lutty/Resources/BundledLUTs/Rose-Fade.cube
# Generated by Scripts/generate_bundled_luts.swift
TITLE "Rose Fade"
LUT_3D_SIZE 5
DOMAIN_MIN 0.0 0.0 0.0
DOMAIN_MAX 1.0 1.0 1.0
0.063040 0.050440 0.071120
0.281175 0.052876 0.073458
0.496312 0.055351 0.075796
0.710332 0.057841 0.078134
0.923630 0.060339 0.080471
0.077053 0.271104 0.078985
0.294780 0.273691 0.081322
0.509852 0.276280 0.083660
0.723833 0.278868 0.085998
0.937104 0.281457 0.088336
0.090928 0.494852 0.086849
0.308382 0.497460 0.089187
0.523390 0.500068 0.091525
0.737334 0.502676 0.093863
0.950577 0.505285 0.096201
0.104750 0.719780 0.094714
0.321980 0.722399 0.097052
0.536926 0.725019 0.099390
0.750832 0.727639 0.101727
0.964050 0.730259 0.104065
0.118538 0.945476 0.102579
0.335573 0.948104 0.104916
0.550459 0.950733 0.107254
0.764330 0.953361 0.109592
0.977521 0.955989 0.111930
0.064478 0.051257 0.283358
0.282548 0.053715 0.285695
0.497679 0.056195 0.288033
0.711695 0.058688 0.290371
0.924990 0.061190 0.292709
0.078457 0.271982 0.291222
0.296154 0.274570 0.293560
0.511218 0.277159 0.295898
0.725196 0.279747 0.298236
0.938464 0.282336 0.300574
0.092325 0.495738 0.299087
0.309755 0.498346 0.301425
0.524756 0.500954 0.303762
0.738696 0.503562 0.306100
0.951937 0.506170 0.308438
0.106143 0.720669 0.306951
0.323352 0.723289 0.309289
0.538292 0.725909 0.311627
0.752195 0.728529 0.313965
0.965410 0.731149 0.316303
0.119929 0.946369 0.314816
0.336946 0.948997 0.317154
0.551826 0.951625 0.319492
0.765692 0.954254 0.321830
0.978880 0.956882 0.324167
0.065902 0.052088 0.495595
0.283922 0.054555 0.497933
0.499046 0.057041 0.500271
0.713058 0.059537 0.502609
0.926351 0.062041 0.504946
0.079860 0.272861 0.503460
0.297527 0.275449 0.505798
0.512585 0.278038 0.508135
0.726559 0.280626 0.510473
0.939825 0.283215 0.512811
0.093722 0.496623 0.511324
0.311128 0.499231 0.513662
0.526123 0.501839 0.516000
0.740059 0.504448 0.518338
0.953298 0.507056 0.520676
0.107536 0.721559 0.519189
0.324725 0.724179 0.521527
0.539658 0.726799 0.523865
0.753558 0.729419 0.526202
0.966769 0.732039 0.528540
0.121319 0.947261 0.527054
0.338318 0.949889 0.529391
0.553192 0.952518 0.531729
0.767055 0.955146 0.534067
0.980240 0.957775 0.536405
0.067321 0.052923 0.707833
0.285296 0.055398 0.710170
0.500413 0.057887 0.712508
0.714421 0.060387 0.714846
0.927711 0.062893 0.717184
0.081263 0.273740 0.715697
0.298900 0.276328 0.718035
0.513952 0.278917 0.720373
0.727922 0.281505 0.722711
0.941185 0.284095 0.725049
0.095118 0.497509 0.723562
0.312500 0.500117 0.725900
0.527489 0.502725 0.728238
0.741422 0.505334 0.730575
0.954658 0.507942 0.732913
0.108929 0.722449 0.731426
0.326097 0.725068 0.733764
0.541025 0.727688 0.736102
0.754920 0.730308 0.738440
0.968129 0.732929 0.740778
0.122709 0.948154 0.739291
0.339690 0.950782 0.741629
0.554558 0.953410 0.743967
0.768417 0.956039 0.746305
0.981600 0.958667 0.748642
0.068736 0.053761 0.920070
0.286669 0.056242 0.922408
0.501779 0.058735 0.924746
0.715784 0.061237 0.927084
0.929071 0.063745 0.929421
0.082664 0.274619 0.927935
0.300273 0.277207 0.930273
0.515319 0.279796 0.932610
0.729285 0.282385 0.934948
0.942545 0.284974 0.937286
0.096514 0.498395 0.935799
0.313873 0.501003 0.938137
0.528856 0.503611 0.940475
0.742785 0.506219 0.942813
0.956018 0.508828 0.945151
0.110321 0.723338 0.943664
0.327469 0.725958 0.946002
0.542391 0.728578 0.948340
0.756283 0.731198 0.950678
0.969489 0.733818 0.953015
0.124099 0.949046 0.951529
0.341062 0.951675 0.953866
0.555924 0.954303 0.956204
0.769780 0.956931 0.958542
0.982960 0.959560 0.960880
