Lutty/Resources/BundledLUTs/Rose-Fade.cube
# Generated by Scripts/generate_bundled_luts.swift
TITLE "Rose Fade"
LUT_3D_SIZE 17
DOMAIN_MIN 0.0 0.0 0.0
DOMAIN_MAX 1.0 1.0 1.0
0.063040 0.050440 0.071120
0.118331 0.051040 0.071704
0.172862 0.051649 0.072289
0.227110 0.052261 0.072873
0.281175 0.052876 0.073458
0.335104 0.053493 0.074042
0.388925 0.054111 0.074627
0.442657 0.054731 0.075211
0.496312 0.055351 0.075796
0.549900 0.055972 0.076380
0.603429 0.056594 0.076965
0.656905 0.057217 0.077549
0.710332 0.057841 0.078134
0.763715 0.058464 0.078718
0.817057 0.059089 0.079302
0.870361 0.059714 0.079887
0.923630 0.060339 0.080471
0.066579 0.104843 0.073086
0.121766 0.105480 0.073671
0.176280 0.106117 0.074255
0.230518 0.106754 0.074840
0.284576 0.107391 0.075424
0.338500 0.108028 0.076008
0.392317 0.108666 0.076593
0.446045 0.109303 0.077177
0.499697 0.109941 0.077762
0.553282 0.110578 0.078346
0.606809 0.111216 0.078931
0.660282 0.111854 0.079515
0.713707 0.112492 0.080100
0.767088 0.113130 0.080684
0.820429 0.113768 0.081269
0.873731 0.114406 0.081853
0.926999 0.115044 0.082437
0.070082 0.160006 0.075052
0.125200 0.160648 0.075637
0.179698 0.161290 0.076221
0.233927 0.161932 0.076806
0.287978 0.162574 0.077390
0.341896 0.163216 0.077975
0.395709 0.163858 0.078559
0.449433 0.164500 0.079144
0.503082 0.165142 0.079728
0.556665 0.165785 0.080312
0.610189 0.166427 0.080897
0.663660 0.167069 0.081481
0.717083 0.167712 0.082066
0.770462 0.168354 0.082650
0.823801 0.168997 0.083235
0.877101 0.169639 0.083819
0.930367 0.170282 0.084404
0.073572 0.215460 0.077018
0.128633 0.216105 0.077603
0.183116 0.216750 0.078187
0.237335 0.217395 0.078772
0.291379 0.218039 0.079356
0.345292 0.218684 0.079941
0.399101 0.219329 0.080525
0.452821 0.219974 0.081110
0.506467 0.220619 0.081694
0.560047 0.221264 0.082279
0.613568 0.221910 0.082863
0.667037 0.222555 0.083448
0.720458 0.223200 0.084032
0.773835 0.223845 0.084616
0.827172 0.224490 0.085201
0.880472 0.225135 0.085785
0.933736 0.225781 0.086370
0.077053 0.271104 0.078985
0.132065 0.271751 0.079569
0.186533 0.272398 0.080154
0.240743 0.273044 0.080738
0.294780 0.273691 0.081322
0.348688 0.274338 0.081907
0.402492 0.274985 0.082491
0.456209 0.275632 0.083076
0.509852 0.276280 0.083660
0.563429 0.276927 0.084245
0.616948 0.277574 0.084829
0.670414 0.278221 0.085414
0.723833 0.278868 0.085998
0.777209 0.279515 0.086583
0.830544 0.280162 0.087167
0.883842 0.280810 0.087752
0.937104 0.281457 0.088336
0.080529 0.326889 0.080951
0.135497 0.327537 0.081535
0.189949 0.328186 0.082120
0.244150 0.328834 0.082704
0.298181 0.329483 0.083289
0.352084 0.330132 0.083873
0.405884 0.330780 0.084458
0.459597 0.331429 0.085042
0.513236 0.332077 0.085626
0.566811 0.332726 0.086211
0.620327 0.333375 0.086795
0.673792 0.334024 0.087380
0.727209 0.334672 0.087964
0.780582 0.335321 0.088549
0.833915 0.335970 0.089133
0.887211 0.336618 0.089718
0.940473 0.337267 0.090302
0.083999 0.382787 0.082917
0.138927 0.383437 0.083501
0.193365 0.384087 0.084086
0.247557 0.384736 0.084670
0.301582 0.385386 0.085255
0.355479 0.386036 0.085839
0.409275 0.386686 0.086424
0.462985 0.387336 0.087008
0.516621 0.387986 0.087593
0.570193 0.388636 0.088177
0.623707 0.389286 0.088762
0.677169 0.389936 0.089346
0.730584 0.390586 0.089930
0.783955 0.391236 0.090515
0.837287 0.391886 0.091099
0.890581 0.392536 0.091684
0.943841 0.393186 0.092268
0.087465 0.438779 0.084883
0.142357 0.439430 0.085468
0.196781 0.440081 0.086052
0.250964 0.440732 0.086636
0.304982 0.441383 0.087221
0.358875 0.442034 0.087805
0.412666 0.442685 0.088390
0.466372 0.443336 0.088974
0.520005 0.443987 0.089559
0.573574 0.444638 0.090143
0.627086 0.445289 0.090728
0.680546 0.445940 0.091312
0.733959 0.446592 0.091897
0.787328 0.447243 0.092481
0.840658 0.447894 0.093066
0.893951 0.448545 0.093650
0.947209 0.449196 0.094234
0.090928 0.494852 0.086849
0.145785 0.495504 0.087434
0.200196 0.496156 0.088018
0.254370 0.496808 0.088603
0.308382 0.497460 0.089187
0.362270 0.498112 0.089772
0.416057 0.498764 0.090356
0.469760 0.499416 0.090940
0.523390 0.500068 0.091525
0.576956 0.500720 0.092109
0.630465 0.501372 0.092694
0.683923 0.502024 0.093278
0.737334 0.502676 0.093863
0.790701 0.503328 0.094447
0.844030 0.503980 0.095032
0.897321 0.504632 0.095616
0.950577 0.505285 0.096201
0.094387 0.550996 0.088815
0.149213 0.551648 0.089400
0.203610 0.552301 0.089984
0.257776 0.552954 0.090569
0.311782 0.553607 0.091153
0.365664 0.554260 0.091738
0.419448 0.554913 0.092322
0.473147 0.555565 0.092907
0.526774 0.556218 0.093491
0.580337 0.556871 0.094076
0.633844 0.557524 0.094660
0.687300 0.558177 0.095244
0.740708 0.558830 0.095829
0.794074 0.559483 0.096413
0.847401 0.560136 0.096998
0.900690 0.560789 0.097582
0.953946 0.561442 0.098167
0.097844 0.607202 0.090782
0.152640 0.607856 0.091366
0.207024 0.608509 0.091950
0.261182 0.609163 0.092535
0.315181 0.609816 0.093119
0.369059 0.610470 0.093704
0.422838 0.611124 0.094288
0.476534 0.611777 0.094873
0.530158 0.612431 0.095457
0.583719 0.613085 0.096042
0.637223 0.613738 0.096626
0.690676 0.614392 0.097211
0.744083 0.615046 0.097795
0.797447 0.615699 0.098380
0.850772 0.616353 0.098964
0.904060 0.617007 0.099548
0.957314 0.617660 0.100133
0.101298 0.663465 0.092748
0.156066 0.664119 0.093332
0.210438 0.664774 0.093917
0.264587 0.665428 0.094501
0.318581 0.666082 0.095086
0.372454 0.666736 0.095670
0.426228 0.667391 0.096254
0.479921 0.668045 0.096839
0.533542 0.668699 0.097423
0.587100 0.669354 0.098008
0.640602 0.670008 0.098592
0.694053 0.670663 0.099177
0.747458 0.671317 0.099761
0.800820 0.671971 0.100346
0.854143 0.672626 0.100930
0.907429 0.673280 0.101515
0.960682 0.673934 0.102099
0.104750 0.719780 0.094714
0.159492 0.720434 0.095298
0.213851 0.721089 0.095883
0.267992 0.721744 0.096467
0.321980 0.722399 0.097052
0.375848 0.723054 0.097636
0.429619 0.723709 0.098221
0.483308 0.724364 0.098805
0.536926 0.725019 0.099390
0.590481 0.725674 0.099974
0.643980 0.726329 0.100558
0.697429 0.726984 0.101143
0.750832 0.727639 0.101727
0.804193 0.728294 0.102312
0.857514 0.728949 0.102896
0.910799 0.729604 0.103481
0.964050 0.730259 0.104065
0.108200 0.776141 0.096680
0.162917 0.776797 0.097264
0.217264 0.777452 0.097849
0.271397 0.778108 0.098433
0.325378 0.778763 0.099018
0.379242 0.779419 0.099602
0.433009 0.780074 0.100187
0.486694 0.780730 0.100771
0.540309 0.781385 0.101356
0.593862 0.782041 0.101940
0.647359 0.782697 0.102525
0.700806 0.783352 0.103109
0.754207 0.784008 0.103694
0.807565 0.784663 0.104278
0.860885 0.785319 0.104862
0.914168 0.785975 0.105447
0.967417 0.786630 0.106031
0.111648 0.832547 0.098646
0.166341 0.833203 0.099231
0.220676 0.833859 0.099815
0.274802 0.834515 0.100400
0.328777 0.835171 0.100984
0.382636 0.835827 0.101568
0.436399 0.836483 0.102153
0.490081 0.837139 0.102737
0.543693 0.837795 0.103322
0.597243 0.838451 0.103906
0.650738 0.839107 0.104491
0.704182 0.839763 0.105075
0.757581 0.840420 0.105660
0.810938 0.841076 0.106244
0.864256 0.841732 0.106829
0.917537 0.842388 0.107413
0.970785 0.843044 0.107998
0.115094 0.888992 0.100612
0.169764 0.889649 0.101197
0.224088 0.890306 0.101781
0.278206 0.890962 0.102366
0.332175 0.891619 0.102950
0.386029 0.892275 0.103535
0.439788 0.892932 0.104119
0.493467 0.893588 0.104704
0.547076 0.894245 0.105288
0.600624 0.894902 0.105872
0.654116 0.895558 0.106457
0.707559 0.896215 0.107041
0.760955 0.896872 0.107626
0.814310 0.897528 0.108210
0.867627 0.898185 0.108795
0.920907 0.898841 0.109379
0.974153 0.899498 0.109964
0.118538 0.945476 0.102579
0.173187 0.946133 0.103163
0.227500 0.946790 0.103747
0.281610 0.947447 0.104332
0.335573 0.948104 0.104916
0.389423 0.948761 0.105501
0.443178 0.949418 0.106085
0.496853 0.950076 0.106670
0.550459 0.950733 0.107254
0.604004 0.951390 0.107839
0.657494 0.952047 0.108423
0.710935 0.952704 0.109008
0.764330 0.953361 0.109592
0.817683 0.954018 0.110176
0.870997 0.954675 0.110761
0.924276 0.955332 0.111345
0.977521 0.955989 0.111930
0.063403 0.050641 0.124179
0.118678 0.051246 0.124764
0.173207 0.051856 0.125348
0.227454 0.052470 0.125933
0.281518 0.053086 0.126517
0.335447 0.053703 0.127102
0.389267 0.054322 0.127686
0.442999 0.054941 0.128271
0.496653 0.055562 0.128855
0.550241 0.056184 0.129440
0.603770 0.056806 0.130024
0.657246 0.057429 0.130608
0.710673 0.058052 0.131193
0.764055 0.058676 0.131777
0.817397 0.059301 0.132362
0.870701 0.059926 0.132946
0.923970 0.060552 0.133531
0.066933 0.105059 0.126146
0.122113 0.105696 0.126730
0.176625 0.106333 0.127314
0.230863 0.106970 0.127899
0.284920 0.107607 0.128483
0.338843 0.108245 0.129068
0.392659 0.108882 0.129652
0.446387 0.109520 0.130237
0.500039 0.110157 0.130821
0.553624 0.110795 0.131406
0.607150 0.111433 0.131990
0.660623 0.112070 0.132575
0.714048 0.112708 0.133159
0.767429 0.113346 0.133744
0.820769 0.113984 0.134328
0.874072 0.114622 0.134912
0.927339 0.115261 0.135497
0.070435 0.160224 0.128112
0.125547 0.160866 0.128696
0.180043 0.161508 0.129281
0.234271 0.162150 0.129865
0.288321 0.162792 0.130450
0.342239 0.163434 0.131034
0.396051 0.164076 0.131618
0.449775 0.164718 0.132203
0.503424 0.165361 0.132787
0.557006 0.166003 0.133372
0.610530 0.166645 0.133956
0.664001 0.167287 0.134541
0.717424 0.167930 0.135125
0.770803 0.168572 0.135710
0.824141 0.169215 0.136294
0.877442 0.169857 0.136879
0.930707 0.170500 0.137463
0.073924 0.215679 0.130078
0.128980 0.216324 0.130662
0.183461 0.216969 0.131247
0.237679 0.217614 0.131831
0.291723 0.218258 0.132416
0.345635 0.218903 0.133000
0.399443 0.219548 0.133585
0.453163 0.220193 0.134169
0.506809 0.220838 0.134754
0.560388 0.221484 0.135338
0.613909 0.222129 0.135922
0.667378 0.222774 0.136507
0.720799 0.223419 0.137091
0.774176 0.224064 0.137676
0.827513 0.224709 0.138260
0.880812 0.225355 0.138845
0.934076 0.226000 0.139429
0.077404 0.271323 0.132044
0.132412 0.271970 0.132628
0.186878 0.272617 0.133213
0.241087 0.273264 0.133797
0.295124 0.273911 0.134382
0.349031 0.274558 0.134966
0.402835 0.275205 0.135551
0.456551 0.275852 0.136135
0.510193 0.276499 0.136720
0.563770 0.277146 0.137304
0.617289 0.277793 0.137889
0.670755 0.278441 0.138473
0.724174 0.279088 0.139058
0.777549 0.279735 0.139642
0.830884 0.280382 0.140226
0.884182 0.281029 0.140811
0.937444 0.281677 0.141395
0.080879 0.327109 0.134010
0.135843 0.327758 0.134595
0.190294 0.328406 0.135179
0.244494 0.329055 0.135764
0.298524 0.329703 0.136348
0.352427 0.330352 0.136932
0.406226 0.331000 0.137517
0.459939 0.331649 0.138101
0.513578 0.332298 0.138686
0.567152 0.332946 0.139270
0.620668 0.333595 0.139855
0.674133 0.334244 0.140439
0.727549 0.334893 0.141024
0.780923 0.335541 0.141608
0.834256 0.336190 0.142193
0.887552 0.336839 0.142777
0.940813 0.337488 0.143362
0.084349 0.383008 0.135976
0.139273 0.383657 0.136561
0.193710 0.384307 0.137145
0.247901 0.384957 0.137730
0.301925 0.385607 0.138314
0.355822 0.386257 0.138899
0.409617 0.386907 0.139483
0.463327 0.387557 0.140068
0.516963 0.388207 0.140652
0.570534 0.388857 0.141236
0.624048 0.389507 0.141821
0.677510 0.390157 0.142405
0.730924 0.390807 0.142990
0.784296 0.391457 0.143574
0.837627 0.392107 0.144159
0.890921 0.392757 0.144743
0.944181 0.393407 0.145328
0.087815 0.439000 0.137942
0.142703 0.439651 0.138527
0.197126 0.440302 0.139111
0.251308 0.440953 0.139696
0.305325 0.441604 0.140280
0.359217 0.442255 0.140865
0.413008 0.442906 0.141449
0.466714 0.443557 0.142034
0.520347 0.444208 0.142618
0.573916 0.444859 0.143203
0.627427 0.445511 0.143787
0.680887 0.446162 0.144372
0.734299 0.446813 0.144956
0.787669 0.447464 0.145540
0.840999 0.448115 0.146125
0.894291 0.448766 0.146709
0.947549 0.449417 0.147294
0.091277 0.495073 0.139909
0.146131 0.495725 0.140493
0.200540 0.496377 0.141078
0.254714 0.497029 0.141662
0.308725 0.497681 0.142246
0.362612 0.498333 0.142831
0.416399 0.498985 0.143415
0.470102 0.499637 0.144000
0.523731 0.500289 0.144584
0.577297 0.500941 0.145169
0.630806 0.501593 0.145753
0.684264 0.502245 0.146338
0.737674 0.502898 0.146922
0.791042 0.503550 0.147507
0.844370 0.504202 0.148091
0.897661 0.504854 0.148676
0.950917 0.505506 0.149260
0.094736 0.551217 0.141875
0.149559 0.551870 0.142459
0.203955 0.552523 0.143044
0.258120 0.553176 0.143628
0.312125 0.553829 0.144213
0.366007 0.554481 0.144797
0.419790 0.555134 0.145382
0.473489 0.555787 0.145966
0.527115 0.556440 0.146550
0.580679 0.557093 0.147135
0.634185 0.557746 0.147719
0.687640 0.558399 0.148304
0.741049 0.559052 0.148888
0.794415 0.559705 0.149473
0.847741 0.560358 0.150057
0.901031 0.561010 0.150642
0.954286 0.561663 0.151226
0.098192 0.607424 0.143841
0.152986 0.608078 0.144425
0.207369 0.608731 0.145010
0.261526 0.609385 0.145594
0.315524 0.610038 0.146179
0.369402 0.610692 0.146763
0.423180 0.611346 0.147348
0.476876 0.611999 0.147932
0.530499 0.612653 0.148517
0.584060 0.613307 0.149101
0.637564 0.613960 0.149686
0.691017 0.614614 0.150270
0.744424 0.615268 0.150854
0.797788 0.615921 0.151439
0.851112 0.616575 0.152023
0.904400 0.617229 0.152608
0.957654 0.617882 0.153192
0.101646 0.663687 0.145807
0.156412 0.664342 0.146392
0.210783 0.664996 0.146976
0.264931 0.665650 0.147560
0.318924 0.666304 0.148145
0.372796 0.666959 0.148729
0.426571 0.667613 0.149314
0.480263 0.668267 0.149898
0.533883 0.668922 0.150483
0.587441 0.669576 0.151067
0.640943 0.670230 0.151652
0.694394 0.670885 0.152236
0.747798 0.671539 0.152821
0.801161 0.672193 0.153405
0.854483 0.672848 0.153990
0.907770 0.673502 0.154574
0.961022 0.674157 0.155158
0.105098 0.720002 0.147773
0.159838 0.720657 0.148358
0.214196 0.721312 0.148942
0.268336 0.721967 0.149527
0.322323 0.722622 0.150111
0.376190 0.723277 0.150696
0.429961 0.723932 0.151280
0.483650 0.724587 0.151864
0.537267 0.725241 0.152449
0.590822 0.725896 0.153033
0.644322 0.726551 0.153618
0.697770 0.727206 0.154202
0.751173 0.727861 0.154787
0.804533 0.728516 0.155371
0.857854 0.729171 0.155956
0.911139 0.729826 0.156540
0.964390 0.730482 0.157125
0.108548 0.776364 0.149739
0.163262 0.777019 0.150324
0.217609 0.777675 0.150908
0.271741 0.778330 0.151493
0.325722 0.778986 0.152077
0.379584 0.779641 0.152662
0.433351 0.780297 0.153246
0.487036 0.780953 0.153831
0.540651 0.781608 0.154415
0.594203 0.782264 0.155000
0.647700 0.782919 0.155584
0.701147 0.783575 0.156168
0.754547 0.784230 0.156753
0.807906 0.784886 0.157337
0.861225 0.785542 0.157922
0.914508 0.786197 0.158506
0.967757 0.786853 0.159091
0.111996 0.832769 0.151706
0.166686 0.833425 0.152290
0.221021 0.834082 0.152874
0.275145 0.834738 0.153459
0.329120 0.835394 0.154043
0.382978 0.836050 0.154628
0.436741 0.836706 0.155212
0.490423 0.837362 0.155797
0.544034 0.838018 0.156381
0.597584 0.838674 0.156966
0.651079 0.839330 0.157550
0.704523 0.839986 0.158135
0.757922 0.840642 0.158719
0.811278 0.841299 0.159304
0.864596 0.841955 0.159888
0.917878 0.842611 0.160472
0.971125 0.843267 0.161057
0.115442 0.889215 0.153672
0.170110 0.889872 0.154256
0.224433 0.890529 0.154841
0.278550 0.891185 0.155425
0.332518 0.891842 0.156010
0.386372 0.892498 0.156594
0.440131 0.893155 0.157178
0.493809 0.893811 0.157763
0.547418 0.894468 0.158347
0.600965 0.895125 0.158932
0.654457 0.895781 0.159516
0.707899 0.896438 0.160101
0.761296 0.897095 0.160685
0.814651 0.897751 0.161270
0.867967 0.898408 0.161854
0.921247 0.899064 0.162439
0.974493 0.899721 0.163023
0.118886 0.945699 0.155638
0.173533 0.946356 0.156222
0.227844 0.947013 0.156807
0.281953 0.947670 0.157391
0.335916 0.948327 0.157976
0.389765 0.948985 0.158560
0.443520 0.949642 0.159145
0.497195 0.950299 0.159729
0.550801 0.950956 0.160314
0.604346 0.951613 0.160898
0.657835 0.952270 0.161482
0.711276 0.952927 0.162067
0.764670 0.953584 0.162651
0.818023 0.954241 0.163236
0.871338 0.954898 0.163820
0.924616 0.955555 0.164405
0.977861 0.956213 0.164989
0.063763 0.050845 0.177239
0.119024 0.051453 0.177823
0.173552 0.052065 0.178408
0.227798 0.052679 0.178992
0.281861 0.053295 0.179577
0.335789 0.053913 0.180161
0.389610 0.054532 0.180746
0.443341 0.055152 0.181330
0.496995 0.055773 0.181914
0.550583 0.056395 0.182499
0.604111 0.057017 0.183083
0.657587 0.057640 0.183668
0.711013 0.058264 0.184252
0.764396 0.058889 0.184837
0.817738 0.059513 0.185421
0.871042 0.060139 0.186006
0.924310 0.060765 0.186590
0.067287 0.105275 0.179205
0.122459 0.105912 0.179789
0.176971 0.106549 0.180374
0.231207 0.107187 0.180958
0.285263 0.107824 0.181543
0.339186 0.108461 0.182127
0.393002 0.109099 0.182712
0.446729 0.109736 0.183296
0.500380 0.110374 0.183881
0.553965 0.111011 0.184465
0.607491 0.111649 0.185050
0.660964 0.112287 0.185634
0.714389 0.112925 0.186218
0.767770 0.113563 0.186803
0.821110 0.114201 0.187387
0.874412 0.114839 0.187972
0.927679 0.115477 0.188556
0.070787 0.160442 0.181171
0.125893 0.161084 0.181756
0.180388 0.161726 0.182340
0.234615 0.162368 0.182924
0.288665 0.163010 0.183509
0.342582 0.163652 0.184093
0.396394 0.164294 0.184678
0.450117 0.164936 0.185262
0.503765 0.165579 0.185847
0.557348 0.166221 0.186431
0.610871 0.166863 0.187016
0.664342 0.167506 0.187600
0.717764 0.168148 0.188185
0.771143 0.168790 0.188769
0.824481 0.169433 0.189354
0.877782 0.170075 0.189938
0.931047 0.170718 0.190522
0.074275 0.215898 0.183137
0.129326 0.216543 0.183722
0.183806 0.217188 0.184306
0.238023 0.217833 0.184891
0.292066 0.218478 0.185475
0.345978 0.219122 0.186060
0.399785 0.219767 0.186644
0.453505 0.220412 0.187228
0.507150 0.221058 0.187813
0.560730 0.221703 0.188397
0.614251 0.222348 0.188982
0.667719 0.222993 0.189566
0.721140 0.223638 0.190151
0.774517 0.224283 0.190735
0.827853 0.224928 0.191320
0.881152 0.225574 0.191904
0.934416 0.226219 0.192489
0.077756 0.271543 0.185103
0.132758 0.272190 0.185688
0.187223 0.272837 0.186272
0.241431 0.273484 0.186857
0.295467 0.274131 0.187441
0.349374 0.274778 0.188026
0.403177 0.275425 0.188610
0.456893 0.276072 0.189195
0.510535 0.276719 0.189779
0.564112 0.277366 0.190364
0.617630 0.278013 0.190948
0.671096 0.278660 0.191532
0.724515 0.279308 0.192117
0.777890 0.279955 0.192701
0.831225 0.280602 0.193286
0.884522 0.281249 0.193870
0.937784 0.281896 0.194455
0.081230 0.327329 0.187070
0.136189 0.327978 0.187654
0.190639 0.328626 0.188238
0.244838 0.329275 0.188823
0.298868 0.329924 0.189407
0.352770 0.330572 0.189992
0.406568 0.331221 0.190576
0.460281 0.331869 0.191161
0.513920 0.332518 0.191745
0.567494 0.333167 0.192330
0.621010 0.333815 0.192914
0.674473 0.334464 0.193499
0.727890 0.335113 0.194083
0.781263 0.335762 0.194668
0.834596 0.336410 0.195252
0.887892 0.337059 0.195836
0.941153 0.337708 0.196421
0.084699 0.383228 0.189036
0.139620 0.383878 0.189620
0.194055 0.384528 0.190205
0.248245 0.385178 0.190789
0.302268 0.385828 0.191374
0.356165 0.386478 0.191958
0.409960 0.387128 0.192542
0.463669 0.387778 0.193127
0.517304 0.388428 0.193711
0.570875 0.389078 0.194296
0.624389 0.389728 0.194880
0.677851 0.390378 0.195465
0.731265 0.391028 0.196049
0.784636 0.391678 0.196634
0.837968 0.392328 0.197218
0.891262 0.392978 0.197803
0.944521 0.393628 0.198387
0.088164 0.439221 0.191002
0.143049 0.439872 0.191586
0.197470 0.440523 0.192171
0.251652 0.441174 0.192755
0.305668 0.441825 0.193340
0.359560 0.442476 0.193924
0.413351 0.443127 0.194509
0.467056 0.443778 0.195093
0.520689 0.444429 0.195678
0.574257 0.445081 0.196262
0.627768 0.445732 0.196846
0.681228 0.446383 0.197431
0.734640 0.447034 0.198015
0.788009 0.447685 0.198600
0.841339 0.448336 0.199184
0.894631 0.448987 0.199769
0.947889 0.449638 0.200353
0.091626 0.495295 0.192968
0.146477 0.495947 0.193552
0.200885 0.496599 0.194137
0.255058 0.497251 0.194721
0.309068 0.497903 0.195306
0.362955 0.498555 0.195890
0.416741 0.499207 0.196475
0.470444 0.499859 0.197059
0.524073 0.500511 0.197644
0.577639 0.501163 0.198228
0.631147 0.501815 0.198813
0.684604 0.502467 0.199397
0.738015 0.503119 0.199982
0.791382 0.503771 0.200566
0.844710 0.504423 0.201150
0.898001 0.505075 0.201735
0.951257 0.505727 0.202319
0.095085 0.551439 0.194934
0.149905 0.552092 0.195519
0.204300 0.552745 0.196103
0.258464 0.553397 0.196688
0.312468 0.554050 0.197272
0.366350 0.554703 0.197856
0.420132 0.555356 0.198441
0.473831 0.556009 0.199025
0.527457 0.556662 0.199610
0.581020 0.557315 0.200194
0.634526 0.557968 0.200779
0.687981 0.558620 0.201363
0.741390 0.559273 0.201948
0.794755 0.559926 0.202532
0.848081 0.560579 0.203117
0.901371 0.561232 0.203701
0.954626 0.561885 0.204286
0.098541 0.607646 0.196900
0.153332 0.608300 0.197485
0.207714 0.608953 0.198069
0.261870 0.609607 0.198654
0.315868 0.610260 0.199238
0.369744 0.610914 0.199823
0.423523 0.611568 0.200407
0.477218 0.612221 0.200992
0.530841 0.612875 0.201576
0.584401 0.613529 0.202160
0.637905 0.614182 0.202745
0.691358 0.614836 0.203329
0.744764 0.615490 0.203914
0.798128 0.616143 0.204498
0.851453 0.616797 0.205083
0.904740 0.617451 0.205667
0.957994 0.618104 0.206252
0.101995 0.663909 0.198866
0.156758 0.664564 0.199451
0.211127 0.665218 0.200035
0.265275 0.665872 0.200620
0.319267 0.666527 0.201204
0.373139 0.667181 0.201789
0.426913 0.667835 0.202373
0.480605 0.668490 0.202958
0.534225 0.669144 0.203542
0.587783 0.669798 0.204127
0.641284 0.670453 0.204711
0.694735 0.671107 0.205296
0.748139 0.671761 0.205880
0.801501 0.672416 0.206464
0.854824 0.673070 0.207049
0.908110 0.673725 0.207633
0.961362 0.674379 0.208218
0.105446 0.720224 0.200833
0.160183 0.720879 0.201417
0.214540 0.721534 0.202002
0.268680 0.722189 0.202586
0.322666 0.722844 0.203170
0.376533 0.723499 0.203755
0.430303 0.724154 0.204339
0.483991 0.724809 0.204924
0.537609 0.725464 0.205508
0.591164 0.726119 0.206093
0.644663 0.726774 0.206677
0.698111 0.727429 0.207262
0.751514 0.728084 0.207846
0.804874 0.728739 0.208431
0.858195 0.729394 0.209015
0.911479 0.730049 0.209600
0.964730 0.730704 0.210184
0.108896 0.776586 0.202799
0.163608 0.777242 0.203383
0.217953 0.777898 0.203968
0.272085 0.778553 0.204552
0.326065 0.779209 0.205137
0.379927 0.779864 0.205721
0.433693 0.780520 0.206306
0.487378 0.781175 0.206890
0.540992 0.781831 0.207474
0.594545 0.782486 0.208059
0.648041 0.783142 0.208643
0.701488 0.783797 0.209228
0.754888 0.784453 0.209812
0.808246 0.785109 0.210397
0.861566 0.785764 0.210981
0.914848 0.786420 0.211566
0.968097 0.787075 0.212150
0.112344 0.832992 0.204765
0.167032 0.833648 0.205349
0.221365 0.834304 0.205934
0.275489 0.834960 0.206518
0.329463 0.835616 0.207103
0.383321 0.836273 0.207687
0.437083 0.836929 0.208272
0.490764 0.837585 0.208856
0.544376 0.838241 0.209441
0.597925 0.838897 0.210025
0.651420 0.839553 0.210610
0.704864 0.840209 0.211194
0.758262 0.840865 0.211778
0.811619 0.841521 0.212363
0.864936 0.842177 0.212947
0.918218 0.842834 0.213532
0.971465 0.843490 0.214116
0.115789 0.889438 0.206731
0.170455 0.890095 0.207316
0.224777 0.890752 0.207900
0.278893 0.891408 0.208484
0.332861 0.892065 0.209069
0.386714 0.892721 0.209653
0.440473 0.893378 0.210238
0.494151 0.894034 0.210822
0.547759 0.894691 0.211407
0.601306 0.895348 0.211991
0.654798 0.896004 0.212576
0.708240 0.896661 0.213160
0.761637 0.897318 0.213745
0.814991 0.897974 0.214329
0.868307 0.898631 0.214914
0.921587 0.899287 0.215498
0.974833 0.899944 0.216082
0.119234 0.945922 0.208697
0.173878 0.946579 0.209282
0.228189 0.947237 0.209866
0.282297 0.947894 0.210451
0.336260 0.948551 0.211035
0.390108 0.949208 0.211620
0.443862 0.949865 0.212204
0.497537 0.950522 0.212788
0.551142 0.951179 0.213373
0.604687 0.951836 0.213957
0.658176 0.952493 0.214542
0.711616 0.953150 0.215126
0.765011 0.953807 0.215711
0.818364 0.954464 0.216295
0.871678 0.955121 0.216880
0.924956 0.955779 0.217464
0.978201 0.956436 0.218049
0.064121 0.051051 0.230298
0.119371 0.051660 0.230883
0.173897 0.052273 0.231467
0.228142 0.052888 0.232052
0.282205 0.053505 0.232636
0.336132 0.054123 0.233220
0.389952 0.054742 0.233805
0.443683 0.055363 0.234389
0.497337 0.055984 0.234974
0.550924 0.056606 0.235558
0.604453 0.057229 0.236143
0.657928 0.057852 0.236727
0.711354 0.058476 0.237312
0.764737 0.059101 0.237896
0.818078 0.059726 0.238481
0.871382 0.060351 0.239065
0.924650 0.060977 0.239649
