Lutty/Resources/BundledLUTs/Rose-Fade.cube
# Generated by Scripts/generate_bundled_luts.swift
TITLE "Rose Fade"
LUT_3D_SIZE 9
DOMAIN_MIN 0.0 0.0 0.0
DOMAIN_MAX 1.0 1.0 1.0
0.063040 0.050440 0.071120
0.172862 0.051649 0.072289
0.281175 0.052876 0.073458
0.388925 0.054111 0.074627
0.496312 0.055351 0.075796
0.603429 0.056594 0.076965
0.710332 0.057841 0.078134
0.817057 0.059089 0.079302
0.923630 0.060339 0.080471
0.070082 0.160006 0.075052
0.179698 0.161290 0.076221
0.287978 0.162574 0.077390
0.395709 0.163858 0.078559
0.503082 0.165142 0.079728
0.610189 0.166427 0.080897
0.717083 0.167712 0.082066
0.823801 0.168997 0.083235
0.930367 0.170282 0.084404
0.077053 0.271104 0.078985
0.186533 0.272398 0.080154
0.294780 0.273691 0.081322
0.402492 0.274985 0.082491
0.509852 0.276280 0.083660
0.616948 0.277574 0.084829
0.723833 0.278868 0.085998
0.830544 0.280162 0.087167
0.937104 0.281457 0.088336
0.083999 0.382787 0.082917
0.193365 0.384087 0.084086
0.301582 0.385386 0.085255
0.409275 0.386686 0.086424
0.516621 0.387986 0.087593
0.623707 0.389286 0.088762
0.730584 0.390586 0.089930
0.837287 0.391886 0.091099
0.943841 0.393186 0.092268
0.090928 0.494852 0.086849
0.200196 0.496156 0.088018
0.308382 0.497460 0.089187
0.416057 0.498764 0.090356
0.523390 0.500068 0.091525
0.630465 0.501372 0.092694
0.737334 0.502676 0.093863
0.844030 0.503980 0.095032
0.950577 0.505285 0.096201
0.097844 0.607202 0.090782
0.207024 0.608509 0.091950
0.315181 0.609816 0.093119
0.422838 0.611124 0.094288
0.530158 0.612431 0.095457
0.637223 0.613738 0.096626
0.744083 0.615046 0.097795
0.850772 0.616353 0.098964
0.957314 0.617660 0.100133
0.104750 0.719780 0.094714
0.213851 0.721089 0.095883
0.321980 0.722399 0.097052
0.429619 0.723709 0.098221
0.536926 0.725019 0.099390
0.643980 0.726329 0.100558
0.750832 0.727639 0.101727
0.857514 0.728949 0.102896
0.964050 0.730259 0.104065
0.111648 0.832547 0.098646
0.220676 0.833859 0.099815
0.328777 0.835171 0.100984
0.436399 0.836483 0.102153
0.543693 0.837795 0.103322
0.650738 0.839107 0.104491
0.757581 0.840420 0.105660
0.864256 0.841732 0.106829
0.970785 0.843044 0.107998
0.118538 0.945476 0.102579
0.227500 0.946790 0.103747
0.335573 0.948104 0.104916
0.443178 0.949418 0.106085
0.550459 0.950733 0.107254
0.657494 0.952047 0.108423
0.764330 0.953361 0.109592
0.870997 0.954675 0.110761
0.977521 0.955989 0.111930
0.063763 0.050845 0.177239
0.173552 0.052065 0.178408
0.281861 0.053295 0.179577
0.389610 0.054532 0.180746
0.496995 0.055773 0.181914
0.604111 0.057017 0.183083
0.711013 0.058264 0.184252
0.817738 0.059513 0.185421
0.924310 0.060765 0.186590
0.070787 0.160442 0.181171
0.180388 0.161726 0.182340
0.288665 0.163010 0.183509
0.396394 0.164294 0.184678
0.503765 0.165579 0.185847
0.610871 0.166863 0.187016
0.717764 0.168148 0.188185
0.824481 0.169433 0.189354
0.931047 0.170718 0.190522
0.077756 0.271543 0.185103
0.187223 0.272837 0.186272
0.295467 0.274131 0.187441
0.403177 0.275425 0.188610
0.510535 0.276719 0.189779
0.617630 0.278013 0.190948
0.724515 0.279308 0.192117
0.831225 0.280602 0.193286
0.937784 0.281896 0.194455
0.084699 0.383228 0.189036
0.194055 0.384528 0.190205
0.302268 0.385828 0.191374
0.409960 0.387128 0.192542
0.517304 0.388428 0.193711
0.624389 0.389728 0.194880
0.731265 0.391028 0.196049
0.837968 0.392328 0.197218
0.944521 0.393628 0.198387
0.091626 0.495295 0.192968
0.200885 0.496599 0.194137
0.309068 0.497903 0.195306
0.416741 0.499207 0.196475
0.524073 0.500511 0.197644
0.631147 0.501815 0.198813
0.738015 0.503119 0.199982
0.844710 0.504423 0.201150
0.951257 0.505727 0.202319
0.098541 0.607646 0.196900
0.207714 0.608953 0.198069
0.315868 0.610260 0.199238
0.423523 0.611568 0.200407
0.530841 0.612875 0.201576
0.637905 0.614182 0.202745
0.744764 0.615490 0.203914
0.851453 0.616797 0.205083
0.957994 0.618104 0.206252
0.105446 0.720224 0.200833
0.214540 0.721534 0.202002
0.322666 0.722844 0.203170
0.430303 0.724154 0.204339
0.537609 0.725464 0.205508
0.644663 0.726774 0.206677
0.751514 0.728084 0.207846
0.858195 0.729394 0.209015
0.964730 0.730704 0.210184
0.112344 0.832992 0.204765
0.221365 0.834304 0.205934
0.329463 0.835616 0.207103
0.437083 0.836929 0.208272
0.544376 0.838241 0.209441
0.651420 0.839553 0.210610
0.758262 0.840865 0.211778
0.864936 0.842177 0.212947
0.971465 0.843490 0.214116
0.119234 0.945922 0.208697
0.228189 0.947237 0.209866
0.336260 0.948551 0.211035
0.443862 0.949865 0.212204
0.551142 0.951179 0.213373
0.658176 0.952493 0.214542
0.765011 0.953807 0.215711
0.871678 0.955121 0.216880
0.978201 0.956436 0.218049
0.064478 0.051257 0.283358
0.174242 0.052482 0.284526
0.282548 0.053715 0.285695
0.390295 0.054953 0.286864
0.497679 0.056195 0.288033
0.604794 0.057441 0.289202
0.711695 0.058688 0.290371
0.818419 0.059938 0.291540
0.924990 0.061190 0.292709
0.071492 0.160878 0.287290
0.181078 0.162162 0.288459
0.289351 0.163446 0.289628
0.397079 0.164730 0.290797
0.504449 0.166015 0.291966
0.611553 0.167300 0.293134
0.718446 0.168584 0.294303
0.825162 0.169869 0.295472
0.931727 0.171155 0.296641
0.078457 0.271982 0.291222
0.187912 0.273276 0.292391
0.296154 0.274570 0.293560
0.403862 0.275864 0.294729
0.511218 0.277159 0.295898
0.618312 0.278453 0.297067
0.725196 0.279747 0.298236
0.831905 0.281042 0.299405
0.938464 0.282336 0.300574
0.085399 0.383670 0.295154
0.194744 0.384969 0.296323
0.302955 0.386269 0.297492
0.410644 0.387569 0.298661
0.517988 0.388869 0.299830
0.625071 0.390169 0.300999
0.731947 0.391469 0.302168
0.838648 0.392769 0.303337
0.945201 0.394069 0.304506
0.092325 0.495738 0.299087
0.201575 0.497042 0.300256
0.309755 0.498346 0.301425
0.417426 0.499650 0.302594
0.524756 0.500954 0.303762
0.631829 0.502258 0.304931
0.738696 0.503562 0.306100
0.845391 0.504866 0.307269
0.951937 0.506170 0.308438
0.099239 0.608090 0.303019
0.208403 0.609397 0.304188
0.316554 0.610704 0.305357
0.424207 0.612012 0.306526
0.531524 0.613319 0.307695
0.638587 0.614626 0.308864
0.745446 0.615934 0.310033
0.852133 0.617241 0.311202
0.958674 0.618548 0.312370
0.106143 0.720669 0.306951
0.215229 0.721979 0.308120
0.323352 0.723289 0.309289
0.430988 0.724599 0.310458
0.538292 0.725909 0.311627
0.645345 0.727219 0.312796
0.752195 0.728529 0.313965
0.858875 0.729839 0.315134
0.965410 0.731149 0.316303
0.113039 0.833438 0.310884
0.222054 0.834750 0.312053
0.330149 0.836062 0.313222
0.437767 0.837374 0.314390
0.545059 0.838686 0.315559
0.652102 0.839999 0.316728
0.758944 0.841311 0.317897
0.865617 0.842623 0.319066
0.972145 0.843935 0.320235
0.119929 0.946369 0.314816
0.228877 0.947683 0.315985
0.336946 0.948997 0.317154
0.444547 0.950311 0.318323
0.551826 0.951625 0.319492
0.658858 0.952939 0.320661
0.765692 0.954254 0.321830
0.872358 0.955568 0.322998
0.978880 0.956882 0.324167
0.065191 0.051672 0.389476
0.174933 0.052900 0.390645
0.283235 0.054135 0.391814
0.390980 0.055374 0.392983
0.498362 0.056618 0.394152
0.605476 0.057864 0.395321
0.712376 0.059112 0.396490
0.819099 0.060363 0.397659
0.925670 0.061615 0.398828
0.072197 0.161314 0.393409
0.181768 0.162598 0.394578
0.290038 0.163882 0.395746
0.397763 0.165167 0.396915
0.505132 0.166451 0.398084
0.612236 0.167736 0.399253
0.719127 0.169021 0.400422
0.825843 0.170306 0.401591
0.932408 0.171591 0.402760
0.079159 0.272422 0.397341
0.188602 0.273716 0.398510
0.296840 0.275010 0.399679
0.404546 0.276304 0.400848
0.511902 0.277598 0.402017
0.618995 0.278892 0.403186
0.725878 0.280187 0.404354
0.832586 0.281481 0.405523
0.939144 0.282776 0.406692
0.086099 0.384111 0.401273
0.195434 0.385411 0.402442
0.303641 0.386711 0.403611
0.411329 0.388011 0.404780
0.518671 0.389310 0.405949
0.625753 0.390610 0.407118
0.732628 0.391911 0.408287
0.839329 0.393211 0.409456
0.945881 0.394511 0.410625
0.093023 0.496180 0.405206
0.202264 0.497484 0.406374
0.310441 0.498788 0.407543
0.418111 0.500092 0.408712
0.525440 0.501397 0.409881
0.632512 0.502701 0.411050
0.739378 0.504005 0.412219
0.846072 0.505309 0.413388
0.952618 0.506613 0.414557
0.099936 0.608534 0.409138
0.209092 0.609841 0.410307
0.317240 0.611148 0.411476
0.424892 0.612455 0.412645
0.532208 0.613763 0.413814
0.639270 0.615070 0.414982
0.746127 0.616378 0.416151
0.852814 0.617685 0.417320
0.959354 0.618992 0.418489
0.106840 0.721114 0.413070
0.215918 0.722424 0.414239
0.324038 0.723734 0.415408
0.431672 0.725044 0.416577
0.538975 0.726354 0.417746
0.646027 0.727664 0.418915
0.752876 0.728974 0.420084
0.859556 0.730284 0.421253
0.966089 0.731594 0.422422
0.113735 0.833883 0.417002
0.222743 0.835196 0.418171
0.330835 0.836508 0.419340
0.438452 0.837820 0.420509
0.545742 0.839132 0.421678
0.652784 0.840444 0.422847
0.759625 0.841757 0.424016
0.866298 0.843069 0.425185
0.972825 0.844381 0.426354
0.120624 0.946815 0.420935
0.229566 0.948129 0.422104
0.337632 0.949443 0.423273
0.445231 0.950757 0.424442
0.552509 0.952071 0.425610
0.659541 0.953386 0.426779
0.766373 0.954700 0.427948
0.873039 0.956014 0.429117
0.979560 0.957328 0.430286
0.065902 0.052088 0.495595
0.175623 0.053318 0.496764
0.283922 0.054555 0.497933
0.391664 0.055796 0.499102
0.499046 0.057041 0.500271
0.606159 0.058288 0.501440
0.713058 0.059537 0.502609
0.819780 0.060788 0.503778
0.926351 0.062041 0.504946
0.072901 0.161750 0.499527
0.182458 0.163034 0.500696
0.290725 0.164318 0.501865
0.398448 0.165603 0.503034
0.505816 0.166887 0.504203
0.612918 0.168172 0.505372
0.719809 0.169457 0.506541
0.826524 0.170742 0.507710
0.933088 0.172028 0.508879
0.079860 0.272861 0.503460
0.189292 0.274155 0.504629
0.297527 0.275449 0.505798
0.405231 0.276743 0.506966
0.512585 0.278038 0.508135
0.619677 0.279332 0.509304
0.726559 0.280626 0.510473
0.833267 0.281921 0.511642
0.939825 0.283215 0.512811
0.086798 0.384552 0.507392
0.196124 0.385852 0.508561
0.304328 0.387152 0.509730
0.412014 0.388452 0.510899
0.519354 0.389752 0.512068
0.626436 0.391052 0.513237
0.733309 0.392352 0.514406
0.840010 0.393652 0.515574
0.946561 0.394952 0.516743
0.093722 0.496623 0.511324
0.202953 0.497927 0.512493
0.311128 0.499231 0.513662
0.418795 0.500535 0.514831
0.526123 0.501839 0.516000
0.633194 0.503144 0.517169
0.740059 0.504448 0.518338
0.846752 0.505752 0.519507
0.953298 0.507056 0.520676
0.100633 0.608978 0.515257
0.209781 0.610285 0.516426
0.317927 0.611592 0.517594
0.425576 0.612899 0.518763
0.532891 0.614207 0.519932
0.639952 0.615514 0.521101
0.746808 0.616822 0.522270
0.853494 0.618129 0.523439
0.960034 0.619436 0.524608
0.107536 0.721559 0.519189
0.216607 0.722869 0.520358
0.324725 0.724179 0.521527
0.432357 0.725489 0.522696
0.539658 0.726799 0.523865
0.646709 0.728109 0.525034
0.753558 0.729419 0.526202
0.860236 0.730729 0.527371
0.966769 0.732039 0.528540
0.114431 0.834329 0.523121
0.223432 0.835641 0.524290
0.331522 0.836953 0.525459
0.439136 0.838265 0.526628
0.546425 0.839578 0.527797
0.653466 0.840890 0.528966
0.760306 0.842202 0.530135
0.866978 0.843514 0.531304
0.973505 0.844827 0.532473
0.121319 0.947261 0.527054
0.230255 0.948575 0.528222
0.338318 0.949889 0.529391
0.445915 0.951204 0.530560
0.553192 0.952518 0.531729
0.660223 0.953832 0.532898
0.767055 0.955146 0.534067
0.873720 0.956460 0.535236
0.980240 0.957775 0.536405
0.066612 0.052505 0.601714
0.176313 0.053738 0.602883
0.284609 0.054976 0.604052
0.392349 0.056219 0.605221
0.499729 0.057464 0.606390
0.606841 0.058712 0.607558
0.713740 0.059962 0.608727
0.820461 0.061213 0.609896
0.927031 0.062467 0.611065
0.073605 0.162186 0.605646
0.183148 0.163470 0.606815
0.291412 0.164755 0.607984
0.399133 0.166039 0.609153
0.506499 0.167324 0.610322
0.613600 0.168609 0.611491
0.720490 0.169894 0.612660
0.827204 0.171179 0.613829
0.933768 0.172464 0.614998
0.080562 0.273301 0.609578
0.189982 0.274595 0.610747
0.298213 0.275889 0.611916
0.405916 0.277183 0.613085
0.513269 0.278477 0.614254
0.620359 0.279771 0.615423
0.727241 0.281066 0.616592
0.833947 0.282360 0.617761
0.940505 0.283655 0.618930
0.087498 0.384994 0.613511
0.196813 0.386294 0.614680
0.305014 0.387594 0.615849
0.412698 0.388893 0.617018
0.520038 0.390193 0.618186
0.627118 0.391494 0.619355
0.733991 0.392794 0.620524
0.840690 0.394094 0.621693
0.947241 0.395394 0.622862
0.094420 0.497066 0.617443
0.203643 0.498370 0.618612
0.311814 0.499674 0.619781
0.419480 0.500978 0.620950
0.526806 0.502282 0.622119
0.633876 0.503586 0.623288
0.740740 0.504891 0.624457
0.847433 0.506195 0.625626
0.953978 0.507499 0.626794
0.101331 0.609422 0.621375
0.210471 0.610729 0.622544
0.318613 0.612036 0.623713
0.426261 0.613343 0.624882
0.533574 0.614651 0.626051
0.640634 0.615958 0.627220
0.747490 0.617266 0.628389
0.854175 0.618573 0.629558
0.960714 0.619880 0.630727
0.108232 0.722004 0.625308
0.217296 0.723314 0.626477
0.325411 0.724623 0.627646
0.433041 0.725933 0.628814
0.540341 0.727243 0.629983
0.647391 0.728553 0.631152
0.754239 0.729863 0.632321
0.860917 0.731174 0.633490
0.967449 0.732484 0.634659
0.115127 0.834775 0.629240
0.224121 0.836087 0.630409
0.332208 0.837399 0.631578
0.439821 0.838711 0.632747
0.547108 0.840023 0.633916
0.654148 0.841336 0.635085
0.760988 0.842648 0.636254
0.867659 0.843960 0.637422
0.974185 0.845272 0.638591
0.122014 0.947708 0.633172
0.230943 0.949022 0.634341
0.339004 0.950336 0.635510
0.446600 0.951650 0.636679
0.553875 0.952964 0.637848
0.660905 0.954278 0.639017
0.767736 0.955592 0.640186
0.874400 0.956907 0.641355
0.980920 0.958221 0.642524
0.067321 0.052923 0.707833
0.177003 0.054158 0.709002
0.285296 0.055398 0.710170
0.393034 0.056641 0.711339
0.500413 0.057887 0.712508
0.607523 0.059136 0.713677
0.714421 0.060387 0.714846
0.821142 0.061639 0.716015
0.927711 0.062893 0.717184
0.074308 0.162622 0.711765
0.183838 0.163906 0.712934
0.292098 0.165191 0.714103
0.399818 0.166475 0.715272
0.507183 0.167760 0.716441
0.614283 0.169045 0.717610
0.721172 0.170330 0.718778
0.827885 0.171615 0.719947
0.934448 0.172901 0.721116
0.081263 0.273740 0.715697
0.190671 0.275034 0.716866
0.298900 0.276328 0.718035
0.406601 0.277622 0.719204
0.513952 0.278917 0.720373
0.621042 0.280211 0.721542
0.727922 0.281505 0.722711
0.834628 0.282800 0.723880
0.941185 0.284095 0.725049
0.088197 0.385435 0.719630
0.197503 0.386735 0.720798
0.305701 0.388035 0.721967
0.413383 0.389335 0.723136
0.520721 0.390635 0.724305
0.627800 0.391935 0.725474
0.734672 0.393235 0.726643
0.841371 0.394535 0.727812
0.947921 0.395836 0.728981
0.095118 0.497509 0.723562
0.204332 0.498813 0.724731
0.312500 0.500117 0.725900
0.420164 0.501421 0.727069
0.527489 0.502725 0.728238
0.634558 0.504029 0.729406
0.741422 0.505334 0.730575
0.848114 0.506638 0.731744
0.954658 0.507942 0.732913
0.102028 0.609866 0.727494
0.211160 0.611173 0.728663
0.319299 0.612480 0.729832
0.426945 0.613787 0.731001
0.534257 0.615095 0.732170
0.641316 0.616402 0.733339
0.748171 0.617710 0.734508
0.854856 0.619017 0.735677
0.961394 0.620324 0.736846
0.108929 0.722449 0.731426
0.217985 0.723758 0.732595
0.326097 0.725068 0.733764
0.433725 0.726378 0.734933
0.541025 0.727688 0.736102
0.648073 0.728998 0.737271
0.754920 0.730308 0.738440
0.861598 0.731618 0.739609
0.968129 0.732929 0.740778
0.115822 0.835220 0.735359
0.224810 0.836532 0.736528
0.332894 0.837845 0.737697
0.440505 0.839157 0.738866
0.547791 0.840469 0.740034
0.654830 0.841781 0.741203
0.761669 0.843094 0.742372
0.868339 0.844406 0.743541
0.974865 0.845718 0.744710
0.122709 0.948154 0.739291
0.231632 0.949468 0.740460
0.339690 0.950782 0.741629
0.447284 0.952096 0.742798
0.554558 0.953410 0.743967
0.661587 0.954725 0.745136
0.768417 0.956039 0.746305
0.875081 0.957353 0.747474
0.981600 0.958667 0.748642
0.068029 0.053342 0.813951
0.177693 0.054579 0.815120
0.285982 0.055820 0.816289
0.393719 0.057064 0.817458
0.501096 0.058311 0.818627
0.608206 0.059560 0.819796
0.715103 0.060812 0.820965
0.821822 0.062065 0.822134
0.928391 0.063319 0.823303
0.075012 0.163058 0.817884
0.184528 0.164343 0.819053
0.292785 0.165627 0.820222
0.400502 0.166912 0.821390
0.507866 0.168196 0.822559
0.614965 0.169481 0.823728
0.721853 0.170766 0.824897
0.828566 0.172052 0.826066
0.935128 0.173337 0.827235
0.081963 0.274180 0.821816
0.191361 0.275474 0.822985
0.299587 0.276768 0.824154
0.407285 0.278062 0.825323
0.514635 0.279356 0.826492
0.621724 0.280651 0.827661
0.728604 0.281945 0.828830
0.835309 0.283240 0.829998
0.941865 0.284534 0.831167
0.088896 0.385877 0.825748
0.198192 0.387177 0.826917
0.306387 0.388476 0.828086
0.414067 0.389776 0.829255
0.521404 0.391076 0.830424
0.628482 0.392377 0.831593
0.735354 0.393677 0.832762
0.842052 0.394977 0.833931
0.948601 0.396277 0.835100
0.095816 0.497952 0.829681
0.205021 0.499256 0.830850
0.313187 0.500560 0.832018
0.420849 0.501864 0.833187
0.528173 0.503168 0.834356
0.635241 0.504472 0.835525
0.742103 0.505777 0.836694
0.848794 0.507081 0.837863
0.955338 0.508385 0.839032
0.102725 0.610310 0.833613
0.211849 0.611617 0.834782
0.319985 0.612924 0.835951
0.427630 0.614231 0.837120
0.534940 0.615539 0.838289
0.641998 0.616846 0.839458
0.748852 0.618154 0.840626
0.855536 0.619461 0.841795
0.962074 0.620769 0.842964
0.109625 0.722893 0.837545
0.218674 0.724203 0.838714
0.326783 0.725513 0.839883
0.434410 0.726823 0.841052
0.541708 0.728133 0.842221
0.648755 0.729443 0.843390
0.755601 0.730753 0.844559
0.862278 0.732063 0.845728
0.968809 0.733373 0.846897
0.116518 0.835666 0.841478
0.225498 0.836978 0.842646
0.333580 0.838290 0.843815
0.441189 0.839602 0.844984
0.548474 0.840915 0.846153
0.655512 0.842227 0.847322
0.762350 0.843539 0.848491
0.869020 0.844851 0.849660
0.975545 0.846164 0.850829
0.123404 0.948600 0.845410
0.232321 0.949914 0.846579
0.340376 0.951228 0.847748
0.447968 0.952542 0.848917
0.555241 0.953857 0.850086
0.662269 0.955171 0.851254
0.769098 0.956485 0.852423
0.875761 0.957799 0.853592
0.982280 0.959114 0.854761
0.068736 0.053761 0.920070
0.178383 0.055000 0.921239
0.286669 0.056242 0.922408
0.394404 0.057487 0.923577
0.501779 0.058735 0.924746
0.608888 0.059985 0.925915
0.715784 0.061237 0.927084
0.822503 0.062490 0.928253
0.929071 0.063745 0.929421
0.075715 0.163494 0.924002
0.185218 0.164779 0.925171
0.293472 0.166063 0.926340
0.401187 0.167348 0.927509
0.508549 0.168633 0.928678
0.615647 0.169918 0.929847
0.722535 0.171203 0.931016
0.829247 0.172488 0.932185
0.935808 0.173774 0.933354
0.082664 0.274619 0.927935
0.192051 0.275913 0.929104
0.300273 0.277207 0.930273
0.407970 0.278501 0.931442
0.515319 0.279796 0.932610
0.622406 0.281090 0.933779
0.729285 0.282385 0.934948
0.835990 0.283679 0.936117
0.942545 0.284974 0.937286
0.089596 0.386318 0.931867
0.198882 0.387618 0.933036
0.307074 0.388918 0.934205
0.414752 0.390218 0.935374
0.522087 0.391518 0.936543
0.629165 0.392818 0.937712
0.736035 0.394118 0.938881
0.842732 0.395418 0.940050
0.949281 0.396719 0.941218
0.096514 0.498395 0.935799
0.205711 0.499699 0.936968
0.313873 0.501003 0.938137
0.421533 0.502307 0.939306
0.528856 0.503611 0.940475
0.635923 0.504915 0.941644
0.742785 0.506219 0.942813
0.849475 0.507524 0.943982
0.956018 0.508828 0.945151
0.103422 0.610753 0.939732
0.212538 0.612061 0.940901
0.320672 0.613368 0.942070
0.428314 0.614675 0.943238
0.535624 0.615983 0.944407
0.642680 0.617290 0.945576
0.749534 0.618598 0.946745
0.856217 0.619905 0.947914
0.962754 0.621213 0.949083
0.110321 0.723338 0.943664
0.219363 0.724648 0.944833
0.327469 0.725958 0.946002
0.435094 0.727268 0.947171
0.542391 0.728578 0.948340
0.649438 0.729888 0.949509
0.756283 0.731198 0.950678
0.862959 0.732508 0.951846
0.969489 0.733818 0.953015
0.117213 0.836111 0.947596
0.226187 0.837424 0.948765
0.334266 0.838736 0.949934
0.441874 0.840048 0.951103
0.549158 0.841360 0.952272
0.656194 0.842673 0.953441
0.763031 0.843985 0.954610
0.869700 0.845297 0.955779
0.976225 0.846610 0.956948
0.124099 0.949046 0.951529
0.233009 0.950360 0.952698
0.341062 0.951675 0.953866
0.448652 0.952989 0.955035
0.555924 0.954303 0.956204
0.662951 0.955617 0.957373
0.769780 0.956931 0.958542
0.876442 0.958246 0.959711
0.982960 0.959560 0.960880
