Lutty/Resources/BundledLUTs/Soft-Warm.cube
# Generated by Scripts/generate_bundled_luts.swift
TITLE "Soft Warm"
LUT_3D_SIZE 5
DOMAIN_MIN 0.0 0.0 0.0
DOMAIN_MAX 1.0 1.0 1.0
0.036459 0.031951 0.031188
0.281385 0.032262 0.030255
0.519568 0.032564 0.029348
0.755270 0.032863 0.028450
0.989375 0.033160 0.027559
0.040242 0.273412 0.028093
0.285168 0.273723 0.027160
0.523351 0.274026 0.026253
0.759053 0.274325 0.025355
0.993158 0.274622 0.024463
0.043973 0.511538 0.025041
0.288899 0.511849 0.024108
0.527082 0.512152 0.023201
0.762784 0.512451 0.022303
0.996889 0.512748 0.021411
0.047684 0.748421 0.022004
0.292610 0.748732 0.021071
0.530793 0.749035 0.020164
0.766495 0.749334 0.019266
1.000000 0.749631 0.018375
0.051382 0.984501 0.018978
0.296309 0.984812 0.018045
0.534492 0.985114 0.017138
0.770194 0.985413 0.016240
1.000000 0.985711 0.015348
0.036830 0.032052 0.264740
0.281757 0.032363 0.263807
0.519939 0.032665 0.262900
0.755641 0.032965 0.262002
0.989746 0.033262 0.261110
0.040613 0.273514 0.261645
0.285540 0.273825 0.260712
0.523722 0.274127 0.259805
0.759424 0.274426 0.258907
0.993529 0.274724 0.258015
0.044344 0.511640 0.258592
0.289271 0.511951 0.257659
0.527453 0.512253 0.256752
0.763155 0.512552 0.255854
0.997260 0.512850 0.254963
0.048055 0.748523 0.255556
0.292982 0.748834 0.254623
0.531164 0.749136 0.253716
0.766866 0.749435 0.252818
1.000000 0.749733 0.251926
0.051754 0.984602 0.252530
0.296681 0.984913 0.251597
0.534863 0.985215 0.250689
0.770565 0.985515 0.249792
1.000000 0.985812 0.248900
0.037207 0.032155 0.501540
0.282133 0.032466 0.500608
0.520316 0.032768 0.499700
0.756018 0.033067 0.498802
0.990123 0.033364 0.497911
0.040990 0.273616 0.498445
0.285916 0.273927 0.497512
0.524099 0.274230 0.496605
0.759801 0.274529 0.495707
0.993906 0.274826 0.494816
0.044721 0.511742 0.495393
0.289647 0.512053 0.494460
0.527830 0.512356 0.493553
0.763532 0.512655 0.492655
0.997637 0.512952 0.491763
0.048432 0.748625 0.492356
0.293358 0.748936 0.491423
0.531541 0.749239 0.490516
0.767243 0.749538 0.489618
1.000000 0.749835 0.488727
0.052131 0.984705 0.489330
0.297057 0.985016 0.488397
0.535240 0.985318 0.487490
0.770942 0.985617 0.486592
1.000000 0.985915 0.485700
0.037585 0.032258 0.739583
0.282512 0.032569 0.738650
0.520695 0.032871 0.737743
0.756396 0.033170 0.736845
0.990502 0.033468 0.735953
0.041368 0.273720 0.736488
0.286295 0.274031 0.735555
0.524478 0.274333 0.734648
0.760180 0.274632 0.733750
0.994285 0.274930 0.732858
0.045099 0.511846 0.733435
0.290026 0.512157 0.732502
0.528208 0.512459 0.731595
0.763910 0.512758 0.730697
0.998015 0.513056 0.729806
0.048810 0.748729 0.730399
0.293737 0.749040 0.729466
0.531920 0.749342 0.728559
0.767622 0.749641 0.727661
1.000000 0.749939 0.726769
0.052509 0.984808 0.727373
0.297436 0.985119 0.726440
0.535618 0.985421 0.725532
0.771320 0.985721 0.724635
1.000000 0.986018 0.723743
0.037965 0.032361 0.978436
0.282892 0.032672 0.977503
0.521075 0.032975 0.976596
0.756776 0.033274 0.975698
0.990882 0.033571 0.974806
0.041748 0.273823 0.975340
0.286675 0.274134 0.974408
0.524858 0.274437 0.973500
0.760559 0.274736 0.972603
0.994665 0.275033 0.971711
0.045479 0.511949 0.972288
0.290406 0.512260 0.971355
0.528588 0.512563 0.970448
0.764290 0.512862 0.969550
0.998395 0.513159 0.968658
0.049190 0.748832 0.969252
0.294117 0.749143 0.968319
0.532300 0.749446 0.967411
0.768001 0.749745 0.966514
1.000000 0.750042 0.965622
0.052889 0.984912 0.966225
0.297816 0.985223 0.965292
0.535998 0.985525 0.964385
0.771700 0.985824 0.963487
1.000000 0.986121 0.962596
