Lutty/Resources/BundledLUTs/Soft-Warm.cube
# Generated by Scripts/generate_bundled_luts.swift
TITLE "Soft Warm"
LUT_3D_SIZE 9
DOMAIN_MIN 0.0 0.0 0.0
DOMAIN_MAX 1.0 1.0 1.0
0.036459 0.031951 0.031188
0.160632 0.032108 0.030715
0.281385 0.032262 0.030255
0.400881 0.032413 0.029800
0.519568 0.032564 0.029348
0.637656 0.032714 0.028898
0.755270 0.032863 0.028450
0.872490 0.033012 0.028004
0.989375 0.033160 0.027559
0.038363 0.153521 0.029630
0.162536 0.153679 0.029157
0.283290 0.153832 0.028697
0.402786 0.153984 0.028242
0.521473 0.154135 0.027790
0.639561 0.154285 0.027340
0.757174 0.154434 0.026892
0.874395 0.154583 0.026446
0.991280 0.154731 0.026000
0.040242 0.273412 0.028093
0.164415 0.273570 0.027620
0.285168 0.273723 0.027160
0.404664 0.273875 0.026705
0.523351 0.274026 0.026253
0.641439 0.274176 0.025803
0.759053 0.274325 0.025355
0.876273 0.274474 0.024909
0.993158 0.274622 0.024463
0.042110 0.392678 0.026564
0.166283 0.392835 0.026091
0.287037 0.392989 0.025631
0.406533 0.393140 0.025176
0.525220 0.393291 0.024724
0.643308 0.393441 0.024274
0.760921 0.393590 0.023826
0.878142 0.393739 0.023380
0.995027 0.393888 0.022935
0.043973 0.511538 0.025041
0.168145 0.511696 0.024568
0.288899 0.511849 0.024108
0.408395 0.512001 0.023653
0.527082 0.512152 0.023201
0.645170 0.512302 0.022751
0.762784 0.512451 0.022303
0.880004 0.512600 0.021856
0.996889 0.512748 0.021411
0.045830 0.630099 0.023521
0.170003 0.630257 0.023048
0.290757 0.630410 0.022588
0.410253 0.630562 0.022133
0.528939 0.630712 0.021681
0.647027 0.630862 0.021231
0.764641 0.631012 0.020783
0.881861 0.631161 0.020336
0.998746 0.631309 0.019891
0.047684 0.748421 0.022004
0.171857 0.748579 0.021531
0.292610 0.748732 0.021071
0.412106 0.748884 0.020616
0.530793 0.749035 0.020164
0.648881 0.749185 0.019714
0.766495 0.749334 0.019266
0.883715 0.749483 0.018820
1.000000 0.749631 0.018375
0.049534 0.866546 0.020490
0.173707 0.866703 0.020017
0.294461 0.866857 0.019557
0.413957 0.867008 0.019102
0.532644 0.867159 0.018650
0.650732 0.867309 0.018200
0.768346 0.867458 0.017752
0.885566 0.867607 0.017306
1.000000 0.867755 0.016860
0.051382 0.984501 0.018978
0.175555 0.984658 0.018505
0.296309 0.984812 0.018045
0.415805 0.984963 0.017590
0.534492 0.985114 0.017138
0.652580 0.985264 0.016688
0.770194 0.985413 0.016240
0.887414 0.985562 0.015794
1.000000 0.985711 0.015348
0.036643 0.032001 0.147157
0.160816 0.032159 0.146685
0.281570 0.032312 0.146225
0.401066 0.032464 0.145769
0.519752 0.032614 0.145317
0.637841 0.032764 0.144868
0.755454 0.032914 0.144420
0.872675 0.033062 0.143973
0.989559 0.033211 0.143528
0.038548 0.153572 0.145599
0.162721 0.153729 0.145126
0.283474 0.153882 0.144666
0.402970 0.154034 0.144211
0.521657 0.154185 0.143759
0.639745 0.154335 0.143309
0.757359 0.154484 0.142861
0.874579 0.154633 0.142415
0.991464 0.154781 0.141969
0.040426 0.273463 0.144062
0.164599 0.273620 0.143589
0.285353 0.273774 0.143129
0.404849 0.273925 0.142674
0.523535 0.274076 0.142222
0.641624 0.274226 0.141772
0.759237 0.274375 0.141324
0.876458 0.274524 0.140878
0.993342 0.274673 0.140433
0.042295 0.392728 0.142533
0.166468 0.392886 0.142060
0.287221 0.393039 0.141601
0.406717 0.393191 0.141145
0.525404 0.393341 0.140693
0.643492 0.393491 0.140244
0.761106 0.393641 0.139796
0.878326 0.393789 0.139349
0.995211 0.393938 0.138904
0.044157 0.511589 0.141010
0.168330 0.511746 0.140537
0.289084 0.511900 0.140077
0.408580 0.512051 0.139622
0.527266 0.512202 0.139170
0.645354 0.512352 0.138720
0.762968 0.512501 0.138272
0.880188 0.512650 0.137825
0.997073 0.512799 0.137380
0.046014 0.630149 0.139490
0.170187 0.630307 0.139017
0.290941 0.630460 0.138557
0.410437 0.630612 0.138102
0.529124 0.630763 0.137650
0.647212 0.630913 0.137200
0.764826 0.631062 0.136752
0.882046 0.631211 0.136306
0.998931 0.631359 0.135860
0.047868 0.748472 0.137973
0.172041 0.748629 0.137500
0.292795 0.748783 0.137040
0.412291 0.748934 0.136585
0.530977 0.749085 0.136133
0.649066 0.749235 0.135683
0.766679 0.749384 0.135235
0.883900 0.749533 0.134789
1.000000 0.749682 0.134344
0.049719 0.866596 0.136459
0.173892 0.866754 0.135986
0.294645 0.866907 0.135526
0.414142 0.867059 0.135071
0.532828 0.867209 0.134619
0.650916 0.867359 0.134169
0.768530 0.867509 0.133721
0.885750 0.867657 0.133275
1.000000 0.867806 0.132830
0.051567 0.984551 0.134947
0.175740 0.984709 0.134474
0.296494 0.984862 0.134014
0.415990 0.985014 0.133559
0.534676 0.985164 0.133107
0.652764 0.985314 0.132657
0.770378 0.985464 0.132209
0.887598 0.985612 0.131763
1.000000 0.985761 0.131317
0.036830 0.032052 0.264740
0.161003 0.032210 0.264267
0.281757 0.032363 0.263807
0.401253 0.032515 0.263352
0.519939 0.032665 0.262900
0.638028 0.032815 0.262450
0.755641 0.032965 0.262002
0.872862 0.033113 0.261555
0.989746 0.033262 0.261110
0.038735 0.153623 0.263182
0.162908 0.153780 0.262709
0.283661 0.153933 0.262249
0.403157 0.154085 0.261793
0.521844 0.154236 0.261341
0.639932 0.154386 0.260892
0.757546 0.154535 0.260444
0.874766 0.154684 0.259997
0.991651 0.154832 0.259552
0.040613 0.273514 0.261645
0.164786 0.273671 0.261172
0.285540 0.273825 0.260712
0.405036 0.273976 0.260257
0.523722 0.274127 0.259805
0.641811 0.274277 0.259355
0.759424 0.274426 0.258907
0.876645 0.274575 0.258460
0.993529 0.274724 0.258015
0.042482 0.392779 0.260116
0.166655 0.392937 0.259643
0.287408 0.393090 0.259183
0.406904 0.393242 0.258728
0.525591 0.393392 0.258276
0.643679 0.393542 0.257826
0.761293 0.393692 0.257378
0.878513 0.393840 0.256931
0.995398 0.393989 0.256486
0.044344 0.511640 0.258592
0.168517 0.511797 0.258119
0.289271 0.511951 0.257659
0.408767 0.512102 0.257204
0.527453 0.512253 0.256752
0.645541 0.512403 0.256302
0.763155 0.512552 0.255854
0.880375 0.512701 0.255408
0.997260 0.512850 0.254963
0.046201 0.630200 0.257072
0.170374 0.630358 0.256600
0.291128 0.630511 0.256140
0.410624 0.630663 0.255684
0.529311 0.630814 0.255232
0.647399 0.630964 0.254783
0.765013 0.631113 0.254335
0.882233 0.631262 0.253888
0.999118 0.631410 0.253443
0.048055 0.748523 0.255556
0.172228 0.748680 0.255083
0.292982 0.748834 0.254623
0.412478 0.748985 0.254168
0.531164 0.749136 0.253716
0.649253 0.749286 0.253266
0.766866 0.749435 0.252818
0.884087 0.749584 0.252371
1.000000 0.749733 0.251926
0.049906 0.866647 0.254042
0.174079 0.866805 0.253569
0.294833 0.866958 0.253109
0.414329 0.867110 0.252653
0.533015 0.867260 0.252201
0.651103 0.867410 0.251752
0.768717 0.867560 0.251304
0.885937 0.867708 0.250857
1.000000 0.867857 0.250412
0.051754 0.984602 0.252530
0.175927 0.984760 0.252057
0.296681 0.984913 0.251597
0.416177 0.985065 0.251141
0.534863 0.985215 0.250689
0.652951 0.985365 0.250240
0.770565 0.985515 0.249792
0.887785 0.985663 0.249345
1.000000 0.985812 0.248900
0.037018 0.032103 0.382939
0.161191 0.032261 0.382466
0.281945 0.032414 0.382006
0.401441 0.032566 0.381551
0.520127 0.032717 0.381099
0.638216 0.032866 0.380649
0.755829 0.033016 0.380201
0.873050 0.033165 0.379755
0.989934 0.033313 0.379309
0.038923 0.153674 0.381381
0.163096 0.153831 0.380908
0.283849 0.153985 0.380448
0.403345 0.154136 0.379993
0.522032 0.154287 0.379541
0.640120 0.154437 0.379091
0.757734 0.154586 0.378643
0.874954 0.154735 0.378196
0.991839 0.154884 0.377751
0.040801 0.273565 0.379844
0.164974 0.273723 0.379371
0.285728 0.273876 0.378911
0.405224 0.274028 0.378456
0.523910 0.274178 0.378004
0.641999 0.274328 0.377554
0.759612 0.274478 0.377106
0.876833 0.274626 0.376659
0.993717 0.274775 0.376214
0.042670 0.392830 0.378315
0.166843 0.392988 0.377842
0.287596 0.393141 0.377382
0.407092 0.393293 0.376927
0.525779 0.393444 0.376475
0.643867 0.393594 0.376025
0.761481 0.393743 0.375577
0.878701 0.393892 0.375131
0.995586 0.394040 0.374685
0.044532 0.511691 0.376791
0.168705 0.511849 0.376318
0.289459 0.512002 0.375858
0.408955 0.512154 0.375403
0.527641 0.512304 0.374951
0.645729 0.512454 0.374501
0.763343 0.512604 0.374053
0.880563 0.512752 0.373607
0.997448 0.512901 0.373162
0.046389 0.630252 0.375272
0.170562 0.630409 0.374799
0.291316 0.630563 0.374339
0.410812 0.630714 0.373884
0.529499 0.630865 0.373431
0.647587 0.631015 0.372982
0.765201 0.631164 0.372534
0.882421 0.631313 0.372087
0.999306 0.631462 0.371642
0.048243 0.748574 0.373755
0.172416 0.748732 0.373282
0.293170 0.748885 0.372822
0.412666 0.749037 0.372367
0.531352 0.749187 0.371915
0.649441 0.749337 0.371465
0.767054 0.749487 0.371017
0.884275 0.749635 0.370570
1.000000 0.749784 0.370125
0.050094 0.866698 0.372241
0.174267 0.866856 0.371768
0.295020 0.867009 0.371308
0.414517 0.867161 0.370853
0.533203 0.867312 0.370401
0.651291 0.867462 0.369951
0.768905 0.867611 0.369503
0.886125 0.867760 0.369056
1.000000 0.867908 0.368611
0.051942 0.984653 0.370729
0.176115 0.984811 0.370256
0.296869 0.984964 0.369796
0.416365 0.985116 0.369341
0.535051 0.985267 0.368889
0.653139 0.985417 0.368439
0.770753 0.985566 0.367991
0.887973 0.985715 0.367544
1.000000 0.985863 0.367099
0.037207 0.032155 0.501540
0.161380 0.032312 0.501067
0.282133 0.032466 0.500608
0.401629 0.032617 0.500152
0.520316 0.032768 0.499700
0.638404 0.032918 0.499250
0.756018 0.033067 0.498802
0.873238 0.033216 0.498356
0.990123 0.033364 0.497911
0.039111 0.153725 0.499982
0.163284 0.153883 0.499509
0.284038 0.154036 0.499049
0.403534 0.154188 0.498594
0.522221 0.154339 0.498142
0.640309 0.154489 0.497692
0.757923 0.154638 0.497244
0.875143 0.154787 0.496798
0.992028 0.154935 0.496352
0.040990 0.273616 0.498445
0.165163 0.273774 0.497972
0.285916 0.273927 0.497512
0.405412 0.274079 0.497057
0.524099 0.274230 0.496605
0.642187 0.274380 0.496155
0.759801 0.274529 0.495707
0.877021 0.274678 0.495261
0.993906 0.274826 0.494816
0.042858 0.392882 0.496916
0.167031 0.393039 0.496443
0.287785 0.393193 0.495984
0.407281 0.393344 0.495528
0.525968 0.393495 0.495076
0.644056 0.393645 0.494626
0.761669 0.393794 0.494178
0.878890 0.393943 0.493732
0.995775 0.394092 0.493287
0.044721 0.511742 0.495393
0.168893 0.511900 0.494920
0.289647 0.512053 0.494460
0.409143 0.512205 0.494005
0.527830 0.512356 0.493553
0.645918 0.512506 0.493103
0.763532 0.512655 0.492655
0.880752 0.512804 0.492208
0.997637 0.512952 0.491763
0.046578 0.630303 0.493873
0.170751 0.630461 0.493400
0.291505 0.630614 0.492940
0.411001 0.630766 0.492485
0.529687 0.630917 0.492033
0.647776 0.631066 0.491583
0.765389 0.631216 0.491135
0.882610 0.631365 0.490689
0.999494 0.631513 0.490243
0.048432 0.748625 0.492356
0.172605 0.748783 0.491883
0.293358 0.748936 0.491423
0.412855 0.749088 0.490968
0.531541 0.749239 0.490516
0.649629 0.749389 0.490066
0.767243 0.749538 0.489618
0.884463 0.749687 0.489172
1.000000 0.749835 0.488727
0.050283 0.866750 0.490842
0.174455 0.866907 0.490369
0.295209 0.867061 0.489909
0.414705 0.867212 0.489454
0.533392 0.867363 0.489002
0.651480 0.867513 0.488552
0.769094 0.867662 0.488104
0.886314 0.867811 0.487658
1.000000 0.867960 0.487212
0.052131 0.984705 0.489330
0.176303 0.984862 0.488857
0.297057 0.985016 0.488397
0.416553 0.985167 0.487942
0.535240 0.985318 0.487490
0.653328 0.985468 0.487040
0.770942 0.985617 0.486592
0.888162 0.985766 0.486146
1.000000 0.985915 0.485700
0.037396 0.032206 0.620442
0.161569 0.032364 0.619969
0.282322 0.032517 0.619509
0.401819 0.032669 0.619054
0.520505 0.032820 0.618602
0.638593 0.032969 0.618152
0.756207 0.033119 0.617704
0.873427 0.033268 0.617257
0.990312 0.033416 0.616812
0.039301 0.153777 0.618884
0.163473 0.153934 0.618411
0.284227 0.154088 0.617951
0.403723 0.154240 0.617495
0.522410 0.154390 0.617043
0.640498 0.154540 0.616594
0.758112 0.154689 0.616146
0.875332 0.154838 0.615699
0.992217 0.154987 0.615254
0.041179 0.273668 0.617347
0.165352 0.273826 0.616874
0.286106 0.273979 0.616414
0.405602 0.274131 0.615959
0.524288 0.274281 0.615507
0.642376 0.274431 0.615057
0.759990 0.274581 0.614609
0.877210 0.274729 0.614162
0.994095 0.274878 0.613717
0.043047 0.392933 0.615818
0.167220 0.393091 0.615345
0.287974 0.393244 0.614885
0.407470 0.393396 0.614430
0.526157 0.393547 0.613978
0.644245 0.393697 0.613528
0.761859 0.393846 0.613080
0.879079 0.393995 0.612633
0.995964 0.394143 0.612188
0.044910 0.511794 0.614294
0.169083 0.511952 0.613821
0.289836 0.512105 0.613361
0.409332 0.512257 0.612906
0.528019 0.512407 0.612454
0.646107 0.512557 0.612004
0.763721 0.512707 0.611556
0.880941 0.512855 0.611110
0.997826 0.513004 0.610665
0.046767 0.630355 0.612774
0.170940 0.630512 0.612301
0.291694 0.630666 0.611842
0.411190 0.630817 0.611386
0.529876 0.630968 0.610934
0.647965 0.631118 0.610485
0.765578 0.631267 0.610037
0.882799 0.631416 0.609590
0.999683 0.631565 0.609145
0.048621 0.748677 0.611258
0.172794 0.748835 0.610785
0.293548 0.748988 0.610325
0.413044 0.749140 0.609870
0.531730 0.749290 0.609418
0.649818 0.749440 0.608968
0.767432 0.749590 0.608520
0.884652 0.749738 0.608073
1.000000 0.749887 0.607628
0.050472 0.866801 0.609744
0.174644 0.866959 0.609271
0.295398 0.867112 0.608811
0.414894 0.867264 0.608355
0.533581 0.867415 0.607903
0.651669 0.867565 0.607454
0.769283 0.867714 0.607006
0.886503 0.867863 0.606559
1.000000 0.868011 0.606114
0.052320 0.984756 0.608232
0.176492 0.984914 0.607759
0.297246 0.985067 0.607299
0.416742 0.985219 0.606843
0.535429 0.985370 0.606391
0.653517 0.985520 0.605942
0.771131 0.985669 0.605494
0.888351 0.985818 0.605047
1.000000 0.985966 0.604602
0.037585 0.032258 0.739583
0.161758 0.032415 0.739110
0.282512 0.032569 0.738650
0.402008 0.032721 0.738195
0.520695 0.032871 0.737743
0.638783 0.033021 0.737293
0.756396 0.033170 0.736845
0.873617 0.033319 0.736399
0.990502 0.033468 0.735953
0.039490 0.153828 0.738025
0.163663 0.153986 0.737552
0.284417 0.154139 0.737092
0.403913 0.154291 0.736637
0.522599 0.154442 0.736184
0.640688 0.154592 0.735735
0.758301 0.154741 0.735287
0.875522 0.154890 0.734840
0.992406 0.155038 0.734395
0.041368 0.273720 0.736488
0.165541 0.273877 0.736015
0.286295 0.274031 0.735555
0.405791 0.274182 0.735100
0.524478 0.274333 0.734648
0.642566 0.274483 0.734198
0.760180 0.274632 0.733750
0.877400 0.274781 0.733303
0.994285 0.274930 0.732858
0.043237 0.392985 0.734959
0.167410 0.393143 0.734486
0.288164 0.393296 0.734026
0.407660 0.393448 0.733571
0.526346 0.393598 0.733119
0.644434 0.393748 0.732669
0.762048 0.393898 0.732221
0.879268 0.394046 0.731775
0.996153 0.394195 0.731329
0.045099 0.511846 0.733435
0.169272 0.512003 0.732962
0.290026 0.512157 0.732502
0.409522 0.512308 0.732047
0.528208 0.512459 0.731595
0.646297 0.512609 0.731145
0.763910 0.512758 0.730697
0.881131 0.512907 0.730251
0.998015 0.513056 0.729806
0.046957 0.630406 0.731916
0.171130 0.630564 0.731443
0.291883 0.630717 0.730983
0.411379 0.630869 0.730527
0.530066 0.631020 0.730075
0.648154 0.631170 0.729626
0.765768 0.631319 0.729178
0.882988 0.631468 0.728731
0.999873 0.631616 0.728286
0.048810 0.748729 0.730399
0.172983 0.748886 0.729926
0.293737 0.749040 0.729466
0.413233 0.749191 0.729011
0.531920 0.749342 0.728559
0.650008 0.749492 0.728109
0.767622 0.749641 0.727661
0.884842 0.749790 0.727214
1.000000 0.749939 0.726769
0.050661 0.866853 0.728885
0.174834 0.867011 0.728412
0.295588 0.867164 0.727952
0.415084 0.867316 0.727497
0.533770 0.867466 0.727044
0.651859 0.867616 0.726595
0.769472 0.867766 0.726147
0.886693 0.867914 0.725700
1.000000 0.868063 0.725255
0.052509 0.984808 0.727373
0.176682 0.984966 0.726900
0.297436 0.985119 0.726440
0.416932 0.985271 0.725985
0.535618 0.985421 0.725532
0.653707 0.985571 0.725083
0.771320 0.985721 0.724635
0.888541 0.985869 0.724188
1.000000 0.986018 0.723743
0.037775 0.032310 0.858924
0.161948 0.032467 0.858451
0.282702 0.032621 0.857991
0.402198 0.032772 0.857536
0.520884 0.032923 0.857084
0.638973 0.033073 0.856634
0.756586 0.033222 0.856186
0.873807 0.033371 0.855739
0.990691 0.033519 0.855294
0.039680 0.153880 0.857365
0.163853 0.154038 0.856892
0.284606 0.154191 0.856432
0.404103 0.154343 0.855977
0.522789 0.154494 0.855525
0.640877 0.154644 0.855075
0.758491 0.154793 0.854627
0.875711 0.154942 0.854181
0.992596 0.155090 0.853736
0.041558 0.273771 0.855829
0.165731 0.273929 0.855356
0.286485 0.274082 0.854896
0.405981 0.274234 0.854440
0.524667 0.274385 0.853988
0.642756 0.274535 0.853539
0.760369 0.274684 0.853091
0.877590 0.274833 0.852644
0.994474 0.274981 0.852199
0.043427 0.393037 0.854300
0.167600 0.393194 0.853827
0.288353 0.393348 0.853367
0.407849 0.393499 0.852912
0.526536 0.393650 0.852460
0.644624 0.393800 0.852010
0.762238 0.393949 0.851562
0.879458 0.394098 0.851115
0.996343 0.394247 0.850670
0.045289 0.511897 0.852776
0.169462 0.512055 0.852303
0.290216 0.512208 0.851843
0.409712 0.512360 0.851388
0.528398 0.512511 0.850936
0.646486 0.512661 0.850486
0.764100 0.512810 0.850038
0.881320 0.512959 0.849592
0.998205 0.513107 0.849146
0.047147 0.630458 0.851256
0.171319 0.630616 0.850783
0.292073 0.630769 0.850323
0.411569 0.630921 0.849868
0.530256 0.631072 0.849416
0.648344 0.631221 0.848966
0.765958 0.631371 0.848518
0.883178 0.631520 0.848072
1.000000 0.631668 0.847627
0.049000 0.748780 0.849740
0.173173 0.748938 0.849267
0.293927 0.749091 0.848807
0.413423 0.749243 0.848352
0.532109 0.749394 0.847899
0.650198 0.749544 0.847450
0.767811 0.749693 0.847002
0.885032 0.749842 0.846555
1.000000 0.749990 0.846110
0.050851 0.866905 0.848225
0.175024 0.867062 0.847752
0.295778 0.867216 0.847292
0.415274 0.867367 0.846837
0.533960 0.867518 0.846385
0.652048 0.867668 0.845935
0.769662 0.867817 0.845487
0.886882 0.867966 0.845041
1.000000 0.868115 0.844596
0.052699 0.984860 0.846713
0.176872 0.985017 0.846240
0.297626 0.985171 0.845780
0.417122 0.985322 0.845325
0.535808 0.985473 0.844873
0.653896 0.985623 0.844423
0.771510 0.985772 0.843975
0.888730 0.985921 0.843529
1.000000 0.986070 0.843084
0.037965 0.032361 0.978436
0.162138 0.032519 0.977963
0.282892 0.032672 0.977503
0.402388 0.032824 0.977048
0.521075 0.032975 0.976596
0.639163 0.033125 0.976146
0.756776 0.033274 0.975698
0.873997 0.033423 0.975251
0.990882 0.033571 0.974806
0.039870 0.153932 0.976877
0.164043 0.154090 0.976404
0.284797 0.154243 0.975944
0.404293 0.154395 0.975489
0.522979 0.154545 0.975037
0.641067 0.154695 0.974587
0.758681 0.154845 0.974139
0.875901 0.154994 0.973693
0.992786 0.155142 0.973248
0.041748 0.273823 0.975340
0.165921 0.273981 0.974868
0.286675 0.274134 0.974408
0.406171 0.274286 0.973952
0.524858 0.274437 0.973500
0.642946 0.274587 0.973051
0.760559 0.274736 0.972603
0.877780 0.274885 0.972156
0.994665 0.275033 0.971711
0.043617 0.393089 0.973812
0.167790 0.393246 0.973339
0.288543 0.393400 0.972879
0.408040 0.393551 0.972424
0.526726 0.393702 0.971972
0.644814 0.393852 0.971522
0.762428 0.394001 0.971074
0.879648 0.394150 0.970627
0.996533 0.394298 0.970182
0.045479 0.511949 0.972288
0.169652 0.512107 0.971815
0.290406 0.512260 0.971355
0.409902 0.512412 0.970900
0.528588 0.512563 0.970448
0.646677 0.512713 0.969998
0.764290 0.512862 0.969550
0.881511 0.513011 0.969104
0.998395 0.513159 0.968658
0.047337 0.630510 0.970768
0.171509 0.630668 0.970295
0.292263 0.630821 0.969835
0.411759 0.630973 0.969380
0.530446 0.631123 0.968928
0.648534 0.631273 0.968478
0.766148 0.631423 0.968030
0.883368 0.631571 0.967584
1.000000 0.631720 0.967139
0.049190 0.748832 0.969252
0.173363 0.748990 0.968779
0.294117 0.749143 0.968319
0.413613 0.749295 0.967863
0.532300 0.749446 0.967411
0.650388 0.749596 0.966962
0.768001 0.749745 0.966514
0.885222 0.749894 0.966067
1.000000 0.750042 0.965622
0.051041 0.866956 0.967737
0.175214 0.867114 0.967264
0.295968 0.867267 0.966804
0.415464 0.867419 0.966349
0.534150 0.867570 0.965897
0.652238 0.867720 0.965447
0.769852 0.867869 0.964999
0.887072 0.868018 0.964553
1.000000 0.868166 0.964108
0.052889 0.984912 0.966225
0.177062 0.985069 0.965752
0.297816 0.985223 0.965292
0.417312 0.985374 0.964837
0.535998 0.985525 0.964385
0.654087 0.985675 0.963935
0.771700 0.985824 0.963487
0.888921 0.985973 0.963041
1.000000 0.986121 0.962596
