Lutty/Resources/BundledLUTs/Soft-Warm.cube
# Generated by Scripts/generate_bundled_luts.swift
TITLE "Soft Warm"
LUT_3D_SIZE 17
DOMAIN_MIN 0.0 0.0 0.0
DOMAIN_MAX 1.0 1.0 1.0
0.036459 0.031951 0.031188
0.099412 0.032030 0.030949
0.160632 0.032108 0.030715
0.221214 0.032185 0.030485
0.281385 0.032262 0.030255
0.341254 0.032338 0.030027
0.400881 0.032413 0.029800
0.460310 0.032489 0.029574
0.519568 0.032564 0.029348
0.578678 0.032639 0.029123
0.637656 0.032714 0.028898
0.696517 0.032789 0.028674
0.755270 0.032863 0.028450
0.813925 0.032938 0.028227
0.872490 0.033012 0.028004
0.930972 0.033086 0.027781
0.989375 0.033160 0.027559
0.037418 0.093159 0.030404
0.100371 0.093239 0.030164
0.161590 0.093316 0.029931
0.222173 0.093393 0.029700
0.282344 0.093470 0.029471
0.342213 0.093546 0.029243
0.401840 0.093621 0.029016
0.461269 0.093697 0.028789
0.520527 0.093772 0.028564
0.579637 0.093847 0.028338
0.638615 0.093922 0.028114
0.697475 0.093997 0.027890
0.756229 0.094071 0.027666
0.814884 0.094146 0.027442
0.873449 0.094220 0.027219
0.931931 0.094294 0.026997
0.990334 0.094369 0.026774
0.038363 0.153521 0.029630
0.101316 0.153601 0.029390
0.162536 0.153679 0.029157
0.223118 0.153756 0.028926
0.283290 0.153832 0.028697
0.343158 0.153908 0.028469
0.402786 0.153984 0.028242
0.462214 0.154059 0.028016
0.521473 0.154135 0.027790
0.580582 0.154210 0.027565
0.639561 0.154285 0.027340
0.698421 0.154359 0.027116
0.757174 0.154434 0.026892
0.815830 0.154508 0.026669
0.874395 0.154583 0.026446
0.932876 0.154657 0.026223
0.991280 0.154731 0.026000
0.039304 0.213569 0.028860
0.102257 0.213649 0.028620
0.163477 0.213726 0.028387
0.224059 0.213803 0.028157
0.284231 0.213880 0.027927
0.344099 0.213956 0.027699
0.403727 0.214031 0.027472
0.463155 0.214107 0.027246
0.522413 0.214182 0.027020
0.581523 0.214257 0.026795
0.640502 0.214332 0.026570
0.699362 0.214407 0.026346
0.758115 0.214481 0.026122
0.816771 0.214556 0.025899
0.875336 0.214630 0.025676
0.933817 0.214704 0.025453
0.992220 0.214779 0.025231
0.040242 0.273412 0.028093
0.103195 0.273492 0.027853
0.164415 0.273570 0.027620
0.224997 0.273647 0.027389
0.285168 0.273723 0.027160
0.345037 0.273799 0.026932
0.404664 0.273875 0.026705
0.464093 0.273951 0.026479
0.523351 0.274026 0.026253
0.582461 0.274101 0.026028
0.641439 0.274176 0.025803
0.700300 0.274250 0.025579
0.759053 0.274325 0.025355
0.817708 0.274399 0.025132
0.876273 0.274474 0.024909
0.934755 0.274548 0.024686
0.993158 0.274622 0.024463
0.041177 0.333105 0.027328
0.104130 0.333185 0.027088
0.165350 0.333263 0.026855
0.225932 0.333340 0.026624
0.286104 0.333416 0.026395
0.345972 0.333492 0.026167
0.405600 0.333568 0.025940
0.465028 0.333643 0.025714
0.524286 0.333718 0.025488
0.583396 0.333793 0.025263
0.642374 0.333868 0.025038
0.701235 0.333943 0.024814
0.759988 0.334018 0.024590
0.818643 0.334092 0.024367
0.877208 0.334167 0.024144
0.935690 0.334241 0.023921
0.994093 0.334315 0.023698
0.042110 0.392678 0.026564
0.105063 0.392758 0.026325
0.166283 0.392835 0.026091
0.226865 0.392912 0.025861
0.287037 0.392989 0.025631
0.346905 0.393065 0.025403
0.406533 0.393140 0.025176
0.465961 0.393216 0.024950
0.525220 0.393291 0.024724
0.584329 0.393366 0.024499
0.643308 0.393441 0.024274
0.702168 0.393516 0.024050
0.760921 0.393590 0.023826
0.819577 0.393665 0.023603
0.878142 0.393739 0.023380
0.936623 0.393813 0.023157
0.995027 0.393888 0.022935
0.043042 0.452151 0.025802
0.105995 0.452231 0.025562
0.167215 0.452308 0.025329
0.227797 0.452385 0.025098
0.287969 0.452462 0.024869
0.347837 0.452538 0.024641
0.407465 0.452613 0.024414
0.466893 0.452689 0.024188
0.526151 0.452764 0.023962
0.585261 0.452839 0.023737
0.644240 0.452914 0.023512
0.703100 0.452989 0.023288
0.761853 0.453063 0.023064
0.820508 0.453138 0.022841
0.879074 0.453212 0.022618
0.937555 0.453286 0.022395
0.995958 0.453361 0.022172
0.043973 0.511538 0.025041
0.106926 0.511618 0.024801
0.168145 0.511696 0.024568
0.228727 0.511773 0.024337
0.288899 0.511849 0.024108
0.348767 0.511925 0.023880
0.408395 0.512001 0.023653
0.467824 0.512077 0.023426
0.527082 0.512152 0.023201
0.586192 0.512227 0.022975
0.645170 0.512302 0.022751
0.704030 0.512376 0.022527
0.762784 0.512451 0.022303
0.821439 0.512525 0.022079
0.880004 0.512600 0.021856
0.938485 0.512674 0.021633
0.996889 0.512748 0.021411
0.044902 0.570852 0.024280
0.107855 0.570932 0.024041
0.169075 0.571009 0.023807
0.229657 0.571086 0.023577
0.289828 0.571163 0.023347
0.349697 0.571239 0.023119
0.409324 0.571314 0.022892
0.468753 0.571390 0.022666
0.528011 0.571465 0.022440
0.587121 0.571540 0.022215
0.646099 0.571615 0.021990
0.704960 0.571690 0.021766
0.763713 0.571764 0.021542
0.822368 0.571839 0.021319
0.880933 0.571913 0.021096
0.939415 0.571987 0.020873
0.997818 0.572062 0.020651
0.045830 0.630099 0.023521
0.108783 0.630179 0.023281
0.170003 0.630257 0.023048
0.230585 0.630334 0.022817
0.290757 0.630410 0.022588
0.350625 0.630486 0.022360
0.410253 0.630562 0.022133
0.469681 0.630637 0.021906
0.528939 0.630712 0.021681
0.588049 0.630788 0.021456
0.647027 0.630862 0.021231
0.705888 0.630937 0.021007
0.764641 0.631012 0.020783
0.823296 0.631086 0.020560
0.881861 0.631161 0.020336
0.940343 0.631235 0.020114
0.998746 0.631309 0.019891
0.046757 0.689287 0.022762
0.109710 0.689367 0.022522
0.170930 0.689445 0.022289
0.231512 0.689522 0.022058
0.291684 0.689598 0.021829
0.351552 0.689674 0.021601
0.411180 0.689750 0.021374
0.470608 0.689825 0.021148
0.529867 0.689901 0.020922
0.588976 0.689976 0.020697
0.647955 0.690050 0.020472
0.706815 0.690125 0.020248
0.765568 0.690200 0.020024
0.824224 0.690274 0.019801
0.882789 0.690349 0.019578
0.941270 0.690423 0.019355
0.999674 0.690497 0.019133
0.047684 0.748421 0.022004
0.110637 0.748501 0.021764
0.171857 0.748579 0.021531
0.232439 0.748656 0.021300
0.292610 0.748732 0.021071
0.352479 0.748808 0.020843
0.412106 0.748884 0.020616
0.471535 0.748959 0.020390
0.530793 0.749035 0.020164
0.589903 0.749110 0.019939
0.648881 0.749185 0.019714
0.707742 0.749259 0.019490
0.766495 0.749334 0.019266
0.825150 0.749408 0.019043
0.883715 0.749483 0.018820
0.942197 0.749557 0.018597
1.000000 0.749631 0.018375
0.048609 0.807506 0.021247
0.111563 0.807586 0.021007
0.172782 0.807664 0.020774
0.233364 0.807741 0.020543
0.293536 0.807817 0.020314
0.353404 0.807893 0.020086
0.413032 0.807969 0.019859
0.472460 0.808044 0.019632
0.531719 0.808120 0.019407
0.590829 0.808195 0.019181
0.649807 0.808270 0.018957
0.708667 0.808344 0.018733
0.767421 0.808419 0.018509
0.826076 0.808493 0.018285
0.884641 0.808568 0.018062
0.943122 0.808642 0.017840
1.000000 0.808716 0.017617
0.049534 0.866546 0.020490
0.112488 0.866626 0.020250
0.173707 0.866703 0.020017
0.234289 0.866780 0.019786
0.294461 0.866857 0.019557
0.354329 0.866933 0.019329
0.413957 0.867008 0.019102
0.473385 0.867084 0.018876
0.532644 0.867159 0.018650
0.591754 0.867234 0.018425
0.650732 0.867309 0.018200
0.709592 0.867384 0.017976
0.768346 0.867458 0.017752
0.827001 0.867533 0.017529
0.885566 0.867607 0.017306
0.944047 0.867681 0.017083
1.000000 0.867755 0.016860
0.050459 0.925543 0.019734
0.113412 0.925623 0.019494
0.174632 0.925700 0.019261
0.235214 0.925777 0.019030
0.295385 0.925854 0.018801
0.355254 0.925930 0.018573
0.414881 0.926006 0.018346
0.474310 0.926081 0.018119
0.533568 0.926156 0.017894
0.592678 0.926231 0.017668
0.651656 0.926306 0.017444
0.710517 0.926381 0.017220
0.769270 0.926455 0.016996
0.827925 0.926530 0.016772
0.886490 0.926604 0.016549
0.944972 0.926679 0.016327
1.000000 0.926753 0.016104
0.051382 0.984501 0.018978
0.114336 0.984581 0.018738
0.175555 0.984658 0.018505
0.236137 0.984735 0.018274
0.296309 0.984812 0.018045
0.356177 0.984888 0.017817
0.415805 0.984963 0.017590
0.475233 0.985039 0.017364
0.534492 0.985114 0.017138
0.593602 0.985189 0.016913
0.652580 0.985264 0.016688
0.711440 0.985339 0.016464
0.770194 0.985413 0.016240
0.828849 0.985488 0.016017
0.887414 0.985562 0.015794
0.945895 0.985636 0.015571
1.000000 0.985711 0.015348
0.036550 0.031976 0.088772
0.099503 0.032055 0.088533
0.160723 0.032133 0.088299
0.221305 0.032210 0.088069
0.281477 0.032287 0.087839
0.341345 0.032363 0.087611
0.400973 0.032438 0.087384
0.460401 0.032514 0.087158
0.519660 0.032589 0.086932
0.578769 0.032664 0.086707
0.637748 0.032739 0.086482
0.696608 0.032814 0.086258
0.755361 0.032888 0.086034
0.814017 0.032963 0.085811
0.872582 0.033037 0.085588
0.931063 0.033111 0.085365
0.989467 0.033185 0.085143
0.037509 0.093184 0.087988
0.100462 0.093264 0.087748
0.161682 0.093341 0.087515
0.222264 0.093418 0.087284
0.282436 0.093495 0.087055
0.342304 0.093571 0.086827
0.401932 0.093646 0.086600
0.461360 0.093722 0.086373
0.520618 0.093797 0.086148
0.579728 0.093872 0.085922
0.638707 0.093947 0.085698
0.697567 0.094022 0.085474
0.756320 0.094096 0.085250
0.814976 0.094171 0.085026
0.873541 0.094245 0.084803
0.932022 0.094319 0.084581
0.990425 0.094394 0.084358
0.038455 0.153546 0.087214
0.101408 0.153626 0.086974
0.162628 0.153704 0.086741
0.223210 0.153781 0.086510
0.283382 0.153857 0.086281
0.343250 0.153933 0.086053
0.402878 0.154009 0.085826
0.462306 0.154084 0.085600
0.521564 0.154160 0.085374
0.580674 0.154235 0.085149
0.639652 0.154310 0.084924
0.698513 0.154384 0.084700
0.757266 0.154459 0.084476
0.815921 0.154533 0.084253
0.874486 0.154608 0.084030
0.932968 0.154682 0.083807
0.991371 0.154756 0.083584
0.039396 0.213594 0.086444
0.102349 0.213674 0.086204
0.163569 0.213751 0.085971
0.224151 0.213828 0.085741
0.284322 0.213905 0.085511
0.344191 0.213981 0.085283
0.403818 0.214056 0.085056
0.463247 0.214132 0.084830
0.522505 0.214207 0.084604
0.581615 0.214282 0.084379
0.640593 0.214357 0.084154
0.699454 0.214432 0.083930
0.758207 0.214506 0.083706
0.816862 0.214581 0.083483
0.875427 0.214655 0.083260
0.933909 0.214729 0.083037
0.992312 0.214804 0.082815
0.040333 0.273437 0.085677
0.103286 0.273517 0.085437
0.164506 0.273595 0.085204
0.225088 0.273672 0.084973
0.285260 0.273748 0.084744
0.345128 0.273824 0.084516
0.404756 0.273900 0.084289
0.464184 0.273975 0.084063
0.523443 0.274051 0.083837
0.582552 0.274126 0.083612
0.641531 0.274201 0.083387
0.700391 0.274275 0.083163
0.759144 0.274350 0.082939
0.817800 0.274424 0.082716
0.876365 0.274499 0.082493
0.934846 0.274573 0.082270
0.993250 0.274647 0.082048
0.041269 0.333130 0.084912
0.104222 0.333210 0.084672
0.165441 0.333288 0.084439
0.226023 0.333365 0.084208
0.286195 0.333441 0.083979
0.346063 0.333517 0.083751
0.405691 0.333593 0.083524
0.465120 0.333668 0.083298
0.524378 0.333743 0.083072
0.583488 0.333818 0.082847
0.642466 0.333893 0.082622
0.701326 0.333968 0.082398
0.760080 0.334043 0.082174
0.818735 0.334117 0.081951
0.877300 0.334192 0.081728
0.935781 0.334266 0.081505
0.994185 0.334340 0.081282
0.042202 0.392703 0.084148
0.105155 0.392783 0.083909
0.166375 0.392860 0.083675
0.226957 0.392937 0.083445
0.287128 0.393014 0.083215
0.346997 0.393090 0.082987
0.406625 0.393165 0.082760
0.466053 0.393241 0.082534
0.525311 0.393316 0.082308
0.584421 0.393391 0.082083
0.643399 0.393466 0.081858
0.702260 0.393541 0.081634
0.761013 0.393615 0.081410
0.819668 0.393690 0.081187
0.878233 0.393764 0.080964
0.936715 0.393838 0.080741
0.995118 0.393913 0.080519
0.043134 0.452176 0.083386
0.106087 0.452256 0.083146
0.167306 0.452333 0.082913
0.227889 0.452410 0.082682
0.288060 0.452487 0.082453
0.347929 0.452563 0.082225
0.407556 0.452638 0.081998
0.466985 0.452714 0.081772
0.526243 0.452789 0.081546
0.585353 0.452864 0.081321
0.644331 0.452939 0.081096
0.703191 0.453014 0.080872
0.761945 0.453088 0.080648
0.820600 0.453163 0.080425
0.879165 0.453237 0.080202
0.937646 0.453311 0.079979
0.996050 0.453385 0.079756
0.044064 0.511563 0.082625
0.107017 0.511643 0.082385
0.168237 0.511721 0.082152
0.228819 0.511798 0.081921
0.288991 0.511874 0.081692
0.348859 0.511950 0.081464
0.408487 0.512026 0.081237
0.467915 0.512101 0.081010
0.527173 0.512177 0.080785
0.586283 0.512252 0.080559
0.645262 0.512327 0.080335
0.704122 0.512401 0.080111
0.762875 0.512476 0.079887
0.821530 0.512550 0.079663
0.880096 0.512625 0.079440
0.938577 0.512699 0.079218
0.996980 0.512773 0.078995
0.044993 0.570877 0.081864
0.107946 0.570957 0.081625
0.169166 0.571034 0.081391
0.229748 0.571111 0.081161
0.289920 0.571188 0.080931
0.349788 0.571264 0.080703
0.409416 0.571339 0.080476
0.468844 0.571415 0.080250
0.528103 0.571490 0.080024
0.587212 0.571565 0.079799
0.646191 0.571640 0.079574
0.705051 0.571715 0.079350
0.763804 0.571789 0.079126
0.822460 0.571864 0.078903
0.881025 0.571938 0.078680
0.939506 0.572012 0.078457
0.997910 0.572087 0.078235
0.045922 0.630124 0.081105
0.108875 0.630204 0.080865
0.170094 0.630282 0.080632
0.230677 0.630359 0.080401
0.290848 0.630435 0.080172
0.350717 0.630511 0.079944
0.410344 0.630587 0.079717
0.469773 0.630662 0.079491
0.529031 0.630737 0.079265
0.588141 0.630813 0.079040
0.647119 0.630887 0.078815
0.705979 0.630962 0.078591
0.764733 0.631037 0.078367
0.823388 0.631111 0.078144
0.881953 0.631186 0.077921
0.940434 0.631260 0.077698
0.998838 0.631334 0.077475
0.046849 0.689312 0.080346
0.109802 0.689392 0.080106
0.171022 0.689470 0.079873
0.231604 0.689547 0.079643
0.291775 0.689623 0.079413
0.351644 0.689699 0.079185
0.411272 0.689775 0.078958
0.470700 0.689850 0.078732
0.529958 0.689926 0.078506
0.589068 0.690001 0.078281
0.648046 0.690075 0.078056
0.706907 0.690150 0.077832
0.765660 0.690225 0.077608
0.824315 0.690299 0.077385
0.882880 0.690374 0.077162
0.941362 0.690448 0.076939
0.999765 0.690522 0.076717
0.047775 0.748446 0.079588
0.110728 0.748526 0.079348
0.171948 0.748604 0.079115
0.232530 0.748681 0.078884
0.292702 0.748757 0.078655
0.352570 0.748833 0.078427
0.412198 0.748909 0.078200
0.471626 0.748984 0.077974
0.530885 0.749060 0.077748
0.589994 0.749135 0.077523
0.648973 0.749210 0.077298
0.707833 0.749284 0.077074
0.766586 0.749359 0.076850
0.825242 0.749433 0.076627
0.883807 0.749508 0.076404
0.942288 0.749582 0.076181
1.000000 0.749656 0.075959
0.048701 0.807531 0.078831
0.111654 0.807611 0.078591
0.172874 0.807689 0.078358
0.233456 0.807766 0.078127
0.293628 0.807842 0.077898
0.353496 0.807918 0.077670
0.413124 0.807994 0.077443
0.472552 0.808069 0.077216
0.531810 0.808145 0.076991
0.590920 0.808220 0.076766
0.649899 0.808295 0.076541
0.708759 0.808369 0.076317
0.767512 0.808444 0.076093
0.826167 0.808518 0.075869
0.884733 0.808593 0.075646
0.943214 0.808667 0.075424
1.000000 0.808741 0.075201
0.049626 0.866571 0.078074
0.112579 0.866651 0.077834
0.173799 0.866728 0.077601
0.234381 0.866805 0.077370
0.294553 0.866882 0.077141
0.354421 0.866958 0.076913
0.414049 0.867033 0.076686
0.473477 0.867109 0.076460
0.532735 0.867184 0.076234
0.591845 0.867259 0.076009
0.650824 0.867334 0.075784
0.709684 0.867409 0.075560
0.768437 0.867483 0.075336
0.827092 0.867558 0.075113
0.885657 0.867632 0.074890
0.944139 0.867706 0.074667
1.000000 0.867780 0.074444
0.050550 0.925568 0.077318
0.113503 0.925648 0.077078
0.174723 0.925725 0.076845
0.235305 0.925802 0.076614
0.295477 0.925879 0.076385
0.355345 0.925955 0.076157
0.414973 0.926030 0.075930
0.474401 0.926106 0.075703
0.533660 0.926181 0.075478
0.592769 0.926256 0.075252
0.651748 0.926331 0.075028
0.710608 0.926406 0.074804
0.769361 0.926480 0.074580
0.828017 0.926555 0.074356
0.886582 0.926629 0.074133
0.945063 0.926704 0.073911
1.000000 0.926778 0.073688
0.051474 0.984526 0.076562
0.114427 0.984606 0.076322
0.175647 0.984683 0.076089
0.236229 0.984760 0.075858
0.296401 0.984837 0.075629
0.356269 0.984913 0.075401
0.415897 0.984988 0.075174
0.475325 0.985064 0.074948
0.534583 0.985139 0.074722
0.593693 0.985214 0.074497
0.652672 0.985289 0.074272
0.711532 0.985364 0.074048
0.770285 0.985438 0.073824
0.828940 0.985513 0.073601
0.887506 0.985587 0.073378
0.945987 0.985661 0.073155
1.000000 0.985736 0.072932
0.036643 0.032001 0.147157
0.099596 0.032081 0.146918
0.160816 0.032159 0.146685
0.221398 0.032235 0.146454
0.281570 0.032312 0.146225
0.341438 0.032388 0.145997
0.401066 0.032464 0.145769
0.460494 0.032539 0.145543
0.519752 0.032614 0.145317
0.578862 0.032689 0.145092
0.637841 0.032764 0.144868
0.696701 0.032839 0.144643
0.755454 0.032914 0.144420
0.814110 0.032988 0.144196
0.872675 0.033062 0.143973
0.931156 0.033137 0.143750
0.989559 0.033211 0.143528
0.037602 0.093209 0.146373
0.100555 0.093289 0.146133
0.161775 0.093367 0.145900
0.222357 0.093444 0.145669
0.282529 0.093520 0.145440
0.342397 0.093596 0.145212
0.402025 0.093672 0.144985
0.461453 0.093747 0.144758
0.520711 0.093822 0.144533
0.579821 0.093897 0.144308
0.638800 0.093972 0.144083
0.697660 0.094047 0.143859
0.756413 0.094122 0.143635
0.815069 0.094196 0.143412
0.873634 0.094270 0.143188
0.932115 0.094345 0.142966
0.990518 0.094419 0.142743
0.038548 0.153572 0.145599
0.101501 0.153651 0.145359
0.162721 0.153729 0.145126
0.223303 0.153806 0.144895
0.283474 0.153882 0.144666
0.343343 0.153959 0.144438
0.402970 0.154034 0.144211
0.462399 0.154110 0.143985
0.521657 0.154185 0.143759
0.580767 0.154260 0.143534
0.639745 0.154335 0.143309
0.698606 0.154410 0.143085
0.757359 0.154484 0.142861
0.816014 0.154559 0.142638
0.874579 0.154633 0.142415
0.933061 0.154707 0.142192
0.991464 0.154781 0.141969
0.039489 0.213619 0.144829
0.102442 0.213699 0.144590
0.163661 0.213777 0.144356
0.224244 0.213854 0.144126
0.284415 0.213930 0.143896
0.344284 0.214006 0.143668
0.403911 0.214082 0.143441
0.463340 0.214157 0.143215
0.522598 0.214232 0.142989
0.581708 0.214307 0.142764
0.640686 0.214382 0.142539
0.699546 0.214457 0.142315
0.758300 0.214532 0.142091
0.816955 0.214606 0.141868
0.875520 0.214680 0.141645
0.934001 0.214755 0.141422
0.992405 0.214829 0.141200
0.040426 0.273463 0.144062
0.103379 0.273543 0.143822
0.164599 0.273620 0.143589
0.225181 0.273697 0.143359
0.285353 0.273774 0.143129
0.345221 0.273850 0.142901
0.404849 0.273925 0.142674
0.464277 0.274001 0.142448
0.523535 0.274076 0.142222
0.582645 0.274151 0.141997
0.641624 0.274226 0.141772
0.700484 0.274301 0.141548
0.759237 0.274375 0.141324
0.817893 0.274450 0.141101
0.876458 0.274524 0.140878
0.934939 0.274598 0.140655
0.993342 0.274673 0.140433
0.041361 0.333155 0.143297
0.104315 0.333235 0.143057
0.165534 0.333313 0.142824
0.226116 0.333390 0.142593
0.286288 0.333466 0.142364
0.346156 0.333542 0.142136
0.405784 0.333618 0.141909
0.465212 0.333694 0.141683
0.524471 0.333769 0.141457
0.583580 0.333844 0.141232
0.642559 0.333919 0.141007
0.701419 0.333993 0.140783
0.760172 0.334068 0.140559
0.818828 0.334142 0.140336
0.877393 0.334217 0.140113
0.935874 0.334291 0.139890
0.994278 0.334365 0.139667
0.042295 0.392728 0.142533
0.105248 0.392808 0.142294
0.166468 0.392886 0.142060
0.227050 0.392963 0.141830
0.287221 0.393039 0.141601
0.347090 0.393115 0.141373
0.406717 0.393191 0.141145
0.466146 0.393266 0.140919
0.525404 0.393341 0.140693
0.584514 0.393416 0.140468
0.643492 0.393491 0.140244
0.702353 0.393566 0.140019
0.761106 0.393641 0.139796
0.819761 0.393715 0.139572
0.878326 0.393789 0.139349
0.936808 0.393864 0.139126
0.995211 0.393938 0.138904
0.043227 0.452201 0.141771
0.106180 0.452281 0.141531
0.167399 0.452359 0.141298
0.227981 0.452436 0.141067
0.288153 0.452512 0.140838
0.348021 0.452588 0.140610
0.407649 0.452664 0.140383
0.467078 0.452739 0.140157
0.526336 0.452814 0.139931
0.585446 0.452889 0.139706
0.644424 0.452964 0.139481
0.703284 0.453039 0.139257
0.762038 0.453114 0.139033
0.820693 0.453188 0.138810
0.879258 0.453262 0.138587
0.937739 0.453337 0.138364
0.996143 0.453411 0.138141
0.044157 0.511589 0.141010
0.107110 0.511669 0.140770
0.168330 0.511746 0.140537
0.228912 0.511823 0.140306
0.289084 0.511900 0.140077
0.348952 0.511976 0.139849
0.408580 0.512051 0.139622
0.468008 0.512127 0.139395
0.527266 0.512202 0.139170
0.586376 0.512277 0.138945
0.645354 0.512352 0.138720
0.704215 0.512427 0.138496
0.762968 0.512501 0.138272
0.821623 0.512576 0.138048
0.880188 0.512650 0.137825
0.938670 0.512724 0.137603
0.997073 0.512799 0.137380
0.045086 0.570902 0.140250
0.108039 0.570982 0.140010
0.169259 0.571060 0.139777
0.229841 0.571137 0.139546
0.290013 0.571213 0.139317
0.349881 0.571289 0.139089
0.409509 0.571365 0.138861
0.468937 0.571440 0.138635
0.528195 0.571515 0.138409
0.587305 0.571590 0.138184
0.646284 0.571665 0.137960
0.705144 0.571740 0.137735
0.763897 0.571815 0.137512
0.822553 0.571889 0.137288
0.881118 0.571964 0.137065
0.939599 0.572038 0.136842
0.998002 0.572112 0.136620
0.046014 0.630149 0.139490
0.108968 0.630229 0.139250
0.170187 0.630307 0.139017
0.230769 0.630384 0.138786
0.290941 0.630460 0.138557
0.350809 0.630536 0.138329
0.410437 0.630612 0.138102
0.469865 0.630688 0.137876
0.529124 0.630763 0.137650
0.588234 0.630838 0.137425
0.647212 0.630913 0.137200
0.706072 0.630987 0.136976
0.764826 0.631062 0.136752
0.823481 0.631137 0.136529
0.882046 0.631211 0.136306
0.940527 0.631285 0.136083
0.998931 0.631359 0.135860
0.046942 0.689337 0.138731
0.109895 0.689417 0.138492
0.171115 0.689495 0.138258
0.231697 0.689572 0.138028
0.291868 0.689648 0.137798
0.351737 0.689724 0.137570
0.411364 0.689800 0.137343
0.470793 0.689876 0.137117
0.530051 0.689951 0.136891
0.589161 0.690026 0.136666
0.648139 0.690101 0.136441
0.707000 0.690176 0.136217
0.765753 0.690250 0.135993
0.824408 0.690325 0.135770
0.882973 0.690399 0.135547
0.941455 0.690473 0.135324
0.999858 0.690547 0.135102
0.047868 0.748472 0.137973
0.110821 0.748552 0.137734
0.172041 0.748629 0.137500
0.232623 0.748706 0.137270
0.292795 0.748783 0.137040
0.352663 0.748859 0.136812
0.412291 0.748934 0.136585
0.471719 0.749010 0.136359
0.530977 0.749085 0.136133
0.590087 0.749160 0.135908
0.649066 0.749235 0.135683
0.707926 0.749310 0.135459
0.766679 0.749384 0.135235
0.825335 0.749459 0.135012
0.883900 0.749533 0.134789
0.942381 0.749607 0.134566
1.000000 0.749682 0.134344
0.048794 0.807557 0.137216
0.111747 0.807636 0.136976
0.172967 0.807714 0.136743
0.233549 0.807791 0.136512
0.293721 0.807867 0.136283
0.353589 0.807944 0.136055
0.413217 0.808019 0.135828
0.472645 0.808095 0.135602
0.531903 0.808170 0.135376
0.591013 0.808245 0.135151
0.649991 0.808320 0.134926
0.708852 0.808395 0.134702
0.767605 0.808469 0.134478
0.826260 0.808544 0.134255
0.884825 0.808618 0.134032
0.943307 0.808692 0.133809
1.000000 0.808766 0.133586
0.049719 0.866596 0.136459
0.112672 0.866676 0.136219
0.173892 0.866754 0.135986
0.234474 0.866830 0.135755
0.294645 0.866907 0.135526
0.354514 0.866983 0.135298
0.414142 0.867059 0.135071
0.473570 0.867134 0.134845
0.532828 0.867209 0.134619
0.591938 0.867284 0.134394
0.650916 0.867359 0.134169
0.709777 0.867434 0.133945
0.768530 0.867509 0.133721
0.827185 0.867583 0.133498
0.885750 0.867657 0.133275
0.944232 0.867732 0.133052
1.000000 0.867806 0.132830
0.050643 0.925593 0.135703
0.113596 0.925673 0.135463
0.174816 0.925751 0.135230
0.235398 0.925828 0.134999
0.295570 0.925904 0.134770
0.355438 0.925980 0.134542
0.415066 0.926056 0.134315
0.474494 0.926131 0.134088
0.533752 0.926207 0.133863
0.592862 0.926282 0.133638
0.651841 0.926356 0.133413
0.710701 0.926431 0.133189
0.769454 0.926506 0.132965
0.828110 0.926580 0.132742
0.886675 0.926655 0.132518
0.945156 0.926729 0.132296
1.000000 0.926803 0.132073
0.051567 0.984551 0.134947
0.114520 0.984631 0.134707
0.175740 0.984709 0.134474
0.236322 0.984786 0.134243
0.296494 0.984862 0.134014
0.356362 0.984938 0.133786
0.415990 0.985014 0.133559
0.475418 0.985089 0.133333
0.534676 0.985164 0.133107
0.593786 0.985239 0.132882
0.652764 0.985314 0.132657
0.711625 0.985389 0.132433
0.770378 0.985464 0.132209
0.829033 0.985538 0.131986
0.887598 0.985612 0.131763
0.946080 0.985687 0.131540
1.000000 0.985761 0.131317
0.036737 0.032026 0.205849
0.099690 0.032106 0.205609
0.160909 0.032184 0.205376
0.221491 0.032261 0.205145
0.281663 0.032337 0.204916
0.341531 0.032413 0.204688
0.401159 0.032489 0.204461
0.460588 0.032564 0.204234
0.519846 0.032640 0.204009
0.578956 0.032715 0.203784
0.637934 0.032790 0.203559
0.696794 0.032864 0.203335
0.755548 0.032939 0.203111
0.814203 0.033013 0.202887
0.872768 0.033088 0.202664
0.931249 0.033162 0.202442
0.989653 0.033236 0.202219
