Lutty/Resources/BundledLUTs/Story-Glow.cube
# Generated by Scripts/generate_bundled_luts.swift
TITLE "Story Glow"
LUT_3D_SIZE 17
DOMAIN_MIN 0.0 0.0 0.0
DOMAIN_MAX 1.0 1.0 1.0
0.028790 0.028790 0.035680
0.101973 0.028870 0.035521
0.169214 0.028949 0.035361
0.234380 0.029029 0.035202
0.298236 0.029109 0.035042
0.361134 0.029189 0.034883
0.423280 0.029268 0.034723
0.484806 0.029348 0.034564
0.545808 0.029428 0.034404
0.606354 0.029508 0.034245
0.666499 0.029587 0.034086
0.726285 0.029667 0.033926
0.785746 0.029747 0.033767
0.844912 0.029826 0.033607
0.903806 0.029906 0.033448
0.962449 0.029986 0.033288
0.989037 0.030066 0.033129
0.029595 0.096667 0.035144
0.100645 0.096133 0.034984
0.167973 0.095600 0.034825
0.233189 0.095066 0.034665
0.297079 0.094532 0.034506
0.360003 0.093997 0.034346
0.422170 0.093463 0.034187
0.483714 0.092928 0.034027
0.544731 0.092392 0.033868
0.605290 0.091857 0.033709
0.665447 0.091321 0.033549
0.725243 0.090785 0.033390
0.784715 0.090249 0.033230
0.843889 0.089713 0.033071
0.902791 0.089176 0.032911
0.961442 0.088639 0.032752
0.989841 0.088102 0.032592
0.030399 0.160846 0.034607
0.099312 0.160330 0.034448
0.166730 0.159813 0.034288
0.231997 0.159296 0.034129
0.295921 0.158779 0.033969
0.358872 0.158262 0.033810
0.421059 0.157745 0.033651
0.482621 0.157227 0.033491
0.543653 0.156710 0.033332
0.604226 0.156192 0.033172
0.664395 0.155675 0.033013
0.724202 0.155157 0.032853
0.783683 0.154639 0.032694
0.842866 0.154121 0.032534
0.901776 0.153603 0.032375
0.960435 0.153084 0.032215
0.990646 0.152566 0.032056
0.031204 0.223701 0.034071
0.097975 0.223194 0.033911
0.165486 0.222687 0.033752
0.230803 0.222179 0.033592
0.294762 0.221672 0.033433
0.357739 0.221165 0.033274
0.419949 0.220657 0.033114
0.481528 0.220150 0.032955
0.542576 0.219642 0.032795
0.603162 0.219135 0.032636
0.663342 0.218627 0.032476
0.723160 0.218119 0.032317
0.782651 0.217611 0.032157
0.841843 0.217103 0.031998
0.900761 0.216595 0.031839
0.959427 0.216087 0.031679
0.991451 0.215579 0.031520
0.032008 0.285710 0.033534
0.096633 0.285210 0.033375
0.164239 0.284709 0.033216
0.229608 0.284209 0.033056
0.293602 0.283708 0.032897
0.356606 0.283208 0.032737
0.418837 0.282707 0.032578
0.480435 0.282206 0.032418
0.541497 0.281706 0.032259
0.602097 0.281205 0.032099
0.662289 0.280704 0.031940
0.722118 0.280203 0.031780
0.781618 0.279702 0.031621
0.840819 0.279201 0.031462
0.899746 0.278700 0.031302
0.958419 0.278199 0.031143
0.992255 0.277698 0.030983
0.032813 0.347098 0.032998
0.095287 0.346603 0.032839
0.162990 0.346108 0.032679
0.228411 0.345612 0.032520
0.292442 0.345117 0.032360
0.355473 0.344622 0.032201
0.417725 0.344126 0.032041
0.479341 0.343631 0.031882
0.540419 0.343136 0.031722
0.601032 0.342640 0.031563
0.661236 0.342144 0.031404
0.721075 0.341649 0.031244
0.780585 0.341153 0.031085
0.839795 0.340658 0.030925
0.898730 0.340162 0.030766
0.957411 0.339666 0.030606
0.993060 0.339170 0.030447
0.033618 0.407996 0.032462
0.093937 0.407505 0.032302
0.161739 0.407014 0.032143
0.227213 0.406523 0.031983
0.291280 0.406032 0.031824
0.354338 0.405541 0.031664
0.416612 0.405049 0.031505
0.478246 0.404558 0.031345
0.539340 0.404067 0.031186
0.599966 0.403576 0.031027
0.660183 0.403084 0.030867
0.720033 0.402593 0.030708
0.779552 0.402102 0.030548
0.838771 0.401610 0.030389
0.897714 0.401119 0.030229
0.956403 0.400627 0.030070
0.993864 0.400136 0.029910
0.034422 0.468489 0.031925
0.092581 0.468001 0.031766
0.160486 0.467514 0.031606
0.226014 0.467026 0.031447
0.290117 0.466539 0.031287
0.353203 0.466051 0.031128
0.415499 0.465563 0.030969
0.477151 0.465076 0.030809
0.538260 0.464588 0.030650
0.598901 0.464100 0.030490
0.659129 0.463613 0.030331
0.718990 0.463125 0.030171
0.778519 0.462637 0.030012
0.837747 0.462149 0.029852
0.896698 0.461661 0.029693
0.955394 0.461174 0.029533
0.994669 0.460686 0.029374
0.035227 0.528637 0.031389
0.091220 0.528153 0.031229
0.159231 0.527668 0.031070
0.224814 0.527184 0.030910
0.288954 0.526699 0.030751
0.352067 0.526215 0.030592
0.414385 0.525730 0.030432
0.476055 0.525246 0.030273
0.537180 0.524761 0.030113
0.597834 0.524276 0.029954
0.658074 0.523792 0.029794
0.717946 0.523307 0.029635
0.777485 0.522822 0.029475
0.836722 0.522338 0.029316
0.895682 0.521853 0.029157
0.954386 0.521368 0.028997
0.995474 0.520883 0.028838
0.036031 0.588487 0.030852
0.089854 0.588005 0.030693
0.157974 0.587523 0.030534
0.223612 0.587041 0.030374
0.287789 0.586559 0.030215
0.350930 0.586077 0.030055
0.413270 0.585595 0.029896
0.474959 0.585114 0.029736
0.536100 0.584632 0.029577
0.596767 0.584150 0.029417
0.657020 0.583668 0.029258
0.716902 0.583186 0.029098
0.776451 0.582704 0.028939
0.835697 0.582221 0.028780
0.894665 0.581739 0.028620
0.953377 0.581257 0.028461
0.996278 0.580775 0.028301
0.036836 0.648071 0.030316
0.088482 0.647592 0.030157
0.156714 0.647112 0.029997
0.222409 0.646633 0.029838
0.286623 0.646153 0.029678
0.349792 0.645674 0.029519
0.412155 0.645194 0.029359
0.473862 0.644715 0.029200
0.535019 0.644235 0.029040
0.595700 0.643755 0.028881
0.655965 0.643276 0.028722
0.715858 0.642796 0.028562
0.775417 0.642316 0.028403
0.834672 0.641837 0.028243
0.893648 0.641357 0.028084
0.952367 0.640877 0.027924
0.997083 0.640398 0.027765
0.037641 0.707418 0.029780
0.087104 0.706941 0.029620
0.155453 0.706464 0.029461
0.221204 0.705986 0.029301
0.285457 0.705509 0.029142
0.348654 0.705032 0.028982
0.411039 0.704554 0.028823
0.472765 0.704077 0.028663
0.533937 0.703599 0.028504
0.594633 0.703122 0.028345
0.654910 0.702644 0.028185
0.714814 0.702167 0.028026
0.774383 0.701689 0.027866
0.833647 0.701212 0.027707
0.892631 0.700734 0.027547
0.951358 0.700257 0.027388
0.997887 0.699779 0.027228
0.038445 0.766551 0.029243
0.085720 0.766075 0.029084
0.154188 0.765600 0.028924
0.219998 0.765125 0.028765
0.284289 0.764649 0.028605
0.347515 0.764174 0.028446
0.409923 0.763698 0.028287
0.471667 0.763223 0.028127
0.532856 0.762747 0.027968
0.593565 0.762272 0.027808
0.653854 0.761796 0.027649
0.713769 0.761321 0.027489
0.773348 0.760845 0.027330
0.832621 0.760370 0.027170
0.891614 0.759894 0.027011
0.950348 0.759418 0.026851
0.998692 0.758943 0.026692
0.039250 0.825487 0.028707
0.084330 0.825013 0.028547
0.152922 0.824540 0.028388
0.218791 0.824066 0.028228
0.283121 0.823593 0.028069
0.346375 0.823119 0.027910
0.408805 0.822645 0.027750
0.470569 0.822172 0.027591
0.531773 0.821698 0.027431
0.592496 0.821224 0.027272
0.652798 0.820750 0.027112
0.712724 0.820277 0.026953
0.772313 0.819803 0.026793
0.831595 0.819329 0.026634
0.890596 0.818855 0.026475
0.949338 0.818382 0.026315
0.999497 0.817908 0.026156
0.040054 0.884243 0.028170
0.082932 0.883771 0.028011
0.151653 0.883299 0.027852
0.217582 0.882827 0.027692
0.281951 0.882355 0.027533
0.345234 0.881883 0.027373
0.407688 0.881411 0.027214
0.469470 0.880939 0.027054
0.530690 0.880467 0.026895
0.591428 0.879995 0.026735
0.651741 0.879523 0.026576
0.711679 0.879051 0.026416
0.771277 0.878579 0.026257
0.830569 0.878107 0.026098
0.889578 0.877634 0.025938
0.948328 0.877162 0.025779
1.000000 0.876690 0.025619
0.040859 0.942832 0.027634
0.081527 0.942361 0.027475
0.150382 0.941891 0.027315
0.216372 0.941421 0.027156
0.280780 0.940950 0.026996
0.344093 0.940480 0.026837
0.406569 0.940009 0.026677
0.468371 0.939539 0.026518
0.529607 0.939068 0.026358
0.590358 0.938598 0.026199
0.650685 0.938127 0.026040
0.710633 0.937656 0.025880
0.770242 0.937186 0.025721
0.829542 0.936715 0.025561
0.888560 0.936245 0.025402
0.947318 0.935774 0.025242
1.000000 0.935303 0.025083
0.041664 0.989501 0.027098
0.080115 0.989581 0.026938
0.149108 0.989661 0.026779
0.215160 0.989740 0.026619
0.279608 0.989820 0.026460
0.342951 0.989900 0.026300
0.405450 0.989980 0.026141
0.467271 0.990059 0.025981
0.528524 0.990139 0.025822
0.589289 0.990219 0.025663
0.649627 0.990298 0.025503
0.709587 0.990378 0.025344
0.769206 0.990458 0.025184
0.828515 0.990538 0.025025
0.887542 0.990617 0.024865
0.946307 0.990697 0.024706
1.000000 0.990777 0.024546
0.028871 0.028817 0.098834
0.101839 0.028897 0.098100
0.169089 0.028977 0.097366
0.234260 0.029056 0.096632
0.298119 0.029136 0.095897
0.361020 0.029216 0.095163
0.423168 0.029295 0.094428
0.484696 0.029375 0.093694
0.545699 0.029455 0.092959
0.606247 0.029535 0.092225
0.666393 0.029614 0.091490
0.726180 0.029694 0.090755
0.785642 0.029774 0.090021
0.844809 0.029854 0.089286
0.903704 0.029933 0.088551
0.962347 0.030013 0.087816
0.989118 0.030093 0.087081
0.029676 0.096486 0.096364
0.100510 0.095952 0.095630
0.167848 0.095418 0.094895
0.233069 0.094884 0.094161
0.296962 0.094350 0.093427
0.359889 0.093816 0.092692
0.422058 0.093281 0.091957
0.483604 0.092746 0.091223
0.544622 0.092211 0.090488
0.605183 0.091675 0.089753
0.665341 0.091139 0.089018
0.725138 0.090603 0.088283
0.784610 0.090067 0.087548
0.843786 0.089531 0.086813
0.902689 0.088994 0.086078
0.961340 0.088457 0.085343
0.989923 0.087919 0.084608
0.030480 0.160671 0.093894
0.099177 0.160154 0.093159
0.166605 0.159637 0.092425
0.231876 0.159120 0.091690
0.295804 0.158603 0.090955
0.358757 0.158086 0.090220
0.420947 0.157569 0.089486
0.482511 0.157052 0.088751
0.543545 0.156534 0.088016
0.604119 0.156017 0.087281
0.664289 0.155499 0.086546
0.724097 0.154981 0.085811
0.783579 0.154463 0.085076
0.842763 0.153945 0.084340
0.901674 0.153427 0.083605
0.960333 0.152908 0.082870
0.990727 0.152390 0.082134
0.031285 0.223529 0.091422
0.097840 0.223021 0.090688
0.165360 0.222514 0.089953
0.230682 0.222007 0.089218
0.294645 0.221500 0.088483
0.357625 0.220992 0.087748
0.419836 0.220485 0.087013
0.481418 0.219978 0.086278
0.542467 0.219470 0.085543
0.603055 0.218962 0.084808
0.663236 0.218455 0.084073
0.723055 0.217947 0.083337
0.782546 0.217439 0.082602
0.841739 0.216931 0.081866
0.900659 0.216423 0.081131
0.959325 0.215915 0.080395
0.991532 0.215406 0.079660
0.032090 0.285540 0.088951
0.096498 0.285040 0.088216
0.164113 0.284539 0.087481
0.229487 0.284039 0.086746
0.293485 0.283538 0.086011
0.356492 0.283038 0.085275
0.418725 0.282537 0.084540
0.480324 0.282036 0.083805
0.541389 0.281536 0.083070
0.601990 0.281035 0.082334
0.662183 0.280534 0.081599
0.722013 0.280033 0.080863
0.781514 0.279532 0.080127
0.840716 0.279031 0.079392
0.899643 0.278530 0.078656
0.958317 0.278029 0.077920
0.992336 0.277528 0.077184
0.032894 0.346930 0.086478
0.095151 0.346435 0.085743
0.162864 0.345939 0.085008
0.228290 0.345444 0.084272
0.292324 0.344949 0.083537
0.355358 0.344454 0.082802
0.417613 0.343958 0.082066
0.479230 0.343463 0.081331
0.540310 0.342967 0.080595
0.600925 0.342472 0.079860
0.661130 0.341976 0.079124
0.720970 0.341481 0.078388
0.780481 0.340985 0.077652
0.839692 0.340489 0.076916
0.898628 0.339993 0.076180
0.957309 0.339498 0.075444
0.993141 0.339002 0.074708
0.033699 0.407829 0.084005
0.093800 0.407338 0.083269
0.161613 0.406847 0.082534
0.227092 0.406356 0.081799
0.291163 0.405865 0.081063
0.354223 0.405374 0.080327
0.416500 0.404883 0.079592
0.478136 0.404391 0.078856
0.539231 0.403900 0.078120
0.599859 0.403409 0.077384
0.660076 0.402918 0.076648
0.719927 0.402426 0.075912
0.779448 0.401935 0.075176
0.838668 0.401443 0.074440
0.897612 0.400952 0.073704
0.956301 0.400460 0.072967
0.993946 0.399969 0.072231
0.034503 0.468323 0.081531
0.092444 0.467836 0.080795
0.160360 0.467348 0.080060
0.225893 0.466861 0.079324
0.290000 0.466373 0.078588
0.353088 0.465886 0.077852
0.415386 0.465398 0.077116
0.477040 0.464910 0.076380
0.538151 0.464423 0.075644
0.598793 0.463935 0.074908
0.659022 0.463447 0.074172
0.718884 0.462959 0.073436
0.778415 0.462471 0.072699
0.837643 0.461984 0.071963
0.896596 0.461496 0.071226
0.955292 0.461008 0.070490
0.994750 0.460520 0.069753
0.035308 0.528473 0.079056
0.091082 0.527988 0.078320
0.159104 0.527504 0.077584
0.224693 0.527019 0.076848
0.288836 0.526535 0.076112
0.351952 0.526050 0.075376
0.414272 0.525566 0.074640
0.475945 0.525081 0.073904
0.537071 0.524597 0.073168
0.597726 0.524112 0.072431
0.657968 0.523627 0.071695
0.717841 0.523142 0.070958
0.777381 0.522658 0.070222
0.836619 0.522173 0.069485
0.895579 0.521688 0.068748
0.954284 0.521203 0.068011
0.995555 0.520718 0.067274
0.036113 0.588323 0.076581
0.089715 0.587841 0.075845
0.157847 0.587359 0.075108
0.223491 0.586877 0.074372
0.287671 0.586396 0.073636
0.350815 0.585914 0.072900
0.413158 0.585432 0.072163
0.474848 0.584950 0.071427
0.535991 0.584468 0.070690
0.596660 0.583986 0.069953
0.656913 0.583504 0.069217
0.716797 0.583022 0.068480
0.776347 0.582540 0.067743
0.835594 0.582058 0.067006
0.894563 0.581576 0.066269
0.953275 0.581094 0.065532
0.996359 0.580611 0.064794
0.036917 0.647908 0.074104
0.088343 0.647429 0.073368
0.156587 0.646949 0.072632
0.222287 0.646470 0.071895
0.286506 0.645990 0.071159
0.349677 0.645511 0.070422
0.412042 0.645031 0.069685
0.473752 0.644552 0.068948
0.534910 0.644072 0.068212
0.595592 0.643593 0.067475
0.655858 0.643113 0.066738
0.715753 0.642633 0.066001
0.775313 0.642154 0.065263
0.834569 0.641674 0.064526
0.893546 0.641194 0.063789
0.952266 0.640714 0.063051
0.997164 0.640235 0.062314
0.037722 0.707256 0.071627
0.086965 0.706779 0.070890
0.155325 0.706301 0.070154
0.221083 0.705824 0.069417
0.285339 0.705347 0.068680
0.348539 0.704869 0.067943
0.410926 0.704392 0.067206
0.472654 0.703915 0.066469
0.533828 0.703437 0.065732
0.594525 0.702960 0.064995
0.654803 0.702482 0.064258
0.714708 0.702005 0.063520
0.774278 0.701527 0.062783
0.833543 0.701050 0.062045
0.892529 0.700572 0.061307
0.951256 0.700095 0.060569
0.997969 0.699617 0.059832
0.038526 0.766389 0.069149
0.085580 0.765914 0.068412
0.154061 0.765438 0.067675
0.219877 0.764963 0.066938
0.284171 0.764488 0.066201
0.347400 0.764012 0.065464
0.409810 0.763537 0.064726
0.471556 0.763061 0.063989
0.532746 0.762586 0.063252
0.593457 0.762110 0.062514
0.653747 0.761635 0.061776
0.713664 0.761159 0.061039
0.773243 0.760684 0.060301
0.832517 0.760208 0.059563
0.891511 0.759733 0.058825
0.950246 0.759257 0.058087
0.998773 0.758781 0.057348
0.039331 0.825326 0.066670
0.084189 0.824853 0.065933
0.152794 0.824379 0.065195
0.218669 0.823905 0.064458
0.283003 0.823432 0.063721
0.346260 0.822958 0.062983
0.408693 0.822484 0.062246
0.470458 0.822011 0.061508
0.531664 0.821537 0.060770
0.592388 0.821063 0.060032
0.652691 0.820590 0.059294
0.712619 0.820116 0.058556
0.772208 0.819642 0.057818
0.831491 0.819168 0.057080
0.890493 0.818694 0.056341
0.949236 0.818221 0.055603
0.999578 0.817747 0.054864
0.040136 0.884083 0.064190
0.082791 0.883611 0.063452
0.151525 0.883139 0.062715
0.217460 0.882667 0.061977
0.281833 0.882195 0.061239
0.345119 0.881723 0.060501
0.407575 0.881251 0.059764
0.469359 0.880779 0.059025
0.530581 0.880307 0.058287
0.591320 0.879835 0.057549
0.651635 0.879363 0.056811
0.711573 0.878890 0.056072
0.771173 0.878418 0.055334
0.830465 0.877946 0.054595
0.889476 0.877474 0.053856
0.948226 0.877002 0.053117
1.000000 0.876530 0.052378
0.040940 0.942672 0.061708
0.081385 0.942202 0.060971
0.150253 0.941731 0.060233
0.216250 0.941261 0.059495
0.280662 0.940790 0.058757
0.343978 0.940320 0.058019
0.406456 0.939849 0.057280
0.468260 0.939379 0.056542
0.529498 0.938908 0.055803
0.590250 0.938438 0.055065
0.650578 0.937967 0.054326
0.710527 0.937497 0.053587
0.770137 0.937026 0.052848
0.829439 0.936555 0.052109
0.888457 0.936085 0.051370
0.947216 0.935614 0.050631
1.000000 0.935144 0.049891
0.041745 0.989528 0.059226
0.079972 0.989608 0.058488
0.148979 0.989688 0.057750
0.215038 0.989767 0.057012
0.279490 0.989847 0.056273
0.342835 0.989927 0.055535
0.405337 0.990007 0.054796
0.467160 0.990086 0.054057
0.528414 0.990166 0.053318
0.589181 0.990246 0.052579
0.649521 0.990326 0.051840
0.709481 0.990405 0.051101
0.769101 0.990485 0.050361
0.828412 0.990565 0.049622
0.887439 0.990644 0.048882
0.946205 0.990724 0.048142
1.000000 0.990804 0.047402
0.028952 0.028844 0.161115
0.101705 0.028924 0.160385
0.168963 0.029004 0.159655
0.234140 0.029083 0.158924
0.298002 0.029163 0.158194
0.360906 0.029243 0.157464
0.423055 0.029323 0.156734
0.484586 0.029402 0.156003
0.545590 0.029482 0.155273
0.606139 0.029562 0.154543
0.666287 0.029641 0.153812
0.726075 0.029721 0.153082
0.785538 0.029801 0.152351
0.844705 0.029881 0.151621
0.903601 0.029960 0.150890
0.962246 0.030040 0.150160
0.989199 0.030120 0.149429
0.029757 0.096305 0.158659
0.100376 0.095771 0.157928
0.167722 0.095237 0.157198
0.232948 0.094703 0.156468
0.296845 0.094169 0.155737
0.359775 0.093634 0.155007
0.421946 0.093099 0.154277
0.483493 0.092564 0.153546
0.544513 0.092029 0.152816
0.605076 0.091493 0.152085
0.665235 0.090957 0.151355
0.725033 0.090421 0.150624
0.784506 0.089885 0.149894
0.843683 0.089348 0.149163
0.902586 0.088811 0.148433
0.961239 0.088274 0.147702
0.990004 0.087737 0.146971
0.030562 0.160495 0.156202
0.099042 0.159979 0.155471
0.166479 0.159462 0.154741
0.231756 0.158945 0.154011
0.295687 0.158428 0.153280
0.358643 0.157911 0.152550
0.420835 0.157393 0.151819
0.482401 0.156876 0.151089
0.543436 0.156358 0.150358
0.604012 0.155841 0.149628
0.664182 0.155323 0.148897
0.723992 0.154805 0.148167
0.783474 0.154287 0.147436
0.842659 0.153769 0.146705
0.901572 0.153251 0.145974
0.960231 0.152732 0.145244
0.990808 0.152214 0.144513
0.031366 0.223356 0.153745
0.097704 0.222849 0.153014
0.165234 0.222342 0.152284
0.230561 0.221835 0.151553
0.294528 0.221328 0.150823
0.357511 0.220820 0.150092
0.419724 0.220313 0.149362
0.481308 0.219805 0.148631
0.542358 0.219298 0.147901
0.602947 0.218790 0.147170
0.663130 0.218282 0.146439
0.722950 0.217774 0.145708
0.782442 0.217266 0.144978
0.841636 0.216758 0.144247
0.900556 0.216250 0.143516
0.959224 0.215742 0.142785
0.991613 0.215234 0.142054
0.032171 0.285370 0.151287
0.096362 0.284870 0.150557
0.163987 0.284369 0.149826
0.229366 0.283869 0.149096
0.293368 0.283368 0.148365
0.356377 0.282868 0.147635
0.418613 0.282367 0.146904
0.480214 0.281866 0.146173
0.541280 0.281366 0.145442
0.601882 0.280865 0.144712
0.662077 0.280364 0.143981
0.721907 0.279863 0.143250
0.781410 0.279362 0.142519
0.840612 0.278861 0.141788
0.899541 0.278360 0.141057
0.958216 0.277859 0.140326
0.992418 0.277358 0.139595
0.032975 0.346762 0.148830
0.095015 0.346266 0.148099
0.162738 0.345771 0.147368
0.228169 0.345276 0.146638
0.292207 0.344781 0.145907
0.355244 0.344285 0.145176
0.417500 0.343790 0.144446
0.479120 0.343294 0.143715
0.540201 0.342799 0.142984
0.600817 0.342303 0.142253
0.661024 0.341808 0.141522
0.720865 0.341312 0.140791
0.780377 0.340817 0.140060
0.839589 0.340321 0.139329
0.898525 0.339825 0.138598
0.957208 0.339329 0.137867
0.993222 0.338833 0.137136
0.033780 0.407662 0.146372
0.093663 0.407171 0.145641
0.161486 0.406680 0.144910
0.226971 0.406189 0.144180
0.291045 0.405698 0.143449
0.354109 0.405207 0.142718
0.416387 0.404716 0.141987
0.478025 0.404225 0.141256
0.539122 0.403733 0.140525
0.599751 0.403242 0.139794
0.659970 0.402751 0.139063
0.719822 0.402259 0.138332
0.779344 0.401768 0.137601
0.838564 0.401276 0.136870
0.897509 0.400785 0.136139
0.956199 0.400293 0.135408
0.994027 0.399802 0.134677
0.034585 0.468158 0.143913
0.092307 0.467670 0.143183
0.160233 0.467183 0.142452
0.225772 0.466695 0.141721
0.289882 0.466208 0.140990
0.352973 0.465720 0.140259
0.415274 0.465232 0.139528
0.476930 0.464745 0.138797
0.538042 0.464257 0.138066
0.598685 0.463769 0.137335
0.658916 0.463281 0.136604
0.718779 0.462794 0.135873
0.778310 0.462306 0.135142
0.837540 0.461818 0.134410
0.896493 0.461330 0.133679
0.955191 0.460842 0.132948
0.994831 0.460354 0.132217
0.035389 0.528308 0.141455
0.090945 0.527824 0.140724
0.158978 0.527339 0.139993
0.224571 0.526855 0.139262
0.288719 0.526370 0.138531
0.351837 0.525886 0.137800
0.414160 0.525401 0.137069
0.475834 0.524917 0.136338
0.536962 0.524432 0.135607
0.597619 0.523947 0.134875
0.657862 0.523463 0.134144
0.717735 0.522978 0.133413
0.777277 0.522493 0.132682
0.836515 0.522008 0.131950
0.895477 0.521523 0.131219
0.954182 0.521039 0.130488
0.995636 0.520554 0.129756
0.036194 0.588159 0.138996
0.089577 0.587678 0.138265
0.157720 0.587196 0.137534
0.223369 0.586714 0.136803
0.287554 0.586232 0.136072
0.350700 0.585750 0.135340
0.413045 0.585268 0.134609
0.474738 0.584786 0.133878
0.535881 0.584304 0.133147
0.596552 0.583822 0.132416
0.656807 0.583340 0.131684
0.716692 0.582858 0.130953
0.776243 0.582376 0.130221
0.835490 0.581894 0.129490
0.894460 0.581412 0.128759
0.953173 0.580930 0.128027
0.996441 0.580448 0.127296
0.036998 0.647745 0.136536
0.088204 0.647266 0.135805
0.156460 0.646786 0.135074
0.222166 0.646307 0.134343
0.286388 0.645827 0.133612
0.349563 0.645348 0.132881
0.411930 0.644868 0.132149
0.473641 0.644389 0.131418
0.534800 0.643909 0.130687
0.595485 0.643430 0.129955
0.655752 0.642950 0.129224
0.715647 0.642470 0.128492
0.775208 0.641991 0.127761
0.834465 0.641511 0.127029
0.893443 0.641031 0.126298
0.952164 0.640552 0.125566
0.997245 0.640072 0.124835
0.037803 0.707094 0.134077
0.086825 0.706617 0.133346
0.155198 0.706139 0.132614
0.220961 0.705662 0.131883
0.285221 0.705185 0.131152
0.348424 0.704707 0.130420
0.410814 0.704230 0.129689
0.472543 0.703752 0.128958
0.533719 0.703275 0.128226
0.594417 0.702798 0.127495
0.654696 0.702320 0.126763
0.714603 0.701843 0.126031
0.774174 0.701365 0.125300
0.833440 0.700888 0.124568
0.892426 0.700410 0.123837
0.951154 0.699932 0.123105
0.998050 0.699455 0.122373
0.038608 0.766228 0.131617
0.085440 0.765752 0.130885
0.153933 0.765277 0.130154
0.219755 0.764802 0.129423
0.284053 0.764326 0.128691
0.347285 0.763851 0.127960
0.409697 0.763375 0.127228
0.471446 0.762900 0.126497
0.532637 0.762424 0.125765
0.593349 0.761949 0.125034
0.653641 0.761473 0.124302
0.713558 0.760998 0.123570
0.773139 0.760522 0.122838
0.832414 0.760047 0.122107
0.891408 0.759571 0.121375
0.950144 0.759095 0.120643
0.998854 0.758620 0.119911
0.039412 0.825165 0.129156
0.084048 0.824692 0.128425
0.152666 0.824218 0.127693
0.218547 0.823745 0.126962
0.282884 0.823271 0.126230
0.346145 0.822797 0.125499
0.408580 0.822324 0.124767
0.470347 0.821850 0.124036
0.531555 0.821376 0.123304
0.592281 0.820902 0.122572
0.652584 0.820429 0.121840
0.712513 0.819955 0.121109
0.772104 0.819481 0.120377
0.831388 0.819007 0.119645
0.890391 0.818534 0.118913
0.949135 0.818060 0.118181
0.999659 0.817586 0.117449
0.040217 0.883922 0.126696
0.082649 0.883450 0.125964
0.151396 0.882978 0.125232
0.217338 0.882507 0.124501
0.281715 0.882035 0.123769
0.345004 0.881562 0.123037
0.407462 0.881090 0.122306
0.469248 0.880618 0.121574
0.530472 0.880146 0.120842
0.591212 0.879674 0.120110
0.651528 0.879202 0.119378
0.711468 0.878730 0.118647
0.771068 0.878258 0.117915
0.830361 0.877786 0.117183
0.889373 0.877314 0.116451
0.948124 0.876842 0.115719
1.000000 0.876369 0.114986
0.041021 0.942512 0.124234
0.081243 0.942042 0.123503
0.150125 0.941571 0.122771
0.216127 0.941101 0.122039
0.280544 0.940631 0.121308
0.343862 0.940160 0.120576
0.406343 0.939690 0.119844
0.468149 0.939219 0.119112
0.529388 0.938749 0.118380
0.590142 0.938278 0.117648
0.650471 0.937807 0.116916
0.710422 0.937337 0.116184
0.770033 0.936866 0.115452
0.829335 0.936396 0.114720
0.888355 0.935925 0.113988
0.947114 0.935454 0.113256
1.000000 0.934984 0.112523
0.041826 0.989555 0.121773
0.079829 0.989635 0.121041
0.148850 0.989715 0.120309
0.214915 0.989795 0.119577
0.279372 0.989874 0.118845
0.342720 0.989954 0.118114
0.405224 0.990034 0.117382
0.467049 0.990113 0.116650
0.528305 0.990193 0.115918
0.589073 0.990273 0.115185
0.649414 0.990353 0.114453
0.709376 0.990432 0.113721
0.768997 0.990512 0.112989
0.828308 0.990592 0.112257
0.887336 0.990672 0.111524
0.946103 0.990751 0.110792
1.000000 0.990831 0.110060
0.029034 0.028871 0.223070
0.101571 0.028951 0.222343
0.168838 0.029031 0.221615
0.234020 0.029110 0.220887
0.297886 0.029190 0.220159
0.360792 0.029270 0.219431
0.422943 0.029350 0.218703
0.484475 0.029429 0.217975
0.545482 0.029509 0.217247
0.606032 0.029589 0.216519
0.666180 0.029668 0.215791
0.725969 0.029748 0.215063
0.785434 0.029828 0.214335
0.844602 0.029908 0.213607
0.903499 0.029987 0.212879
0.962144 0.030067 0.212151
0.989280 0.030147 0.211423
