Lutty/Resources/BundledLUTs/Story-Glow.cube
# Generated by Scripts/generate_bundled_luts.swift
TITLE "Story Glow"
LUT_3D_SIZE 5
DOMAIN_MIN 0.0 0.0 0.0
DOMAIN_MAX 1.0 1.0 1.0
0.028790 0.028790 0.035680
0.298236 0.029109 0.035042
0.545808 0.029428 0.034404
0.785746 0.029747 0.033767
0.989037 0.030066 0.033129
0.032008 0.285710 0.033534
0.293602 0.283708 0.032897
0.541497 0.281706 0.032259
0.781618 0.279702 0.031621
0.992255 0.277698 0.030983
0.035227 0.528637 0.031389
0.288954 0.526699 0.030751
0.537180 0.524761 0.030113
0.777485 0.522822 0.029475
0.995474 0.520883 0.028838
0.038445 0.766551 0.029243
0.284289 0.764649 0.028605
0.532856 0.762747 0.027968
0.773348 0.760845 0.027330
0.998692 0.758943 0.026692
0.041664 0.989501 0.027098
0.279608 0.989820 0.026460
0.528524 0.990139 0.025822
0.769206 0.990458 0.025184
1.000000 0.990777 0.024546
0.029115 0.028898 0.284816
0.297769 0.029217 0.281911
0.545373 0.029536 0.279006
0.785330 0.029855 0.276100
0.989362 0.030174 0.273195
0.032333 0.285030 0.275042
0.293134 0.283028 0.272137
0.541062 0.281026 0.269231
0.781201 0.279022 0.266325
0.992580 0.277017 0.263418
0.035552 0.527979 0.265267
0.288483 0.526041 0.262360
0.536744 0.524103 0.259454
0.777068 0.522164 0.256547
0.995798 0.520224 0.253640
0.038770 0.765905 0.255488
0.283817 0.764003 0.252581
0.532419 0.762101 0.249674
0.772930 0.760199 0.246766
0.999017 0.758297 0.243858
0.041989 0.989610 0.245708
0.279135 0.989928 0.242800
0.528086 0.990247 0.239891
0.768787 0.990566 0.236983
1.000000 0.990885 0.234074
0.029440 0.029007 0.530506
0.297302 0.029326 0.527617
0.544938 0.029644 0.524728
0.784913 0.029963 0.521838
0.989687 0.030282 0.518949
0.032658 0.284350 0.520786
0.292665 0.282348 0.517897
0.540626 0.280345 0.515007
0.780784 0.278341 0.512117
0.992905 0.276336 0.509227
0.035877 0.527321 0.511065
0.288013 0.525383 0.508175
0.536308 0.523444 0.505285
0.776650 0.521505 0.502395
0.996123 0.519566 0.499505
0.039095 0.765259 0.501343
0.283345 0.763357 0.498453
0.531981 0.761455 0.495562
0.772512 0.759553 0.492672
0.999342 0.757651 0.489781
0.042313 0.989718 0.491619
0.278661 0.990037 0.488729
0.527648 0.990356 0.485838
0.768369 0.990674 0.482947
1.000000 0.990993 0.480056
0.029765 0.029115 0.774914
0.296834 0.029434 0.772033
0.544503 0.029753 0.769153
0.784496 0.030072 0.766273
0.990012 0.030391 0.763393
0.032983 0.283671 0.765224
0.292196 0.281668 0.762344
0.540191 0.279665 0.759464
0.780367 0.277660 0.756583
0.993230 0.275655 0.753703
0.036202 0.526663 0.755534
0.287543 0.524725 0.752654
0.535871 0.522786 0.749773
0.776233 0.520847 0.746893
0.996448 0.518907 0.744012
0.039420 0.764613 0.745844
0.282873 0.762712 0.742963
0.531544 0.760809 0.740082
0.772094 0.758907 0.737201
0.999667 0.757004 0.734320
0.042638 0.989826 0.736152
0.278188 0.990145 0.733271
0.527210 0.990464 0.730390
0.767950 0.990783 0.727509
1.000000 0.991102 0.724628
0.030090 0.029223 0.979454
0.296367 0.029542 0.978816
0.544068 0.029861 0.978178
0.784080 0.030180 0.977540
0.990336 0.030499 0.976902
0.033308 0.282991 0.977308
0.291727 0.280988 0.976670
0.539755 0.278984 0.976032
0.779950 0.276980 0.975395
0.993555 0.274974 0.974757
0.036526 0.526005 0.975162
0.287072 0.524066 0.974525
0.535435 0.522127 0.973887
0.775815 0.520188 0.973249
0.996773 0.518248 0.972611
0.039745 0.763968 0.973017
0.282401 0.762066 0.972379
0.531107 0.760163 0.971741
0.771676 0.758261 0.971103
0.999992 0.756358 0.970466
0.042963 0.989934 0.970871
0.277714 0.990253 0.970233
0.526772 0.990572 0.969596
0.767532 0.990891 0.968958
1.000000 0.991210 0.968320
