Lutty/Resources/BundledLUTs/Story-Glow.cube
# Generated by Scripts/generate_bundled_luts.swift
TITLE "Story Glow"
LUT_3D_SIZE 9
DOMAIN_MIN 0.0 0.0 0.0
DOMAIN_MAX 1.0 1.0 1.0
0.028790 0.028790 0.035680
0.169214 0.028949 0.035361
0.298236 0.029109 0.035042
0.423280 0.029268 0.034723
0.545808 0.029428 0.034404
0.666499 0.029587 0.034086
0.785746 0.029747 0.033767
0.903806 0.029906 0.033448
0.989037 0.030066 0.033129
0.030399 0.160846 0.034607
0.166730 0.159813 0.034288
0.295921 0.158779 0.033969
0.421059 0.157745 0.033651
0.543653 0.156710 0.033332
0.664395 0.155675 0.033013
0.783683 0.154639 0.032694
0.901776 0.153603 0.032375
0.990646 0.152566 0.032056
0.032008 0.285710 0.033534
0.164239 0.284709 0.033216
0.293602 0.283708 0.032897
0.418837 0.282707 0.032578
0.541497 0.281706 0.032259
0.662289 0.280704 0.031940
0.781618 0.279702 0.031621
0.899746 0.278700 0.031302
0.992255 0.277698 0.030983
0.033618 0.407996 0.032462
0.161739 0.407014 0.032143
0.291280 0.406032 0.031824
0.416612 0.405049 0.031505
0.539340 0.404067 0.031186
0.660183 0.403084 0.030867
0.779552 0.402102 0.030548
0.897714 0.401119 0.030229
0.993864 0.400136 0.029910
0.035227 0.528637 0.031389
0.159231 0.527668 0.031070
0.288954 0.526699 0.030751
0.414385 0.525730 0.030432
0.537180 0.524761 0.030113
0.658074 0.523792 0.029794
0.777485 0.522822 0.029475
0.895682 0.521853 0.029157
0.995474 0.520883 0.028838
0.036836 0.648071 0.030316
0.156714 0.647112 0.029997
0.286623 0.646153 0.029678
0.412155 0.645194 0.029359
0.535019 0.644235 0.029040
0.655965 0.643276 0.028722
0.775417 0.642316 0.028403
0.893648 0.641357 0.028084
0.997083 0.640398 0.027765
0.038445 0.766551 0.029243
0.154188 0.765600 0.028924
0.284289 0.764649 0.028605
0.409923 0.763698 0.028287
0.532856 0.762747 0.027968
0.653854 0.761796 0.027649
0.773348 0.760845 0.027330
0.891614 0.759894 0.027011
0.998692 0.758943 0.026692
0.040054 0.884243 0.028170
0.151653 0.883299 0.027852
0.281951 0.882355 0.027533
0.407688 0.881411 0.027214
0.530690 0.880467 0.026895
0.651741 0.879523 0.026576
0.771277 0.878579 0.026257
0.889578 0.877634 0.025938
1.000000 0.876690 0.025619
0.041664 0.989501 0.027098
0.149108 0.989661 0.026779
0.279608 0.989820 0.026460
0.405450 0.989980 0.026141
0.528524 0.990139 0.025822
0.649627 0.990298 0.025503
0.769206 0.990458 0.025184
0.887542 0.990617 0.024865
1.000000 0.990777 0.024546
0.028952 0.028844 0.161115
0.168963 0.029004 0.159655
0.298002 0.029163 0.158194
0.423055 0.029323 0.156734
0.545590 0.029482 0.155273
0.666287 0.029641 0.153812
0.785538 0.029801 0.152351
0.903601 0.029960 0.150890
0.989199 0.030120 0.149429
0.030562 0.160495 0.156202
0.166479 0.159462 0.154741
0.295687 0.158428 0.153280
0.420835 0.157393 0.151819
0.543436 0.156358 0.150358
0.664182 0.155323 0.148897
0.783474 0.154287 0.147436
0.901572 0.153251 0.145974
0.990808 0.152214 0.144513
0.032171 0.285370 0.151287
0.163987 0.284369 0.149826
0.293368 0.283368 0.148365
0.418613 0.282367 0.146904
0.541280 0.281366 0.145442
0.662077 0.280364 0.143981
0.781410 0.279362 0.142519
0.899541 0.278360 0.141057
0.992418 0.277358 0.139595
0.033780 0.407662 0.146372
0.161486 0.406680 0.144910
0.291045 0.405698 0.143449
0.416387 0.404716 0.141987
0.539122 0.403733 0.140525
0.659970 0.402751 0.139063
0.779344 0.401768 0.137601
0.897509 0.400785 0.136139
0.994027 0.399802 0.134677
0.035389 0.528308 0.141455
0.158978 0.527339 0.139993
0.288719 0.526370 0.138531
0.414160 0.525401 0.137069
0.536962 0.524432 0.135607
0.657862 0.523463 0.134144
0.777277 0.522493 0.132682
0.895477 0.521523 0.131219
0.995636 0.520554 0.129756
0.036998 0.647745 0.136536
0.156460 0.646786 0.135074
0.286388 0.645827 0.133612
0.411930 0.644868 0.132149
0.534800 0.643909 0.130687
0.655752 0.642950 0.129224
0.775208 0.641991 0.127761
0.893443 0.641031 0.126298
0.997245 0.640072 0.124835
0.038608 0.766228 0.131617
0.153933 0.765277 0.130154
0.284053 0.764326 0.128691
0.409697 0.763375 0.127228
0.532637 0.762424 0.125765
0.653641 0.761473 0.124302
0.773139 0.760522 0.122838
0.891408 0.759571 0.121375
0.998854 0.758620 0.119911
0.040217 0.883922 0.126696
0.151396 0.882978 0.125232
0.281715 0.882035 0.123769
0.407462 0.881090 0.122306
0.530472 0.880146 0.120842
0.651528 0.879202 0.119378
0.771068 0.878258 0.117915
0.889373 0.877314 0.116451
1.000000 0.876369 0.114986
0.041826 0.989555 0.121773
0.148850 0.989715 0.120309
0.279372 0.989874 0.118845
0.405224 0.990034 0.117382
0.528305 0.990193 0.115918
0.649414 0.990353 0.114453
0.768997 0.990512 0.112989
0.887336 0.990672 0.111524
1.000000 0.990831 0.110060
0.029115 0.028898 0.284816
0.168713 0.029058 0.283363
0.297769 0.029217 0.281911
0.422831 0.029377 0.280458
0.545373 0.029536 0.279006
0.666074 0.029696 0.277553
0.785330 0.029855 0.276100
0.903396 0.030014 0.274647
0.989362 0.030174 0.273195
0.030724 0.160144 0.279929
0.166228 0.159111 0.278477
0.295453 0.158077 0.277024
0.420611 0.157042 0.275571
0.543218 0.156007 0.274118
0.663970 0.154971 0.272666
0.783266 0.153935 0.271213
0.901367 0.152899 0.269760
0.990971 0.151862 0.268307
0.032333 0.285030 0.275042
0.163735 0.284029 0.273590
0.293134 0.283028 0.272137
0.418388 0.282027 0.270684
0.541062 0.281026 0.269231
0.661864 0.280024 0.267778
0.781201 0.279022 0.266325
0.899336 0.278020 0.264872
0.992580 0.277017 0.263418
0.033943 0.407329 0.270155
0.161234 0.406347 0.268702
0.290811 0.405364 0.267249
0.416163 0.404382 0.265796
0.538904 0.403400 0.264343
0.659757 0.402417 0.262889
0.779135 0.401434 0.261436
0.897304 0.400451 0.259983
0.994189 0.399468 0.258529
0.035552 0.527979 0.265267
0.158724 0.527010 0.263813
0.288483 0.526041 0.262360
0.413935 0.525072 0.260907
0.536744 0.524103 0.259454
0.657649 0.523133 0.258000
0.777068 0.522164 0.256547
0.895271 0.521194 0.255093
0.995798 0.520224 0.253640
0.037161 0.647420 0.260378
0.156205 0.646461 0.258924
0.286152 0.645502 0.257471
0.411704 0.644543 0.256018
0.534582 0.643583 0.254564
0.655539 0.642624 0.253110
0.775000 0.641665 0.251657
0.893238 0.640705 0.250203
0.997408 0.639746 0.248749
0.038770 0.765905 0.255488
0.153677 0.764954 0.254035
0.283817 0.764003 0.252581
0.409472 0.763052 0.251128
0.532419 0.762101 0.249674
0.653427 0.761150 0.248220
0.772930 0.760199 0.246766
0.891203 0.759248 0.245312
0.999017 0.758297 0.243858
0.040379 0.883602 0.250598
0.151140 0.882658 0.249145
0.281478 0.881714 0.247691
0.407236 0.880770 0.246237
0.530253 0.879826 0.244783
0.651315 0.878882 0.243329
0.770859 0.877937 0.241875
0.889167 0.876993 0.240421
1.000000 0.876049 0.238967
0.041989 0.989610 0.245708
0.148592 0.989769 0.244254
0.279135 0.989928 0.242800
0.404998 0.990088 0.241346
0.528086 0.990247 0.239891
0.649200 0.990407 0.238437
0.768787 0.990566 0.236983
0.887131 0.990726 0.235529
1.000000 0.990885 0.234074
0.029277 0.028952 0.407870
0.168462 0.029112 0.406422
0.297535 0.029271 0.404974
0.422607 0.029431 0.403526
0.545155 0.029590 0.402078
0.665862 0.029750 0.400630
0.785121 0.029909 0.399182
0.903191 0.030069 0.397734
0.989524 0.030228 0.396286
0.030887 0.159793 0.402999
0.165977 0.158760 0.401551
0.295219 0.157725 0.400103
0.420387 0.156690 0.398655
0.543001 0.155655 0.397207
0.663757 0.154619 0.395759
0.783058 0.153583 0.394311
0.901162 0.152547 0.392863
0.991133 0.151509 0.391414
0.032496 0.284690 0.398128
0.163483 0.283689 0.396680
0.292899 0.282688 0.395232
0.418163 0.281687 0.393784
0.540844 0.280685 0.392335
0.661652 0.279684 0.390887
0.780993 0.278682 0.389439
0.899131 0.277679 0.387991
0.992743 0.276677 0.386542
0.034105 0.406995 0.393256
0.160981 0.406013 0.391808
0.290576 0.405031 0.390360
0.415938 0.404048 0.388912
0.538686 0.403066 0.387463
0.659544 0.402083 0.386015
0.778926 0.401100 0.384567
0.897099 0.400117 0.383118
0.994352 0.399134 0.381670
0.035714 0.527650 0.388384
0.158470 0.526681 0.386936
0.288248 0.525712 0.385488
0.413710 0.524743 0.384039
0.536526 0.523774 0.382591
0.657436 0.522804 0.381142
0.776859 0.521835 0.379694
0.895066 0.520865 0.378245
0.995961 0.519895 0.376797
0.037323 0.647094 0.383512
0.155950 0.646135 0.382063
0.285917 0.645176 0.380615
0.411479 0.644217 0.379166
0.534364 0.643258 0.377718
0.655326 0.642298 0.376269
0.774791 0.641339 0.374821
0.893032 0.640380 0.373372
0.997570 0.639420 0.371923
0.038933 0.765582 0.378639
0.153422 0.764631 0.377190
0.283581 0.763680 0.375742
0.409246 0.762729 0.374293
0.532200 0.761778 0.372845
0.653214 0.760827 0.371396
0.772721 0.759876 0.369947
0.890997 0.758925 0.368498
0.999179 0.757974 0.367049
0.040542 0.883281 0.373766
0.150883 0.882337 0.372317
0.281242 0.881393 0.370868
0.407010 0.880449 0.369420
0.530034 0.879505 0.367971
0.651101 0.878561 0.366522
0.770650 0.877617 0.365073
0.888962 0.876672 0.363624
1.000000 0.875728 0.362175
0.042151 0.989664 0.368892
0.148335 0.989823 0.367443
0.278898 0.989983 0.365994
0.404772 0.990142 0.364546
0.527867 0.990301 0.363097
0.648987 0.990461 0.361648
0.768578 0.990620 0.360199
0.886925 0.990780 0.358750
1.000000 0.990939 0.357300
0.029440 0.029007 0.530506
0.168212 0.029166 0.529062
0.297302 0.029326 0.527617
0.422383 0.029485 0.526173
0.544938 0.029644 0.524728
0.665649 0.029804 0.523283
0.784913 0.029963 0.521838
0.902987 0.030123 0.520394
0.989687 0.030282 0.518949
0.031049 0.159442 0.525647
0.165725 0.158408 0.524202
0.294985 0.157374 0.522757
0.420162 0.156339 0.521312
0.542783 0.155304 0.519868
0.663545 0.154268 0.518423
0.782849 0.153231 0.516978
0.900957 0.152194 0.515533
0.991296 0.151157 0.514088
0.032658 0.284350 0.520786
0.163230 0.283349 0.519342
0.292665 0.282348 0.517897
0.417939 0.281347 0.516452
0.540626 0.280345 0.515007
0.661439 0.279343 0.513562
0.780784 0.278341 0.512117
0.898926 0.277339 0.510672
0.992905 0.276336 0.509227
0.034267 0.406662 0.515926
0.160728 0.405680 0.514481
0.290341 0.404697 0.513036
0.415713 0.403715 0.511591
0.538468 0.402732 0.510146
0.659332 0.401749 0.508701
0.778718 0.400766 0.507256
0.896894 0.399783 0.505811
0.994514 0.398800 0.504366
0.035877 0.527321 0.511065
0.158216 0.526352 0.509620
0.288013 0.525383 0.508175
0.413485 0.524414 0.506730
0.536308 0.523444 0.505285
0.657223 0.522475 0.503840
0.776650 0.521505 0.502395
0.894861 0.520536 0.500950
0.996123 0.519566 0.499505
0.037486 0.646768 0.506204
0.155695 0.645809 0.504759
0.285681 0.644850 0.503314
0.411254 0.643891 0.501869
0.534145 0.642932 0.500424
0.655113 0.641973 0.498979
0.774582 0.641013 0.497533
0.892827 0.640054 0.496088
0.997733 0.639094 0.494643
0.039095 0.765259 0.501343
0.153166 0.764308 0.499898
0.283345 0.763357 0.498453
0.409020 0.762406 0.497007
0.531981 0.761455 0.495562
0.653001 0.760504 0.494117
0.772512 0.759553 0.492672
0.890792 0.758602 0.491226
0.999342 0.757651 0.489781
0.040704 0.882961 0.496481
0.150626 0.882017 0.495036
0.281006 0.881073 0.493591
0.406785 0.880129 0.492145
0.529816 0.879184 0.490700
0.650888 0.878240 0.489255
0.770441 0.877296 0.487809
0.888756 0.876352 0.486364
1.000000 0.875407 0.484919
0.042313 0.989718 0.491619
0.148077 0.989877 0.490174
0.278661 0.990037 0.488729
0.404546 0.990196 0.487283
0.527648 0.990356 0.485838
0.648773 0.990515 0.484392
0.768369 0.990674 0.482947
0.886719 0.990834 0.481501
1.000000 0.990993 0.480056
0.029602 0.029061 0.652833
0.167961 0.029220 0.651391
0.297068 0.029380 0.649949
0.422159 0.029539 0.648507
0.544721 0.029699 0.647065
0.665437 0.029858 0.645622
0.784705 0.030017 0.644180
0.902782 0.030177 0.642738
0.989849 0.030336 0.641296
0.031211 0.159091 0.647982
0.165474 0.158057 0.646540
0.294751 0.157022 0.645097
0.419938 0.155987 0.643655
0.542565 0.154952 0.642213
0.663332 0.153916 0.640771
0.782641 0.152879 0.639328
0.900752 0.151842 0.637886
0.991458 0.150805 0.636444
0.032821 0.284011 0.643130
0.162978 0.283009 0.641688
0.292431 0.282008 0.640246
0.417714 0.281007 0.638803
0.540409 0.280005 0.637361
0.661226 0.279003 0.635919
0.780575 0.278001 0.634476
0.898721 0.276998 0.633034
0.993067 0.275996 0.631592
0.034430 0.406328 0.638278
0.160474 0.405346 0.636836
0.290106 0.404364 0.635394
0.415488 0.403381 0.633951
0.538250 0.402398 0.632509
0.659119 0.401416 0.631067
0.778509 0.400433 0.629624
0.896689 0.399450 0.628182
0.994677 0.398466 0.626739
0.036039 0.526992 0.633426
0.157962 0.526023 0.631984
0.287778 0.525054 0.630541
0.413260 0.524084 0.629099
0.536089 0.523115 0.627657
0.657010 0.522146 0.626214
0.776442 0.521176 0.624772
0.894656 0.520206 0.623329
0.996286 0.519236 0.621887
0.037648 0.646443 0.628574
0.155441 0.645484 0.627131
0.285446 0.644525 0.625689
0.411028 0.643565 0.624246
0.533927 0.642606 0.622804
0.654899 0.641647 0.621361
0.774373 0.640687 0.619919
0.892622 0.639728 0.618476
0.997895 0.638768 0.617034
0.039257 0.764936 0.623721
0.152910 0.763985 0.622279
0.283109 0.763034 0.620836
0.408795 0.762083 0.619394
0.531763 0.761132 0.617951
0.652788 0.760181 0.616509
0.772303 0.759230 0.615066
0.890587 0.758279 0.613623
0.999504 0.757327 0.612181
0.040867 0.882640 0.618869
0.150369 0.881696 0.617426
0.280769 0.880752 0.615983
0.406559 0.879808 0.614541
0.529597 0.878864 0.613098
0.650674 0.877920 0.611655
0.770232 0.876975 0.610213
0.888551 0.876031 0.608770
1.000000 0.875086 0.607327
0.042476 0.989772 0.614015
0.147819 0.989931 0.612573
0.278425 0.990091 0.611130
0.404320 0.990250 0.609687
0.527429 0.990410 0.608245
0.648560 0.990569 0.606802
0.768160 0.990729 0.605359
0.886513 0.990888 0.603916
1.000000 0.991048 0.602474
0.029765 0.029115 0.774914
0.167710 0.029274 0.773474
0.296834 0.029434 0.772033
0.421935 0.029593 0.770593
0.544503 0.029753 0.769153
0.665225 0.029912 0.767713
0.784496 0.030072 0.766273
0.902577 0.030231 0.764833
0.990012 0.030391 0.763393
0.031374 0.158740 0.770069
0.165222 0.157706 0.768629
0.294517 0.156671 0.767189
0.419714 0.155636 0.765749
0.542348 0.154600 0.764309
0.663120 0.153564 0.762868
0.782432 0.152527 0.761428
0.900547 0.151490 0.759988
0.991621 0.150452 0.758548
0.032983 0.283671 0.765224
0.162726 0.282669 0.763784
0.292196 0.281668 0.762344
0.417490 0.280667 0.760904
0.540191 0.279665 0.759464
0.661014 0.278663 0.758023
0.780367 0.277660 0.756583
0.898516 0.276658 0.755143
0.993230 0.275655 0.753703
0.034592 0.405995 0.760380
0.160221 0.405012 0.758939
0.289871 0.404030 0.757499
0.415263 0.403047 0.756059
0.538032 0.402065 0.754619
0.658906 0.401082 0.753178
0.778300 0.400099 0.751738
0.896483 0.399116 0.750298
0.994839 0.398132 0.748857
0.036202 0.526663 0.755534
0.157708 0.525694 0.754094
0.287543 0.524725 0.752654
0.413034 0.523755 0.751214
0.535871 0.522786 0.749773
0.656797 0.521816 0.748333
0.776233 0.520847 0.746893
0.894450 0.519877 0.745452
0.996448 0.518907 0.744012
0.037811 0.646117 0.750689
0.155185 0.645158 0.749249
0.285210 0.644199 0.747809
0.410803 0.643240 0.746368
0.533709 0.642280 0.744928
0.654686 0.641321 0.743487
0.774164 0.640362 0.742047
0.892416 0.639402 0.740606
0.998058 0.638442 0.739166
0.039420 0.764613 0.745844
0.152654 0.763662 0.744403
0.282873 0.762712 0.742963
0.408569 0.761761 0.741523
0.531544 0.760809 0.740082
0.652574 0.759858 0.738642
0.772094 0.758907 0.737201
0.890381 0.757956 0.735761
0.999667 0.757004 0.734320
0.041029 0.882320 0.740998
0.150112 0.881376 0.739558
0.280533 0.880431 0.738117
0.406333 0.879487 0.736677
0.529378 0.878543 0.735236
0.650461 0.877599 0.733796
0.770023 0.876655 0.732355
0.888345 0.875710 0.730915
1.000000 0.874766 0.729474
0.042638 0.989826 0.736152
0.147561 0.989986 0.734712
0.278188 0.990145 0.733271
0.404094 0.990304 0.731831
0.527210 0.990464 0.730390
0.648346 0.990623 0.728949
0.767950 0.990783 0.727509
0.886308 0.990942 0.726068
1.000000 0.991102 0.724628
0.029927 0.029169 0.896790
0.167460 0.029329 0.895351
0.296600 0.029488 0.893913
0.421711 0.029647 0.892475
0.544286 0.029807 0.891036
0.665012 0.029966 0.889598
0.784288 0.030126 0.888159
0.902372 0.030285 0.886721
0.990174 0.030445 0.885283
0.031536 0.158389 0.891951
0.164971 0.157354 0.890513
0.294283 0.156319 0.889074
0.419489 0.155284 0.887636
0.542130 0.154248 0.886197
0.662907 0.153212 0.884759
0.782224 0.152175 0.883320
0.900342 0.151137 0.881882
0.991783 0.150100 0.880444
0.033146 0.283331 0.887112
0.162473 0.282329 0.885674
0.291962 0.281328 0.884235
0.417265 0.280326 0.882797
0.539973 0.279324 0.881358
0.660801 0.278322 0.879920
0.780158 0.277320 0.878481
0.898310 0.276317 0.877043
0.993392 0.275315 0.875604
0.034755 0.405661 0.882273
0.159968 0.404679 0.880835
0.289636 0.403696 0.879396
0.415038 0.402714 0.877958
0.537814 0.401731 0.876519
0.658693 0.400748 0.875081
0.778092 0.399765 0.873642
0.896278 0.398782 0.872204
0.995002 0.397798 0.870765
0.036364 0.526334 0.877434
0.157454 0.525365 0.875995
0.287307 0.524395 0.874557
0.412809 0.523426 0.873118
0.535653 0.522457 0.871680
0.656584 0.521487 0.870241
0.776024 0.520517 0.868803
0.894245 0.519547 0.867364
0.996611 0.518578 0.865925
0.037973 0.645791 0.872595
0.154930 0.644832 0.871156
0.284974 0.643873 0.869717
0.410578 0.642914 0.868279
0.533490 0.641955 0.866840
0.654473 0.640995 0.865402
0.773955 0.640036 0.863963
0.892211 0.639076 0.862524
0.998220 0.638116 0.861086
0.039582 0.764290 0.867755
0.152398 0.763340 0.866317
0.282637 0.762389 0.864878
0.408344 0.761438 0.863439
0.531326 0.760486 0.862001
0.652361 0.759535 0.860562
0.771885 0.758584 0.859123
0.890176 0.757633 0.857684
0.999829 0.756681 0.856246
0.041192 0.881999 0.862915
0.149855 0.881055 0.861477
0.280296 0.880111 0.860038
0.406107 0.879167 0.858599
0.529159 0.878222 0.857161
0.650248 0.877278 0.855722
0.769814 0.876334 0.854283
0.888139 0.875389 0.852844
1.000000 0.874445 0.851406
0.042801 0.989880 0.858076
0.147303 0.990040 0.856637
0.277951 0.990199 0.855198
0.403868 0.990359 0.853759
0.526991 0.990518 0.852321
0.648133 0.990678 0.850882
0.767741 0.990837 0.849443
0.886102 0.990996 0.848004
1.000000 0.991156 0.846565
0.030090 0.029223 0.979454
0.167209 0.029383 0.979135
0.296367 0.029542 0.978816
0.421487 0.029702 0.978497
0.544068 0.029861 0.978178
0.664800 0.030020 0.977859
0.784080 0.030180 0.977540
0.902167 0.030339 0.977221
0.990336 0.030499 0.976902
0.031699 0.158038 0.978381
0.164719 0.157003 0.978062
0.294049 0.155968 0.977743
0.419265 0.154932 0.977424
0.541912 0.153896 0.977105
0.662695 0.152860 0.976786
0.782015 0.151823 0.976467
0.900137 0.150785 0.976148
0.991946 0.149747 0.975830
0.033308 0.282991 0.977308
0.162221 0.281989 0.976989
0.291727 0.280988 0.976670
0.417040 0.279986 0.976351
0.539755 0.278984 0.976032
0.660588 0.277982 0.975714
0.779950 0.276980 0.975395
0.898105 0.275977 0.975076
0.993555 0.274974 0.974757
0.034917 0.405328 0.976235
0.159714 0.404345 0.975916
0.289401 0.403363 0.975597
0.414814 0.402380 0.975278
0.537596 0.401397 0.974960
0.658480 0.400414 0.974641
0.777883 0.399431 0.974322
0.896073 0.398448 0.974003
0.995164 0.397464 0.973684
0.036526 0.526005 0.975162
0.157199 0.525036 0.974844
0.287072 0.524066 0.974525
0.412584 0.523097 0.974206
0.535435 0.522127 0.973887
0.656371 0.521158 0.973568
0.775815 0.520188 0.973249
0.894040 0.519218 0.972930
0.996773 0.518248 0.972611
0.038136 0.645466 0.974090
0.154675 0.644507 0.973771
0.284739 0.643547 0.973452
0.410352 0.642588 0.973133
0.533272 0.641629 0.972814
0.654260 0.640669 0.972495
0.773746 0.639710 0.972176
0.892005 0.638750 0.971857
0.998382 0.637790 0.971538
0.039745 0.763968 0.973017
0.152142 0.763017 0.972698
0.282401 0.762066 0.972379
0.408118 0.761115 0.972060
0.531107 0.760163 0.971741
0.652148 0.759212 0.971422
0.771676 0.758261 0.971103
0.889970 0.757310 0.970784
0.999992 0.756358 0.970466
0.041354 0.881678 0.971944
0.149598 0.880734 0.971625
0.280059 0.879790 0.971306
0.405881 0.878846 0.970987
0.528941 0.877902 0.970668
0.650034 0.876957 0.970350
0.769604 0.876013 0.970031
0.887934 0.875069 0.969712
1.000000 0.874124 0.969393
0.042963 0.989934 0.970871
0.147044 0.990094 0.970552
0.277714 0.990253 0.970233
0.403641 0.990413 0.969914
0.526772 0.990572 0.969596
0.647919 0.990732 0.969277
0.767532 0.990891 0.968958
0.885896 0.991051 0.968639
1.000000 0.991210 0.968320
